Ath0601/CNC_UR5e/src/trialpkg/graphs/realop/joint_velocities.csv
time,shoulder_pan_joint,elbow_joint,wrist_1_joint,wrist_2_joint,wrist_3_joint,shoulder_lift_joint,end_mill_joint
1755267046.5895202,-1.3528024186970633e-14,-1.000498512163106e-13,5.237390382495377e-14,-8.841278403837194e-14,1.0542738557162146e-13,5.288131044167699e-14,3.411854132551184e-14
1755267046.5982316,-1.3163779094549355e-11,-5.317084272871142e-11,-3.0531854475213116e-10,8.432263776114723e-10,-2.4313782126528238e-08,-1.570406998885332e-12,74.93333429844495
1755267046.6083007,-1.5645422023896627e-11,1.7976467536762186e-10,6.799956153713538e-10,2.5938935444003164e-09,-2.152524769538644e-08,3.704853090980009e-11,148.73582372644094
1755267046.6181965,0.02118260628247858,1.9609464494991374e-06,-7.800987511935586e-07,-6.280000006349097,2.0496403240199967e-06,-1.1802547619614578e-06,218.70469121973002
1755267046.6282697,-0.046548948422700714,-0.1581137905670124,-6.280000002584037,6.280000007650385,1.595261207221199e-05,-9.124689535393304e-06,271.4504827288236
1755267046.6383924,-0.002748011494279237,1.1983097669977443,6.28000000336379,-6.280000002492708,5.14518445536849e-05,-2.948532827229053e-05,311.2768596934971
1755267046.6482286,0.07443670113802603,-1.2805570963703874,-6.280000004206502,6.280000012608854,0.00011614798744385979,-0.002393374470150346,345.2326564553389
1755267046.6582975,0.20263393613604663,1.7922868092241107,6.280000002218405,-6.280000019583639,0.00021570053884767404,-0.002525701836554921,378.2922219147425
1755267046.6682825,-0.6156292302624625,-0.2320883450594835,-1.4930330461515924,6.280000022253532,0.0003540081434635356,-0.04747220099563272,397.49947647336154
1755267046.6782,0.8115959033617023,-0.6846596452971243,-6.280000006584152,-6.280000009112322,0.0005333986785727163,0.0289623774680337,421.3085138626382
1755267046.688527,-0.0933891956852988,2.340044119934835,6.280000005968633,-6.280000022093542,0.0007547698585927964,-0.0041725435038407754,433.154629593634
1755267046.6984587,-0.7844725353251862,-0.11571439186656607,0.46807495481835043,6.280000026852932,0.001017740677356234,-0.09993298956320638,447.61378385239504
1755267046.7086775,0.621822092668991,-1.8571879092806567,-6.280000009545436,6.280000003188491,0.0013207819305751656,0.37264075859579837,456.1628266232932
1755267046.7191405,0.7545113367986352,1.904533390614366,0.960803560662544,-6.2800000325031675,0.0016613212562290869,0.04064071948758256,475.640209142046
1755267046.7292118,-0.5624361718895338,3.1400000002213275,6.280000009520991,-6.280000006029171,0.0020358446942094766,-0.326366981184812,477.237385904591
1755267046.739239,-0.7930344714837907,-0.2338620893701595,0.27885417550049096,6.280000030823025,0.0024400291569259824,-0.030047368333843236,475.4952617286802
1755267046.7493427,0.5107190709735765,-2.4588198257858154,-6.28000000928755,6.2800000177197965,0.002868688710724321,0.4903483317375986,482.3745600630439
1755267046.7592127,0.9402555988830978,0.32918841389972253,-5.267236062119981,-6.2800000270672705,0.003316130991091626,0.11001012521107702,476.0337860578188
1755267046.7691088,-0.18487965217201413,3.1400000008280418,6.280000007400382,-6.280000027247127,0.0037758314737588172,-0.23972427614985226,477.76587817712436
1755267046.779487,-0.971565609156651,0.6129498871999788,6.280000002440407,6.280000022866922,0.00424090352384765,-0.05467346756216772,478.37782124681394
1755267046.789502,-0.025305633123199944,-2.4044455372535585,-6.280000006054017,6.280000029880625,0.004703851737696274,0.295615416799594,482.0551277410447
1755267046.799658,0.9106579198812713,-0.45141540028980026,-6.280000005895525,-6.280000018710801,0.005156751761228762,0.13682979925215455,482.747862815487
1755267046.8096526,-0.009259568754187208,3.140000000332023,6.28000000456845,-6.2800000324671394,0.00559126970766699,-0.17574433220514157,485.48449982596213
1755267046.8196194,-1.04423736554134,1.104289701283112,6.280000009952582,6.280000010754103,0.005998708920293749,-0.21363128939853365,484.15975050583046
1755267046.8298397,-0.44827957952424863,-2.0714489207468483,-6.280000001433733,6.280000034090605,0.006370036181321814,0.043984502185307195,489.6568753716832
1755267046.8402376,0.7739030681383919,-1.6532924519682937,-6.2800000109617,-0.8461509761584489,0.006695922779803354,0.32383916271859714,477.054067423738
1755267046.8501897,0.46254848980218816,2.297512460986141,3.86583387095635,-6.2800000351675465,0.006966767535319551,-0.0684357836057038,491.80449331698
1755267046.8601217,-0.8017145153971537,1.5554710148135722,6.280000010170868,0.03349104851305107,0.007172721902106605,-0.2321166185266629,480.7130838526325
1755267046.8702664,-0.783145150881499,-1.7886947506718363,-1.1392764423094168,6.280000033501096,0.007303718378820656,-0.08197388943296141,483.69069668173427
1755267046.8801904,0.5973743341551858,-3.1400000001987003,-6.280000010325555,6.280000005988993,0.007349496398543209,0.3988931310026894,480.6207863093661
1755267046.89036,0.808089762079309,0.11677593555945476,-1.2488608681648898,-6.28000003098742,0.0072996324347442965,0.059359788170469635,478.04546582957687
1755267046.9002225,-0.4797837712951283,2.3095147605998076,6.280000008257359,-6.280000017516379,0.0071434339538835046,-0.32713173605242146,476.1450474319218
1755267046.910239,-0.9400137778038805,-0.3824593853049578,5.38935894771668,6.280000026993449,0.006870224022789306,-0.1090559485728209,476.9762584794937
1755267046.9204903,0.18603310683350965,-3.140000000287069,-6.280000007478156,6.280000027322323,0.006469087901906256,0.32666877742411,481.9055760053834
1755267046.930523,0.9752892561203652,-0.33086176590158756,-6.280000002823659,-6.280000023422229,0.005929009596648438,-0.01814121882906014,483.6359251439189
1755267046.9402623,0.06191473737894698,3.0489601981098478,6.280000005528869,-6.280000031238728,0.005238862871209227,-0.31497756435625907,488.0332048118816
1755267046.9501612,-0.8881773172081312,0.755607703099834,6.280000007976058,6.280000015428559,0.004387427700564772,-0.15535909916185503,480.540404835864
1755267046.9605308,-0.16125254230158279,-2.3546353620585903,-6.280000003125798,6.280000032793687,0.0033633875229956978,0.14637950881714876,485.5757081829023
1755267046.9705818,0.9980933440817471,-1.387590538429602,-6.280000011006251,-6.280000007896311,0.0021553471992810103,0.29382957579709434,488.35459051642465
1755267046.9807637,0.48765094592542946,2.521285688056553,5.714778505459276,-6.280000034488523,0.0007518341809440443,-0.07757889139115395,490.80037230803885
1755267046.99102,-0.7484799121028755,1.7801386616552788,6.280000010149564,-0.05973953548093425,-0.0008586912013118231,-0.2508248111029943,473.9190249681489
1755267047.0012443,-0.42945432090232805,-2.057557846702208,-3.0063076649010516,6.28000003473327,-0.002687839638297107,0.20500633907578625,489.1635714345541
1755267047.0111792,0.7933505867206165,-2.190098879262924,-6.280000010787745,-0.12084906757370728,-0.004747263754110609,0.46952131240415484,480.582144310206
1755267047.0214827,0.7904265301892804,1.8520307175771817,0.5759809549007966,-6.280000033761468,-0.007048678619887561,-0.07341486189477997,485.1808738490835
1755267047.031346,-0.5066876200620429,3.1050114722350495,6.280000009003843,-6.280000013936064,-0.009603849719975577,-0.4462512338708027,480.41509580127183
1755267047.0414705,-0.8011250904911575,-0.31894807550868287,2.2743164614743234,6.280000029346816,-0.012424552926398186,-0.1092028104238204,475.5179795767846
1755267047.0515866,0.40835923470978974,-3.140000000024258,-6.280000008656698,6.280000020120546,-0.015522708818030306,0.5656762308781995,486.8998909233566
1755267047.0616107,0.9627178439050077,-0.14863661223634095,-6.280000002187749,-6.280000024839939,-0.018910124074040358,0.10061433950509656,479.7644992719314
1755267047.0718815,-0.061544733356578785,3.1400000000202968,6.280000006460522,-6.28000002954451,-0.022598748030080662,-0.3256475617499507,483.34365408893126
1755267047.0819938,-0.9139827996228601,0.6083059342297605,6.280000004686883,6.280000019159139,-0.026600523510388996,-0.11057011899978257,477.331756434507
1755267047.0921988,-0.07611328179682661,-2.5169147640342597,-6.280000004637197,6.280000032669371,-0.03092743123469832,0.2595332160469781,490.8177139804201
1755267047.102089,0.9190286871628808,-1.1221821388404687,-6.280000010647619,-6.280000010887658,-0.03559147711500543,0.2297545354732499,484.5346318012136
1755267047.1122339,0.3152556284052786,3.047447408878457,6.280000002250388,-6.280000034166335,-0.040604693836692185,-0.19005878971940432,490.9388145683271
1755267047.1223717,-0.8796975864128054,1.6599650901686607,6.280000010166068,1.494139774260618,-0.04591564465858167,-0.24853120913589977,476.3383261039451
1755267047.1325808,-0.5590599300991363,-1.5794680518472621,-5.858392395632568,6.28000003397004,-0.05123616865904068,-0.058683447109247944,485.99718456061447
1755267047.1423576,0.7789649951413902,-1.8550813743018322,-6.280000011140455,0.3455505212882002,-0.05627397560448255,0.33308983852857665,482.788156788014
1755267047.1523426,0.5958824676670595,1.9896381766425433,1.7991488779272775,-6.280000034697004,-0.06079807765239309,-0.07958858750384079,489.18990326068825
1755267047.1625679,-0.7059182296555266,2.474761773409658,6.280000009575097,-6.280000004581086,-0.06463139923040616,-0.3057442229844166,473.75918997424833
1755267047.1727383,-0.9083940343101825,-0.606818616510975,0.38045910167122887,6.280000031336229,-0.06764408521563645,-0.06558908842466053,474.82712529626264
1755267047.1830463,0.37780184093121144,-2.4483816892688735,-6.280000009597424,6.28000001647251,-0.06974764507266729,0.38930873496673757,482.1412009123554
1755267047.1928625,0.7596805840024194,0.3663709275628494,-3.982589635799545,-6.2800000283606785,-0.07088928795099925,0.07213758193451489,477.6702310735096
1755267047.2031343,-0.3890157430858896,3.140000000063473,6.280000007628132,-6.2800000262222575,-0.07104746264687956,-0.34854562322322846,478.93257242976983
1755267047.21328,-1.1177315158449779,0.168955886990025,6.280000002225774,6.280000023826382,-0.07022708072880413,-0.044073286412282454,479.06729522191495
1755267047.2232308,-0.11214376754584415,-2.6699146718762745,-6.280000006313602,6.280000030180915,-0.0684558955130905,0.3318185610248765,484.38002590871076
1755267047.2332983,0.8130923996633523,-0.7556719502773197,-6.280000005855052,-6.2800000185857705,-0.06578082943634467,0.18959351944295075,485.3564494977487
1755267047.2431285,-0.07646915483624483,3.140000000277677,6.280000004438635,-6.280000032935305,-0.062264819670914795,-0.2691683722958151,487.47666281254806
1755267047.2535567,-1.0747645618032062,0.9909652805802753,6.280000009292905,6.2800000109842244,-0.05798394571765264,-0.17019144793979166,485.43865341906456
1755267047.2633123,-0.5035775784333668,-2.5588996238452415,-6.280000001576171,6.280000034086662,-0.05302486258582073,0.08545702321121823,489.60360858411724
1755267047.2734,0.709042448766616,-2.1107793456586865,-6.280000011273215,-0.5533663623515848,-0.047482471930877956,0.2643722300076107,483.8260408874017
1755267047.2835152,0.40356977135930083,1.535766402087626,3.528975214345131,-6.280000034771263,-0.041457839079059866,-0.05989687518743922,488.98662802988133
1755267047.2933335,-0.813173309781672,1.4503799291355473,6.280000010085891,0.18631805561384152,-0.035056317240002466,-0.309427156084931,478.12766516103306
1755267047.3037546,-0.8142086568507239,-1.7617687564491282,-0.387007283503221,6.28000003358941,-0.028385822361795543,-0.0665973944814314,479.9692257383173
1755267047.3136835,0.504912117856025,-3.140000000386067,-6.280000009991976,6.280000010254552,-0.0215554385925274,0.3844136891579063,476.3878039449689
1755267047.3236604,0.7830759424491297,0.06353245375086525,-0.6052339770728954,-6.280000031357375,-0.014673802803780056,0.07922979787854964,483.04999183743735
1755267047.3338242,-0.4694022335944505,2.327198174573912,6.2800000082991465,-6.2800000185947304,-0.007848124372679344,-0.34024187721242594,480.59789509729234
1755267047.3439198,-0.9658451663712465,-0.39987607708632966,5.615243458832443,6.2800000260377935,-0.0011829122563702943,-0.08326112683388265,473.39443777144777
1755267047.3538475,0.14387949506239195,-3.140000000786629,-6.280000007554106,6.280000028446366,0.005220859864742522,0.30645254068913186,485.91676926207987
1755267047.364033,0.9499871123877868,-0.5778526224239546,-6.2800000037932175,-6.280000021902289,0.011266918957654859,0.022446753956987517,479.58627858652994
1755267047.3742898,0.07928214710954579,2.4763481620125547,6.280000005435243,-6.280000030747463,0.016864224223312796,-0.17156311297937263,481.9642528350109
1755267047.3841672,-0.9290606196609338,0.8257774584475341,6.280000008246193,6.280000015361502,0.021927847893869146,-0.20433530516937823,482.17404200198337
1755267047.39419,-0.16112108402386746,-2.222116685503633,-6.280000002963902,6.280000033104869,0.026379590180776624,0.10124616470720574,487.06455940382483
1755267047.4044583,0.9903958353614882,-1.3402088480687626,-6.280000011137986,-6.280000006308486,0.030148574984523613,0.25370132081549535,490.18268079362844
1755267047.4144905,0.5259522078860404,2.415735234927393,5.649939650573245,-6.280000033773582,0.03317177760924617,-0.09209196138052828,485.34681334101913
1755267047.4245021,-0.7123668221675523,1.9026413258930182,6.2800000102587,0.03231010043073246,0.03539450127634303,-0.300211316954081,477.10583186591543
1755267047.434677,-0.4642837965671348,-1.8814422852426373,-2.0338253309008922,6.280000034521791,0.036770836521743455,0.10894371327991809,482.2049464699023
1755267047.4448369,0.8676845436103043,-2.264276558887447,-6.280000010726884,6.280000000050814,0.03726392176371629,0.4540078474308602,474.19981677423596
1755267047.455002,0.8538775516790764,1.7802743219945376,0.8349413908326833,-6.280000033689028,0.036846540994112775,-0.05655867225718916,485.1505310254766
1755267047.4649456,-0.4380130035860064,3.140000000020568,6.28000000894387,-6.280000013619702,0.03550117794814406,-0.46158876865710874,478.16193462137807
1755267047.4753573,-0.742713134871184,-0.2694639988818035,2.0080368390921675,6.280000029511751,0.03322046833282313,-0.1288150752905896,475.31815764430536
1755267047.4851444,0.4995912687310695,-3.140000000003336,-6.2800000087565415,6.280000019693077,0.030007287562862306,0.5685265116590978,486.0280993027818
1755267047.4954119,1.0279663757575594,-0.04059310889878398,-6.280000002002264,-6.280000025313239,0.02587523484691978,0.0699180318087538,477.73448908133594
1755267047.5055604,-0.0024050572751433963,3.140000000653199,6.280000006736074,-6.280000029215774,0.020848580474039036,-0.3283256854549977,481.44766958469825
1755267047.5153313,-0.8796318476662328,0.7289323017333833,6.280000004924034,6.280000019408259,0.01496259399962152,-0.13216750558490845,482.3683513762197
1755267047.5253644,-0.02479318213236431,-3.1400000003067388,-6.280000004524849,6.280000032403457,0.008263670662702172,0.4374752051410558,489.0773161716054
1755267047.5354955,0.9752053363238271,-1.0921317839927176,-6.280000010798169,-6.280000011317815,0.0008094840254608826,0.21053477367225676,488.4855223676528
1755267047.5455112,0.3685657561383481,2.983793583323058,6.861460097941125,-6.280000034588284,-0.007330872676678979,-0.1636902470024913,494.6466204325802
1755267047.5559833,-0.8045836704655771,1.7465907824823643,6.2800000102276705,0.3832426651334284,-0.0160767799390108,-0.2741556618742052,476.19830383138157
1755267047.5661542,-0.5221903342033406,-2.114124279092646,-3.8280333271621485,6.280000034302901,-0.0253359663800643,0.15014989175040683,486.4339569390931
1755267047.5762134,0.7557288906114847,-2.0815614065436074,-6.280000011098318,0.38225285487689753,-0.03500441142263533,0.35967409971733205,483.8813075075565
1755267047.5860417,0.6985386030963353,1.8288772905620427,1.1293823050391636,-6.280000034359304,-0.04496626817788618,-0.09906622080464375,488.43534054307815
1755267047.5960495,-0.6295750321368999,2.500176277246079,6.28000000922167,-6.280000010091419,-0.055093782763873056,-0.30611875736268773,473.53510015541457
1755267047.606226,-0.8828009313384356,-0.48748221150151677,0.28283206122023064,6.280000030756369,-0.06524718380824934,-0.08025218096583503,474.9229775993757
1755267047.6162834,0.38720398941223894,-2.5532484154131807,-6.2800000093840875,6.280000018157125,-0.07527475332638556,0.4112502292419986,483.3143726406719
1755267047.626267,0.832844848727914,0.15282873069301695,-5.2194982448106275,-6.280000027050836,-0.08496975902579607,0.0727277968521933,478.61804073233594
1755267047.6364534,-0.24617012639660962,3.1400000000684223,6.280000007282391,-6.280000028288065,-0.09397318463767768,-0.31578124852695655,482.9467312403216
1755267047.646531,-1.0500399534620297,0.36126578067821,6.280000002493251,6.280000021692413,-0.1019612349251856,-0.03238011229697569,476.3545518867011
1755267047.656547,-0.18131338811935882,-2.514130314445503,-6.28000000590679,6.280000030223551,-0.10868950922733411,0.3082283281988264,482.39918538454134
1755267047.6666026,0.7954956350774878,-0.7202099727313533,-6.2800000064688914,-6.280000017405371,-0.11398299833916159,0.1888908766919646,484.9820235930695
1755267047.6767297,-0.07371539769566349,3.1400000002101094,6.280000004182595,-6.280000033260457,-0.11772723553406772,-0.21362901168213672,488.1390490062157
1755267047.6866155,-1.1338917993984547,1.1489133300854193,6.280000009716401,6.28000000960888,-0.11986029805965304,-0.1450200626975233,478.1865296854381
1755267047.6967857,-0.6221467609682736,-2.5274783977254613,-6.280000001591195,6.280000034475748,-0.12036562617304525,0.23776448745639323,492.35145489530817
1755267047.7069352,0.5765269721197377,-1.9261011212217962,-6.280000011065214,0.41060977292830003,-0.11926553993534927,0.3923871308428337,478.1816327374551
1755267047.7170956,0.26705872181338514,1.6982525343045334,3.8241459859406977,-6.280000034296165,-0.11661542330076147,-0.006491369085843241,485.5832446809341
1755267047.7271342,-0.9213594621485843,1.6414475599239728,6.280000010244651,0.3401868293780419,-0.11249848088150743,-0.2770753712918367,482.4758578121935
1755267047.7371993,-0.906179242019479,-1.6869362235240208,-0.5074105112616225,6.280000032982642,-0.10702098877440715,-0.01689213850406493,476.2572193453194
1755267047.747264,0.3786833982303127,-3.140000000625509,-6.2800000102518805,6.280000010891332,-0.10030817464958819,0.36996304408797975,481.24436369180575
1755267047.7572196,0.6656800195171388,-0.3318084307383937,-1.756622497942781,-6.280000030589843,-0.0925001217925896,0.12620909414303708,478.91778241584245
1755267047.7671597,-0.5223810450662199,2.1024830615129484,6.280000008215137,-6.280000018154549,-0.0837487189554389,-0.2775523638964989,477.24012279944316
1755267047.7771792,-1.072597493433726,-0.5475922438144688,5.893558115158005,6.280000026403787,-0.0742141584753978,-0.0232167395322134,477.73007337073625
1755267047.7872424,-0.014135126011843635,-3.1400000007364124,-6.280000007277514,6.28000002836691,-0.06406244846504228,0.30555678615440096,482.2919833122198
1755267047.7971666,0.8659914072565094,-0.7394316323164103,-6.28000000346543,-6.280000022341564,-0.05346277720878767,0.06111614782558235,484.4778812992037
1755267047.8073876,0.008981891063551961,2.3585321280062974,6.280000005246871,-6.280000031776833,-0.042585281219636784,-0.14325967534907805,486.7818699354267
1755267047.817412,-1.0156944262539211,0.7068335238405198,6.2800000085154295,6.280000014243447,-0.03159900578009933,-0.15900908503269393,478.7208250639464
1755267047.8277245,-0.24965495849346023,-3.140000000076246,-6.280000002763716,6.280000033799986,-0.020670086615405925,0.25752907286518023,492.4353878852149
1755267047.8374019,0.8908842548982695,-1.3397149871165266,-6.28000001099875,-6.28000000470665,-0.009960099314875848,0.23452363261404527,486.1219676039438
1755267047.8478868,0.4983264231545825,2.436945406269672,5.303512708958966,-6.280000034176659,0.00037541596150125756,-0.07192767908576866,487.18101879622503
1755267047.8577137,-0.7436779363081253,1.9216144760411904,6.280000010366997,0.11919499467154837,0.010188297661634371,-0.3084966133769669,480.83368786542576
1755267047.8677852,-0.6089440897632336,-1.020800886375475,-1.9137055328762704,6.280000033938016,0.01933894596743213,-0.09523646322690067,485.0625389137095
1755267047.8781953,0.7364299559498013,-2.34020741384451,-6.280000010685029,6.280000004245976,0.027697420531572536,0.3988750722276878,481.12551126944373
1755267047.8880894,0.8513198970961632,0.5772467239174194,0.2272929768931938,-6.28000003206412,0.035144396931458655,0.037921639775960414,482.5771079705694
1755267047.8982828,-0.4632378083266178,3.110815790755523,6.2800000086150085,-6.280000016490291,0.041572042313121726,-0.5176185278047074,479.77051389355734
1755267047.9086938,-0.8010530172300372,-0.18341840586256117,3.8637944767507353,6.280000027832919,0.04688484266801546,-0.11471917754293535,473.9250850666442
1755267047.9183707,0.3971897246025488,-3.1400000000511485,-6.280000008146995,6.280000026517573,0.05100016738721358,0.49965184984752203,485.5705106829602
1755267047.9283571,1.043056233469682,-0.18579165784054577,-6.280000002578685,-6.280000023707128,0.05384916900673975,0.02503292473836631,478.7083364992013
1755267047.938619,0.08227535569959754,3.1400000005466255,6.280000006149159,-6.28000003009733,0.055377094527545356,-0.34725557386938444,481.98444336505355
1755267047.9486983,-0.7958279147071464,0.8135360601472883,6.280000006366397,6.280000017606865,0.05554394276226815,-0.15516853159966376,481.23320714724866
1755267047.9588218,0.03363982523319348,-3.1400000002615505,-6.280000003916006,6.280000032513833,0.05432489163022347,0.4627284899659791,487.17846394902887
1755267047.9692297,1.0493063614598295,-1.190316506468387,-6.280000010847333,-6.2800000103576625,0.051710720023932844,0.2809025353746486,487.1068808348036
1755267047.9791026,0.45858040340857265,3.0200354167065036,6.834907525236995,-6.280000033992792,0.04770818547100175,-0.16655883687520986,491.1356981400504
1755267047.9892921,-0.733818435339875,1.8549317461987795,6.280000010187122,0.8643312816248123,0.04234036091987764,-0.31017414365037316,474.9888594978543
1755267047.999178,-0.42812641030382936,-1.4947748901217563,-3.8586675852498304,6.2800000346190785,0.0356469374801347,-3.689826222341708e-13,488.8044685437228
1755267048.009313,0.8446817191903206,-2.077733045021061,-6.28000001089158,0.16682305504668893,0.02768451003777317,0.38929888882812047,479.10254742693934
1755267048.019452,0.7412240426840735,1.9941483930143886,1.4836782640552884,-6.280000033898958,0.01852680914558169,-0.13627291945616674,484.03767770760663
1755267048.0293057,-0.5903476565885523,3.1400000000761867,6.280000009540052,-6.280000006266358,0.008264927250920345,-0.4930775087071833,478.34229173639073
1755267048.0393074,-0.7989239146535155,-0.3856685119802547,0.6467093394722463,6.28000003071628,-0.002992443164362396,-0.11406328281431714,476.2090566672715
1755267048.0500524,0.46152101814194607,-2.5739425615271294,-6.280000009195996,6.280000018587224,-0.015118978040521203,0.4328065646609146,484.1448944126854
1755267048.0597591,0.9279723305949243,0.10562855914774194,-6.2800000012365755,-6.280000026428134,-0.0279702827866255,0.04445982938940682,478.350505933557
1755267048.0697527,-0.13372095321724858,3.140000000081424,6.280000006986285,-6.280000028701963,-0.0413840264286478,-0.33958946146239744,483.6688457382636
1755267048.079864,-0.968408034911943,0.4566727205951145,6.28000000262861,6.280000020887545,-0.05517965370132949,-0.06325701769668016,477.125965229514
1755267048.0902398,-0.13228727748564167,-2.4918859461217076,-6.280000005418722,6.280000030579881,-0.06915831483227075,0.3130589860375821,482.71281479439136
1755267048.1000881,0.8651530350002737,-0.7020627858932481,-6.280000008068635,-6.280000015960637,-0.08310275156916092,0.19867109928576512,486.04246611431097
1755267048.110319,0.06534679738071841,3.140000000114454,6.280000003407758,-6.280000033871424,-0.09677720311872351,-0.20484607603989174,491.39759804891565
1755267048.1203656,-1.0112855112754524,1.349962645920919,6.280000010089314,6.280000005962704,-0.10992731618834284,-0.16452563733573602,483.36455857682506
1755267048.1302855,-0.6253055262181391,-1.876833874567337,-6.2800000006039145,6.28000003391324,-0.12225484292807964,0.08359875939531292,486.91190169204333
1755267048.1401577,0.6585779017254361,-1.9691365860465395,-6.280000011206848,0.1966897269449377,-0.13337954196371804,0.4590959205444272,481.61829540373685
1755267048.150426,0.30098970786908996,2.097763656375649,3.465852985047276,-6.28000003461338,-0.142982448814978,0.02029540133811414,487.5421185021096
1755267048.1601863,-0.9801326891393364,2.0830553391233506,6.280000010235279,0.25752282852882136,-0.15083140907526837,-0.23919699372724773,482.96313541763976
1755267048.1704757,-1.0286681666503528,-1.0204224761523228,-0.2819221212898575,6.280000032639336,-0.15676997991504085,0.029971003125540713,476.31108484535343
1755267048.1803079,0.32493916532263967,-3.1400000001541177,-6.2800000097906565,6.280000011878087,-0.1607076030967729,0.6845785658150421,475.509256610684
1755267048.1903799,0.5580842760924942,-0.11819402869965734,-0.9967892507754231,-6.28000003110348,-0.16261039750546002,0.23791050168808509,482.55806420909823
1755267048.2006373,-0.6234641012218141,2.086127363171677,6.280000008250548,-6.280000019080603,-0.1624933464528152,-0.24463044943491857,481.57151050706995
1755267048.2106593,-1.1409739408289559,-0.8837405854671615,5.651019882951002,6.280000025931123,-0.16041287703146423,0.02449880385800238,474.42929293799307
1755267048.220774,-0.12979303833522088,-3.140000000763723,-6.280000007383607,6.280000028780577,-0.1564604898127473,0.276460926321334,486.0478459005738
1755267048.230741,0.7231836587022227,-1.2039403768005699,-6.280000004628434,-6.280000021214569,-0.15075662080038477,0.16107254207917626,480.83061849023426
1755267048.240894,-0.1114134519332669,1.9585105887487928,6.280000005143185,-6.280000031323542,-0.14344561251452204,-0.074187947870538,483.81963505784597
1755267048.251266,-1.1372016954445907,0.41400218426301416,6.280000009222569,6.28000001381872,-0.1346908110971523,-0.11473910316324772,483.48162556925587
1755267048.261206,-0.42688780863205494,-3.140000000041306,-6.280000002412021,6.280000033366036,-0.12467031677511653,0.23832935972833574,488.47170255139974
1755267048.2712543,0.7425512750391053,-1.9332026464171341,-6.280000011209575,-6.280000004431655,-0.1135731213259854,0.3101016351946634,490.3040088646197
1755267048.281291,0.3781017600828638,1.6317881716580191,4.571566061351365,-6.28000003457764,-0.10159563669997373,0.0016034696071034263,489.26082301843473
1755267048.2913191,-0.9010767396521282,1.6525696376256622,6.280000010172939,0.022305259774945574,-0.08893857544411399,-0.25439111393090064,475.938733978384
1755267048.3013299,-0.7038638970269592,-1.7907733927336673,-1.6064280342440984,6.280000034041144,-0.07580410767515475,0.011309443163441846,479.83624707557647
1755267048.311405,0.6838688245123594,-2.419510026516562,-6.2800000105075995,6.2800000029071406,-0.062393454959886796,0.46013305786658937,474.6854964224875
1755267048.32168,0.8061136492473081,1.0087195535268036,0.3776667381572659,-6.280000032815678,-0.048904365602473465,0.08200738985232689,485.13158670623926
1755267048.331687,-0.4430737680251894,2.562653415913563,6.280000008760637,-6.28000001624198,-0.03552932166561629,-0.31687025535919466,479.82270758919606
1755267048.3417227,-0.8184249874063869,-0.29260918511810347,3.947729289058655,6.280000027907832,-0.022453527173023236,-0.07273975211238759,475.8834448877734
1755267048.3520603,0.30022257219785464,-3.140000000165377,-6.280000008015687,6.280000027243464,-0.009853409479558373,0.5229789603618238,487.7297749501252
1755267048.3623724,0.9896100284874871,-0.2538200966752898,-6.280000002532509,-6.280000024158628,0.002105124915124712,0.0641778393952229,481.8075614236249
1755267048.3723855,0.0307819096587027,3.1400000005557622,6.28000000601279,-6.280000030720686,0.013267791597574075,-0.3571396193647248,485.06621426296294
1755267048.3824034,-0.8474593085963217,0.7555438163854714,6.280000007236177,6.2800000164781675,0.0234932597356875,-0.18074757068595726,476.25954221861343
1755267048.3922315,-0.016319336977057786,-3.140000000236678,-6.280000003682467,6.280000033119094,0.03265421498870835,0.4341074675014323,490.68480214311217
1755267048.4023626,0.9802144216270753,-1.2808555502508692,-6.2800000107999985,-6.2800000085548096,0.04063834407924638,0.28648168836925475,483.62887722934886
1755267048.4125102,0.44763702735494604,3.0120357058867593,6.708402714203963,-6.280000033570701,0.04734921419685545,-0.18253509854235273,487.90917895548694
1755267048.4222045,-0.7022168393984806,1.9373641642794706,6.280000010390328,0.01832504416979308,0.05270706936679215,-0.3345331708865058,478.5618775793956
1755267048.432317,-0.39682228777155404,-2.04731167917565,-3.363345833872753,6.280000034421903,0.056649540084412475,0.1816816165739933,487.00402319032173
1755267048.4424422,0.8539210632498753,-2.215375980036482,-6.280000011086733,0.0818349570689465,0.059132298731428,0.4109498122802183,484.6145350573191
1755267048.4524956,0.8184526282936004,1.746570163101595,0.4807389353679843,-6.280000034026735,0.060129625343858795,-0.14879931423271758,487.51716779997895
1755267048.4625256,-0.4838900926334804,3.1400000000518067,6.280000009001949,-6.2800000121066315,0.05963492860139891,-0.5418795142567503,474.42467193035407
1755267048.4730582,-0.7635661088332896,-0.22803665131492257,1.6867608965039085,6.280000030222919,0.05766125471981026,-0.18912277275982725,479.0598706641105
1755267048.4829984,0.4675106777600332,-3.1400000001128454,-6.280000008703215,6.2800000193868755,0.0542415718117466,0.5165767136276622,481.2536859652043
1755267048.493161,0.998716324773983,0.0877306745937213,-6.280000000884661,-6.280000026568327,0.04942940238096849,-0.04407911761652904,480.67073166734673
1755267048.503275,-0.03992237229500678,3.1400000007079365,6.280000006994184,-6.280000029393523,0.043298908542986014,-0.38318626645586507,483.3562945762286
1755267048.5134544,-0.888238438383603,0.6719789134731375,6.280000003307772,6.280000020169741,0.03594534247279102,-0.16925567239158124,476.2805648025606
1755267048.5235634,-0.028158081672356006,-3.1400000003645125,-6.2800000051901765,6.280000032163763,0.02748528416202478,0.41345085765425105,491.26348582833936
1755267048.5334477,0.9636805262627749,-1.0779958500959312,-6.280000010468854,-6.280000012313943,0.018056891833845512,0.17737381923424203,482.6977384547152
1755267048.5436156,0.2679092043117229,3.130088354715915,6.280000002881968,-6.280000033553868,0.007820129716001656,-0.2741665200200484,487.3526748285135
1755267048.553584,-0.8535033136002713,1.8205213666512756,6.280000010349683,6.2800000020882285,-0.0030430279590436538,-0.29844099909346844,487.23046656751274
1755267048.5640805,-0.5183727487930294,-2.1423748669771836,-4.225211766345457,6.280000034507907,-0.01432843073750506,0.16354356807560083,488.15085888113816
1755267048.5738933,0.7598729413581604,-2.0512672926443374,-6.280000010872808,0.4296814030803371,-0.02580956019014069,0.35948310902840797,477.18448826366654
1755267048.583965,0.5941449508455705,2.0007171648126785,2.216622195172315,-6.280000033992486,-0.037237406332060186,-0.10321833775269378,483.81235648907267
1755267048.5940816,-0.7145771142293341,2.5974072352606714,6.280000009714545,-6.280000004402689,-0.048340331572529927,-0.35310528786118384,475.2734300609471
1755267048.6044393,-0.8944190458460711,-0.5428439419374393,0.4006902737757274,6.280000031382503,-0.0588239172139578,-0.07508134864697961,475.48934668519087
1755267048.614239,0.37601171982140374,-2.5624657468967142,-6.280000009621524,6.280000016847136,-0.06837098562853505,0.43798586532359207,482.73763705087254
1755267048.6242197,0.7514213293746067,0.2453708472745607,-4.120187600240555,-6.28000002814079,-0.07664122891766478,0.09583335135750902,477.7663031158327
1755267048.6343977,-0.3713666370178042,3.1400000001117627,6.280000007617698,-6.280000026605865,-0.08334048078945833,-0.3592423113090051,479.3967996391088
1755267048.6444063,-1.1067928215497922,0.29111064183772767,6.280000002535239,6.280000023412633,-0.08844740377758198,-0.029665985630541625,479.9986811896901
1755267048.6543157,-0.1336609516331215,-3.1400000000069084,-6.280000006103276,6.280000030451923,-0.09202539166998136,0.5101504833537723,486.8448240373879
1755267048.6644835,0.7507365490092168,-0.750638439430737,-6.280000006875235,-6.2800000170255,-0.09415076254684873,0.19996883210505545,479.4627748840983
1755267048.6748548,-0.10795334710130589,3.1400000002872925,6.280000004466079,-6.280000032521819,-0.09491052262568789,-0.2626913462359561,484.6138094089376
1755267048.684639,-1.098699359105677,1.1761940962013873,6.2800000098894575,6.280000010377976,-0.0944003338692111,-0.17313073218673686,482.0093677635177
1755267048.6947155,-0.5342146710741167,-2.553011382164537,-6.2800000017195465,6.280000033744216,-0.09272269114097809,0.26232353029957584,487.5233851618182
1755267048.7051792,0.7067319795085019,-1.9691975746577932,-6.280000011263928,-1.6392933722113012,-0.08998526720645827,0.42994985253677287,484.43750218160494
1755267048.715179,0.3365263977780957,1.3718865285080697,3.699012859967643,-6.2800000348717475,-0.08629943728471678,0.02179722878452232,489.89023516812665
1755267048.7253487,-0.8808055579521822,1.5062425759555853,6.28000001015775,0.21267120256260386,-0.08177894835525659,-0.2992390063671241,478.3876106303498
1755267048.735259,-0.8586328420059024,-1.6870220171516426,-0.515580463812924,6.280000033701356,-0.07653868648649878,-0.04539159983265795,480.75595470715473
1755267048.745219,0.4299018309693976,-3.140000000651301,-6.280000010073605,6.280000010986047,-0.07069372300282994,0.3891751783397114,477.08667520561426
1755267048.755306,0.7214140121108691,-0.1559315034362566,-0.6659071793935811,-6.2800000313621105,-0.0643580964103796,0.11858788559653041,483.79182077775573
1755267048.7653096,-0.4894620592679396,2.2265612682535183,6.280000008305501,-6.280000019018647,-0.05764419267577103,-0.34749581796163825,481.67641757755456
1755267048.7753012,-1.004368643874549,-0.5023549490612844,5.729558941108061,6.280000026040135,-0.050661818170679995,-0.04618060481349948,474.1091197175616
1755267048.7853115,0.05495388122762834,-3.1400000007745663,-6.2800000074547935,6.280000028787946,-0.04351752385713681,0.3167382799407429,486.34059831762346
1755267048.795278,0.8733239007497473,-0.8779148262656766,-6.280000004423316,-6.280000021259401,-0.03631397085607091,0.09378954803894084,480.314766370969
1755267048.8052063,0.03289482945054417,2.3212156192364573,6.280000005239006,-6.280000031160547,-0.029149356514678537,-0.16616332983259355,482.87150634655865
1755267048.81528,-0.9792738833523383,0.7833141079917116,6.280000008917401,6.2800000140880545,-0.022116888317552874,-0.19445928644698962,482.5659073992112
1755267048.8252037,-0.2385351642728021,-3.140000000062366,-6.280000002641815,6.280000033231524,-0.015304329101672898,0.28139043399015995,488.14226378691677
1755267048.8354204,0.9110646231304903,-1.3419423211747077,-6.280000011185766,-6.280000005224011,-0.008793573672909005,0.24517675215351842,489.8744732716489
1755267048.8456628,0.49720710354226083,2.2852068520790993,5.481753710128432,-6.280000033816869,-0.002660272176487677,-0.08092478014222462,485.0130614084952
1755267048.8557098,-0.7286328955894165,1.9598541541420418,6.280000010329886,0.09998063536251758,0.0030265006557493312,-0.327393390656848,478.58560195225806
1755267048.8658879,-0.5372459592109824,-1.7372777597418303,-1.4927385462433507,6.280000034566349,0.008204594153195854,0.11974679674533845,483.90885600930983
1755267048.8763926,0.7337188322504781,-2.271275562371577,-6.280000010685651,6.280000003299518,0.012818911728799787,0.38132805612996445,478.56218012546583
1755267048.8862457,0.8404739289374487,0.9207668089799319,0.24441463856833576,-6.280000032137231,0.016821945262554205,0.054182241278572504,479.091058479152
1755267048.8962412,-0.4485659100627216,3.1161753065756965,6.280000008636257,-6.280000015394666,0.020173605272832074,-0.5084000331981328,476.3650486976291
1755267048.90679,-0.7682010204577105,-0.17631495984710654,3.646329233210907,6.280000028434092,0.02284182571242993,-0.11396859345469347,477.96747064364155
1755267048.9166083,0.32810759479994106,-2.638675683315615,-6.280000008111312,6.2800000260341875,0.024802446127007993,0.37802296739375,480.2654661984868
1755267048.926766,1.0304059741108633,-0.17344852640392922,-6.280000002417829,-6.280000024934676,0.026039502342508847,0.09737975459468777,482.0715976754503
1755267048.9369752,0.037605882180750505,3.140000000641054,6.2800000063375325,-6.28000003034407,0.02654534618285309,-0.3486383155638535,484.39954534154384
1755267048.9471958,-0.7935696174870746,0.7452170173689378,6.280000005052844,6.280000018802118,0.026320789424848723,-0.12360525298772088,475.8941598837924
1755267048.9571393,0.022996447314214574,-3.140000000335152,-6.280000004691432,6.280000032176268,0.025375208224911683,0.49933817353154003,489.6216622972468
1755267048.9674363,1.0212348966900318,-1.0818833987540875,-6.280000010495359,-6.280000011970877,0.023726654684426585,0.2530337051844155,481.05767262808814
1755267048.9775593,0.29606092785416693,3.1400000000125616,6.280000002765382,-6.280000033240626,0.021401951569266053,-0.2615267711521944,485.8848988483625
1755267048.98731,-0.7957801325324881,1.9161109504658396,6.280000010304402,6.280000003316261,0.018436779865140474,-0.3091660570400177,485.98217754512694
1755267048.9973915,-0.4509491951757156,-1.6029057670337368,-5.958291792707421,6.280000034141089,0.014875752728802205,-0.014820334359587628,487.25230712682065
1755267049.0075758,0.8376956043763306,-1.851204564095122,-6.280000011190289,0.13942540185084373,0.010772492617137974,0.36091825643941217,482.23749121462004
1755267049.0176172,0.6080093775527446,2.052311902483995,1.9943013481396357,-6.280000034413888,0.006189688074639488,-0.12393246194867265,486.6888885156189
1755267049.0276787,-0.7401231783204429,3.09478886082099,6.28000000958429,-6.280000001863539,0.0011991455452518007,-0.5290442646781168,469.99999474255816
1755267049.038069,-0.8381568451918204,-0.43884055577305114,0.28102855369900714,6.280000032200611,-0.0041181185934824616,-0.10868775909808381,475.9182556335611
1755267049.0481937,0.4501861092166193,-2.3926875727599084,-6.280000009895588,6.280000014095487,-0.00967197690708943,0.422308919420004,480.2012302312558
1755267049.058311,0.7056942414956587,0.5435186815335061,-2.5896943901361933,-6.280000029740233,-0.015362855365670836,0.07280666149130312,476.90483208636624
1755267049.0683503,-0.5196026698239935,3.140000000016127,6.280000008022084,-6.280000018773041,-0.021082096668762595,-0.48676196700784335,477.9225233002878
1755267049.0782788,-0.9932432661640712,-0.5207052876825273,5.947496808151797,6.280000025916824,-0.026711517688367326,0.035640873081458066,478.9253521455783
1755267049.0884144,-0.02354370954886098,-3.1400000007157285,-6.280000006951224,6.280000028852395,-0.03212368203687688,0.3679776906585516,482.4340089911821
1755267049.0987756,0.8175821386857056,-1.108349784419561,-6.280000004699547,-6.280000021352414,-0.037181738702113165,0.07938023102351202,485.2829817452878
1755267049.108481,-0.02128499053490923,2.1290241044582934,6.2800000047685085,-6.280000032376208,-0.04173942517197182,-0.21612366412240075,488.2144302513617
1755267049.118566,-1.0253477305290057,0.5871747929577844,6.280000009487111,6.280000012932353,-0.045641038761168706,-0.2205888146153192,479.1149120858699
1755267049.1289117,-0.3648522731053443,-3.140000000018797,-6.280000002209148,6.280000033924821,-0.04872142483439834,0.217651136913314,491.9718402347026
1755267049.1386628,0.7753181019048824,-2.030167893225019,-6.280000011394401,-6.280000002802717,-0.05085672765321414,0.31772754024895317,493.0516979752282
1755267049.148859,0.4065977276401757,1.5074358522554974,4.23766579470949,-6.280000033879546,-0.05212064309511977,-0.052995754916501575,483.86327249585025
1755267049.1590018,-0.8757353398807913,1.8261801725804276,6.280000010254886,-0.07307291250640624,-0.05262759863427875,-0.3567223768485963,478.6152512159968
1755267049.1694782,-0.7438386779075956,-1.6506941271853455,-0.8029507947856169,6.280000033925532,-0.052480083085997865,0.0026488864677964297,481.3770952177913
1755267049.1791458,0.5609771084598819,-2.4712147239474023,-6.280000010293042,6.28000000626081,-0.051769965938254,0.47277487067626045,478.0994951028938
1755267049.1893187,0.7485149270398306,0.10095828412279062,-1.372379878277393,-6.280000030838053,-0.05057929548161022,0.13722536439452904,477.60169931429624
1755267049.1996665,-0.5120888629900404,2.4854994252742877,6.280000008291368,-6.280000017603573,-0.04898165257068976,-0.35865838262422983,475.82794282495996
1755267049.2098587,-0.9454319680741977,-0.19995134131081932,5.383627716048762,6.280000026939916,-0.047042617848359725,-0.05608663298718818,476.299074494693
1755267049.2194455,0.17371734021290564,-2.583808277858734,-6.280000007555862,6.28000002728858,-0.0448208483743151,0.40263644275151383,481.15876979651097
1755267049.2295754,0.9408958451805138,-0.16790826655601052,-6.280000002971529,-6.280000023551221,-0.042368656680199734,0.108391435893669,483.22850642232726
1755267049.239651,0.012032882404475753,3.1400000005269684,6.280000005661728,-6.280000031456719,-0.039732666255669846,-0.3526045157193337,487.5786825480792
1755267049.2500093,-0.8896174312969863,0.8065387257537612,6.280000007650618,6.280000015897391,-0.036954375393409955,-0.15089046647842072,480.3753330913687
1755267049.259934,-0.14266327509663637,-3.140000000135806,-6.280000002997318,6.280000033968655,-0.0340706799353272,0.4713771109856018,494.5823817406564
1755267049.270036,0.8917871289449095,-1.320366688644194,-6.280000011085926,-6.280000006996253,-0.031114329894144532,0.28819849492590355,487.8529674300005
1755267049.2800894,0.44187891761548764,2.356960576395623,5.603343760325289,-6.280000034402441,-0.028114346843073346,-0.07835653464842535,489.6596851305261
1755267049.2902822,-0.7610068625022424,1.8592632580829052,6.280000010191362,-0.06793326727200594,-0.025096399831279974,-0.3338448309293905,474.607106883181
1755267049.3002899,-0.5468548949659394,-1.8057406692202356,-1.8349519863759767,6.280000034252822,-0.022083114825295014,0.15552859018606519,480.46377985933236
1755267049.3104599,0.7043417526239157,-2.331866052830877,-6.280000010862544,6.28000000302927,-0.019094500504850398,0.45968104536879184,481.2688591716775
1755267049.320244,0.7762045059589031,0.9700750118681674,0.030224068028414153,-6.280000032481837,-0.016147973596463583,0.030733742787719072,482.48974929977794
1755267049.3304927,-0.4911370114956829,3.140000000002099,6.280000008719991,-6.280000015834764,-0.013258864082613786,-0.5576551042343174,479.252722069185
1755267049.3405015,-0.830689641898299,-0.18938368168127373,4.556281738984228,6.280000027241847,-0.01044046409740268,-0.10521568505206341,472.6982224818605
1755267049.350511,0.2857253748238888,-3.140000000033193,-6.280000008056801,6.280000026515957,-0.007704395927734975,0.5575464695914292,484.7852066390129
1755267049.3604455,0.9340092162840019,-0.17939151051810598,-6.280000003173479,-6.2800000243311835,-0.005060532361432557,0.04178848323480748,485.92126513418185
1755267049.3704498,-0.017556349865929355,3.1400000004723188,6.280000005768708,-6.280000030439421,-0.0025174142594224236,-0.436320675797238,482.00713627415007
1755267049.3808012,-0.8935573828962147,0.8252266259793495,6.280000007284082,6.2800000168043315,-8.226034474745347e-05,-0.2037189598500544,481.4908046916867
1755267049.3907938,-0.13085724940931714,-3.1400000001669945,-6.280000003204265,6.280000033940091,0.0022388660191919874,0.4486627018926254,494.87264497614797
1755267049.4006703,0.8815244367345483,-1.2710186242597443,-6.280000011063663,-6.2800000076794,0.0044409538557048656,0.23714324290323763,487.60765706817995
1755267049.4108267,0.423647620267643,2.3805011416819637,5.832246766204987,-6.280000034270856,0.006519921671979567,-0.132600915157574,489.30436305663267
1755267049.4210708,-0.768221962348298,1.8646738721309846,6.280000010178899,-0.06328506559614278,0.008472531910302422,-0.3802952661541038,473.33154969752644
1755267049.4311435,-0.4877925865389006,-1.93896553225271,-2.6563070788783536,6.280000034525372,0.01029630344905516,0.17973219092213433,487.66338502137336
1755267049.4411936,0.7572612668188875,-2.2911237021888686,-6.280000010949804,6.280000001057938,0.011989441770353881,0.4679363627398326,479.04071190922167
1755267049.451296,0.7391043364538936,1.6781952513181726,0.47669512379953427,-6.280000033143494,0.013550757432201799,-0.14714162243193962,481.85061941070666
1755267049.4615936,-0.4949332061403344,3.1400000000259243,6.280000008990015,-6.280000013555121,0.01497960435866108,-0.5571737200561582,477.12444980285704
1755267049.4713337,-0.7753890634047624,-0.17760586978920767,2.056600947202299,6.280000029446004,0.016275864268334106,-0.15643830057521585,474.19533084377304
1755267049.4814937,0.4606966313312314,-3.140000000094175,-6.280000008879096,6.2800000192061844,0.017439755014872382,0.6168482974206109,484.1906309908063
1755267049.4916935,0.9356131086334624,-0.09030047517519335,-6.2800000019099125,-6.2800000254893895,0.018472068965033728,0.0431352161707558,475.735129046319
1755267049.5014255,-0.11104652617995492,3.140000000740473,6.280000006926329,-6.2800000284255155,0.019373740984312438,-0.430686019947336,479.12114187315217
1755267049.5118773,-0.922712638387888,0.7314949078132059,6.280000003617876,6.280000020944925,0.020146216695445807,-0.16567598342501924,479.77744390186115
1755267049.521772,-0.030399174154084496,-3.140000000401396,-6.280000005123318,6.280000031281748,0.020791118440275813,0.5071202675710795,485.315856668256
1755267049.532369,0.9231927158894379,-0.920016438204431,-6.280000009350628,-6.2800000145232175,0.021310348218106512,0.18059334116473758,486.0635937173449
1755267049.5419323,0.22845567954960871,3.140000000021768,6.2800000028483325,-6.280000033896933,0.021706037642664544,-0.3328717591052136,490.73158180844615
1755267049.5522342,-0.8454439047659088,1.728926716872122,6.280000010182965,6.28000000414719,0.021980523012804953,-0.34579690625535997,482.82446666898693
1755267049.5623548,-0.4680340627357894,-2.2268143837746823,-5.947644865463747,6.280000035053661,0.022136320237793994,0.15388059633729873,493.38050041332156
1755267049.5722177,0.7612525199258051,-2.0611982898577845,-6.280000011041791,0.103932181533398,0.022176113689071464,0.38318190273829367,479.38603293385273
1755267049.5824788,0.6037341004428933,1.9569634749966156,1.959946812850612,-6.28000003407994,0.022102730108100488,-0.16728924668172873,484.63081384465056
1755267049.5925117,-0.6754114477517921,3.140000000029279,6.280000009675769,-6.280000004978876,0.021919121136901143,-0.5967776260404208,477.5776418917906
1755267049.6028106,-0.8048540025932623,-0.4781749594068603,-0.009653362229840479,6.2800000312119195,0.021628384908586873,-0.1657035144891277,476.33081405986684
1755267049.6126218,0.48150858554165443,-3.1250258093858574,-6.28000000938213,6.280000017215734,0.02123362135773288,0.5764285067721993,483.9278623842401
1755267049.6224174,0.8636166443926335,0.12871537975367509,-5.3285058017591895,-6.280000027192031,0.020738196228675676,0.013290233846496441,476.53971600132667
1755267049.6327395,-0.21023073372204903,3.1400000002413795,6.280000007304048,-6.28000002726975,0.020145343980263464,-0.45202358614796034,479.6493267092325
1755267049.6433487,-0.9420674908602152,0.510896705901444,6.280000002512644,6.2800000223499595,0.01945856374331234,-0.1534886649966586,480.57183798809643
1755267049.6528475,0.0023982278481648467,-3.140000000472127,-6.280000005585678,6.280000030984464,0.018681306927550878,0.46859606117635233,485.6596451412587
1755267049.663006,0.9178727967832038,-0.7816746389083218,-6.280000008285932,-6.280000016110442,0.017817105015506485,0.1408374749535075,486.49343392855786
1755267049.6735733,0.2108505303007606,3.1400000001134805,6.280000003336284,-6.280000033577963,0.016869538215474655,-0.28442669569911816,489.58480661918054
1755267049.68326,-0.8518757921203406,1.6442365032342976,6.280000010016707,6.2800000068033635,0.01584223020943909,-0.30553078250154586,480.8492945930204
1755267049.6934574,-0.4354852467493898,-1.8054192503135718,-6.280000000727857,6.280000034373593,0.014738837727931275,0.0214978202272606,490.39429731641343
1755267049.703176,0.7922005045787756,-1.6987167854631489,-6.2800000113051695,0.09584183535110968,0.013563054142221809,0.31880429013884093,482.7616142903598
1755267049.713344,0.5048656400794675,2.113442080497322,3.0456927941845557,-6.280000034628287,0.012318597402967146,-0.1228773013876413,487.62062082970425
1755267049.7232602,-0.7735360443172485,2.5766706046458,6.280000010072726,-6.1832746149762885,0.011009204263562548,-0.43590465545168566,475.10644238094216
1755267049.73357,-0.7923726339866033,-0.5706594068180448,-0.1941749539299522,6.280000032410548,0.009638659994646512,-0.11415293471497995,474.486984431279
1755267049.7436128,0.5004788308045296,-2.556789273526923,-6.280000010088116,6.280000012132621,0.008210667847078579,0.47316634560142146,480.28703803509603
1755267049.7535977,0.7428276549534636,-0.2827577525138947,-2.6495439525176083,-6.280000030169145,0.006729119206980272,0.1360352723497103,478.69016972881514
1755267049.7635965,-0.3944051402315303,2.193882259247987,6.280000008065678,-6.280000019076233,0.0051977034541434985,-0.4033176854779805,478.48997331479313
1755267049.7740898,-0.9530212316885323,-0.5520932032075381,6.357150032373659,6.28000002582748,0.003620309948704714,-0.1122893585070169,477.95231684552874
1755267049.7839196,0.046539893675661914,-3.140000000730795,-6.280000006957628,6.2800000285724025,0.0020007275215012665,0.2599605229437537,481.03674977617584
1755267049.7941725,0.8968953454366585,-0.9643247330455251,-6.280000004256459,-6.280000021730622,0.0003427726316287405,0.05802931240083485,483.3656817304014
1755267049.8043323,0.050206278870914334,2.2776537412860254,6.280000005043794,-6.280000031588372,-0.0013497348340005821,-0.24198770591860058,485.61234670335506
1755267049.8143866,-0.9515612796680462,0.6862747839448886,6.280000009727559,6.280000012989531,-0.0030729787478280257,-0.2562781927603305,477.3632314775575
1755267049.8242507,-0.2603952075860617,-3.140000000056819,-6.280000002412523,6.280000033573252,-0.004823137783472653,0.24248436532971193,490.036167569089
1755267049.8342695,0.8933355901092117,-1.4081413506206513,-6.2800000113353445,-6.2800000043464745,-0.006596393042757942,0.24761929270242722,491.9935230360168
1755267049.8443189,0.47003601727656097,1.6943550823319433,4.608057701115766,-6.280000033952113,-0.00838892966031457,-0.07264386074572406,484.98177589754795
1755267049.8544004,-0.7924661306841081,1.8751755323106334,6.280000010313964,-0.11443317826525301,-0.010196939652274504,-0.3761642223754553,479.03608037823915
1755267049.864541,-0.6605059283686114,-1.6690514498877034,-0.910944548267516,6.280000034116419,-0.01201659247565598,0.03507514838267417,482.01053328396
1755267049.874665,0.6688501610175489,-2.2502024079865777,-6.2800000105576625,6.280000004287015,-0.013844162305763241,0.4183346529286708,478.1438989149764
1755267049.8845694,0.8194385361906673,0.8714732857881335,0.013498267477316861,-6.280000032321137,-0.01567577979583845,0.10838843347245244,485.87337652723784
1755267049.8952122,-0.4028736703534232,2.4430665587044325,6.2800000083602825,-6.280000017136931,-0.01750769003509889,-0.31865931989082125,475.3898895864341
1755267049.9050024,-0.9008461467317521,-0.24543873655951415,4.970267182768994,6.280000027343558,-0.01933611374356925,-0.06989363088444556,476.53258182301425
1755267049.9151566,0.2149515158182448,-2.5567423137768963,-6.280000007689285,6.280000026934271,-0.02115727812494783,0.41295208271762845,480.7888801988899
1755267049.9253588,0.9580790903723395,-0.2246990609294658,-6.2800000030515495,-6.280000024020005,-0.022967425223951565,0.12094695019347107,482.4487179694898
1755267049.935231,0.009534698252435247,3.1400000004892243,6.280000005816815,-6.280000031083915,-0.024762807420211086,-0.3741340955063549,486.5446270301947
1755267049.9454317,-0.85900692921695,0.7063300199376216,6.280000006841112,6.280000017068028,-0.02653968093521003,-0.12930108657563738,478.53920214464773
1755267049.9553654,-0.056677194722009466,-3.140000000237301,-6.280000003594619,6.280000033281603,-0.028294315991794106,0.5267772380782216,491.68188787310737
1755267049.9652865,0.901237080935039,-1.3602308032074946,-6.280000010949884,-6.280000007967079,-0.030022991826544665,0.34639242450034735,485.35471611128065
1755267049.9753187,0.3781575865178135,2.9489978832048878,6.267041536859313,-6.280000034089262,-0.031721999132015455,-0.20727124188619506,490.2834607274832
1755267049.9854972,-0.7568972893373774,1.8206833441275725,6.280000010443944,-0.10533874910654095,-0.033387639040488915,-0.286580151396323,479.4609200164217
1755267049.9954634,-0.5049928403385869,-1.960177917400956,-2.706748676624535,6.28000003426137,-0.03501622743198973,0.2517177077747294,485.80486001779417
1755267050.0055587,0.7524203200770171,-2.3900465050781667,-6.280000010929875,6.2800000001146765,-0.03660408412319027,0.5574096814340116,477.1356142125461
1755267050.0160367,0.7032264397553222,1.5801487033880588,-0.0960650381150554,-6.280000033263477,-0.038147010193279485,-0.09615034195258315,479.1702848608489
1755267050.0262244,-0.5280700679855531,2.5075140922130847,6.280000008954372,-6.280000012076107,-0.03963077861689335,-0.36601401245260895,472.37497816242046
1755267050.0362692,-0.8422842071671715,-0.3083512534256311,1.979432305204587,6.280000030209326,-0.04103343981023877,-0.10170045885220919,478.5681037865688
1755267050.0464125,0.3981441767257544,-3.140000000126365,-6.280000008679396,6.280000018880308,-0.04233623747725179,0.640334975356484,480.6758047983405
1755267050.0562112,0.8721767810250863,0.03511992488287341,-6.280000001110897,-6.280000026714177,-0.04352329633052143,0.04654284068205537,480.45591453194527
1755267050.0666368,-0.16282302620178307,3.1400000007293656,6.280000006899206,-6.280000029199513,-0.044581587219068686,-0.410613402479315,483.7169525196513
1755267050.0767553,-0.9611835784902039,0.6292768001148794,6.28000000361067,6.280000020567133,-0.04550049912987364,-0.13437610495901287,476.56673154760404
1755267050.0870116,-0.09450655812608649,-3.140000000404937,-6.28000000512934,6.280000031977487,-0.046271619460523716,0.5235762671185784,490.3334657829346
1755267050.0970485,0.8595491891130687,-1.067244175187011,-6.280000010538391,-6.2800000128784905,-0.04688849940665829,0.24723927568252985,482.37833748049775
1755267050.1071477,0.17108500384132702,3.140000000029692,6.28000000280784,-6.280000033384695,-0.04734644365012963,-0.3222674238254717,487.22907447143194
1755267050.1171916,-0.9048571002561316,1.786240821524518,6.280000010402983,6.280000002990135,-0.047642321836601054,-0.3328059673119069,487.67267803191567
1755267050.1273139,-0.5289109715604696,-2.169201273701134,-4.146143698645859,6.280000034466262,-0.04777440334442534,0.22030257547789994,487.52913970685813
1755267050.1373837,0.7156327250679652,-2.0609231970535378,-6.280000011235334,0.042584452782419735,-0.047742195831809386,0.4048381218131472,484.40573668676535
1755267050.147628,0.6026068247274754,1.839852049764184,1.0855545641396784,-6.280000034451135,-0.0475463173964199,-0.15621961658516328,488.73471160504687
1755267050.1575582,-0.6744958708305073,3.058442736687995,6.280000009434573,-6.280000005930452,-0.0471883753975082,-0.5764771102313491,475.19490367716594
1755267050.16777,-0.872125772946831,-0.41528498384196966,1.2485313665527102,6.2800000309468516,-0.04667081701363135,-0.1435507611768067,480.5313709084054
1755267050.177722,0.3755747668017524,-3.140000000118496,-6.280000008835728,6.280000018800639,-0.045996964304611865,0.5724461417025414,481.71873993519193
1755267050.1876395,0.8680184864381901,0.03743175937748855,-6.280000000909376,-6.28000002691488,-0.0451706724391121,-0.005089748387977294,481.67626496507535
1755267050.1977699,-0.141173560789789,3.1400000006588256,6.280000006923819,-6.280000029538513,-0.04419650583636825,-0.4439769785592082,485.2851505785203
1755267050.2081678,-0.9360984212949959,0.5742976827916333,6.280000004044368,6.280000019981713,-0.04307952270123949,-0.16199905158346595,478.40147478402434
1755267050.2182019,-0.09001293427578244,-3.1400000003692634,-6.280000005054519,6.280000031227662,-0.041825249317198665,0.4507227431512638,484.7730387360385
1755267050.2281446,0.8756771669645466,-0.8961784543378603,-6.280000009035323,-6.280000014506189,-0.04043961717218991,0.15285997526655282,485.2677714302274
1755267050.2381206,0.15423320484141748,3.1400000000401644,6.280000003019587,-6.2800000337764885,-0.03892890943007288,-0.33722100215874085,489.8683827273374
1755267050.2484756,-0.9205911570720158,1.6361738710687865,6.2800000100963445,6.280000004922586,-0.03729971196177184,-0.33040928082277743,481.65392210098133
1755267050.2584672,-0.5255156654302043,-1.7734072994855357,-6.280000000087956,6.280000034791797,-0.03555887452387363,-0.010614127143582397,492.4628714236366
1755267050.268394,0.7258323225056478,-1.9415235036175338,-6.280000011034598,0.20827992401201106,-0.03371346361734906,0.3362996307465488,478.3261174292879
1755267050.2786767,0.507081689619586,2.044863956058695,2.7535069684653757,-6.280000034132961,-0.031770735445882714,-0.1558559860117063,484.27444770732666
1755267050.2887247,-0.7611285052686088,2.55362654681596,6.280000009857666,-6.280000002093976,-0.02973810611706476,-0.4507374052787495,473.7983645272927
1755267050.2989361,-0.8469125417451683,-0.5363132970981558,0.09033305701230754,6.28000003187865,-0.0276230904505666,-0.1477600636346625,473.5520705529748
1755267050.30878,0.43875687459917856,-2.45543506082119,-6.280000009946276,6.280000013311316,-0.025433403592797443,0.3967727940411043,478.51326396019397
1755267050.318939,0.6932745929556974,0.6516797884873837,-1.312335118866752,-6.280000030977117,-0.023176690993505833,0.031244007518736225,484.0631546951974
1755267050.3290124,-0.4337208888020099,2.3259845910527677,6.2800000081315,-6.2800000200960255,-0.020860764797866693,-0.31448219778268455,483.23213738762865
1755267050.3390656,-1.0035691755284648,-0.14437390887517154,6.115551650101373,6.280000025174299,-0.018493443297504575,-0.1410983520675176,473.30566853522726
1755267050.3492486,-0.001251970313692008,-3.1400000007304096,-6.280000007167647,6.280000029055792,-0.0160825697152438,0.32013341748983803,485.48174928389733
1755267050.3595657,0.8297942665661038,-1.1843507617842146,-6.28000000508653,-6.28000002066695,-0.013635997611449291,0.04490227239211467,480.02865045325694
1755267050.369197,0.01713405967857312,2.132690993550696,6.280000005036731,-6.280000031315666,-0.011161579059408178,-0.272479192935431,482.8060123999879
1755267050.3793454,-1.0015489174928334,0.667932256896913,6.2800000092295996,6.280000013724456,-0.008667143496125629,-0.2773084239112823,482.21251644804164
1755267050.389399,-0.32603842399456606,-3.1271233235617237,-6.2800000021289994,6.280000034423878,-0.006160496011614169,0.20223048116464787,495.1411949625631
1755267050.399736,0.8119522076453559,-1.9867000099181915,-6.280000011185555,-6.28000000352881,-0.0036494024080848675,0.2385107644478252,488.5794380268311
1755267050.4096775,0.46971411385435025,1.7009388289502883,4.6081814207592275,-6.280000034258784,-0.0011415813904274152,-0.1164354778336865,486.9858296888
1755267050.4193983,-0.7910407284145156,1.9350904995907818,6.280000010372865,0.031120202801245167,0.0013552973763781215,-0.4300122477247664,481.40928812407236
1755267050.4293334,-0.6352254514846728,-1.6455249140060721,-0.8563439694168009,6.280000033658979,0.003833660961712698,0.08336939501541574,479.51907844378644
1755267050.439494,0.6229768361188842,-2.4062634985507114,-6.280000010313284,6.280000005659293,0.00628589775478039,0.4157784993991133,476.49006407511416
1755267050.4500012,0.8353150152506961,0.6240969203888489,-0.3533110080794145,-6.280000031315151,0.008704649884335947,0.07455132870152804,478.2444723518094
1755267050.459706,-0.44589254468980727,3.1400000001764465,6.280000008444512,-6.280000016729105,0.011082425661118611,-0.5038357548719269,475.92433079900695
1755267050.4698608,-0.8121036687540015,-0.21635887013294097,4.427867034649228,6.280000027641638,0.013412008793403485,-0.07380514101920671,478.25349562408326
1755267050.480034,0.23695184032113137,-2.5534355621973863,-6.280000007722964,6.2800000272969285,0.015686165540919728,0.38870953383640233,482.47263260099373
1755267050.489944,0.9857055340275499,-0.22261724552313428,-6.2800000032122405,-6.28000002359974,0.017897776434089963,0.0771256229617349,484.1970921096772
1755267050.5001886,0.06020463188433006,2.4576328430810284,6.28000000569681,-6.280000030251834,0.020039816061221405,-0.20659326683079987,479.543557081642
1755267050.5101438,-0.8678514352022944,0.7394793301355429,6.280000007177541,6.280000017064163,0.022105363051533322,-0.17555220007174066,479.7237400913564
1755267050.520319,-0.03426563174257635,-3.140000000199439,-6.280000003494048,6.280000033625967,0.02408759440996555,0.48542903122551173,493.51277771491976
1755267050.5303965,0.9899890544946919,-1.3352402210803274,-6.280000010955169,-6.280000008896756,0.025979790916655254,0.31460310809542863,486.7104518849929
1755267050.540183,0.4541905047660244,2.960614330270231,6.448280269331798,-6.280000034108447,0.027775339890794726,-0.21930819303766153,490.722029921834
1755267050.5503964,-0.681630210305191,1.845135823751164,6.2800000104504825,0.026297121008090674,0.029467736913986464,-0.2976172412337249,479.7988119323411
1755267050.5603406,-0.43281944137644746,-1.959736837542371,-2.7973737307981,6.280000034311094,0.031050583598807663,0.23551113591590195,486.201179462566
1755267050.57031,0.8258267756707006,-2.39549416011938,-6.280000010937634,6.280000000244548,0.03251760107567536,0.5315933449945587,477.4917787266731
1755267050.5803614,0.786291987306178,1.5478966356750075,-0.12457428643710466,-6.280000033274376,0.033862645155197324,-0.10704368466850145,479.4794064395321
1755267050.59037,-0.43629747222999693,2.5048312023069803,6.280000008935401,-6.280000012783232,0.03507957530952144,-0.36361305114393155,472.616623149031
1755267050.600653,-0.7501469580996246,-0.30230365185523955,2.122021297971524,6.28000003003579,0.036162558344711826,-0.09571415141096112,478.8650927638015
1755267050.610982,0.44754248321416723,-3.140000000177178,-6.280000008624299,6.28000001947904,0.037105669581542156,0.624478817531251,481.37112202458906
1755267050.620759,1.0006706106181265,-0.07489482021395888,-6.280000001462847,-6.280000026297618,0.03790327882833289,0.06298997008528895,481.46871966475885
1755267050.631011,-0.006759386741351736,3.140000000648691,6.280000006760523,-6.2800000298146585,0.038549767067306506,-0.39943646279966927,485.0220934696362
1755267050.6414318,-0.8429158123982844,0.642361302986417,6.280000004318763,6.280000019652896,0.03903966972817474,-0.11907684736206703,477.97106899686565
1755267050.651243,-0.011038702858025995,-3.140000000328885,-6.280000004832476,6.280000032439382,0.03936763795896692,0.5152951450031393,491.52613580572864
1755267050.6613662,0.9756056079056131,-1.280909223189609,-6.2800000106405065,-6.2800000112289975,0.039528442851154644,0.2822181727849915,483.5286281683265
1755267050.6716602,0.348919451896718,3.0729783882096227,6.2800000025274825,-6.28000003382266,0.03951697718951541,-0.29804481058996773,488.7963741704855
1755267050.681699,-0.7839860913603347,1.7970327637531989,6.280000010444844,0.7813797785228109,0.03932825593984646,-0.31047306279830794,480.31832797697496
1755267050.6914606,-0.45754853822474606,-2.06937541502339,-3.8554895522058024,6.280000034499402,0.038957412175903705,0.21152775211518782,487.76183096539216
1755267050.7016878,0.8031948951896974,-2.2796035716392513,-6.280000011190447,0.39702798081175317,0.03839970973019602,0.43870312856480387,484.75786551204754
1755267050.711675,0.7456939146119421,1.5932182040996699,0.5865708554891738,-6.280000033836849,0.037650556949312186,-0.12054350086443616,480.39306891680724
1755267050.721889,-0.5116122919547547,2.5134022138282193,6.280000009231495,-6.280000011018188,0.03670537455837136,-0.3809396259705484,473.8217531716583
1755267050.7321012,-0.7985558794888499,-0.4437560853976701,0.21930587668957557,6.280000030433904,0.03555989854804115,-0.12246338266310733,474.1815653541388
1755267050.7421618,0.4730772072225921,-3.140000000047585,-6.280000009351326,6.280000018086678,0.034209781446977505,0.5907903222466858,483.17100927927453
1755267050.7521756,0.8660087150206521,0.019118014827332108,-5.01287007301316,-6.280000026963634,0.03265100263937537,0.05509094499647525,476.2790122253208
1755267050.762579,-0.20885694584912184,3.1400000001904713,6.2800000074382964,-6.280000027418591,0.030879452107452243,-0.42962187043092626,478.909304315476
1755267050.7721932,-0.9586097924050455,0.5412752760617887,6.280000002352357,6.280000022243339,0.02889133975774516,-0.11178766769376228,479.62557737114463
1755267050.7824006,-0.03031804184726905,-3.1400000004681052,-6.2800000058365395,6.28000003092572,0.026682889702976054,0.49880021679584874,485.4488298398636
1755267050.792451,0.8844694208833136,-0.802059927490591,-6.280000007341524,-6.280000016458722,0.024250475602879185,0.14537781757523607,485.2892534249406
1755267050.8023963,0.11818771677788745,3.140000000139937,6.28000000385881,-6.280000033396931,0.021590596449521993,-0.33126400698495756,488.04883526871316
1755267050.812781,-0.9240504747997766,1.4446202182459515,6.280000009858302,6.280000008147001,0.01869987884646529,-0.27000500926419646,478.77309169512756
1755267050.822408,-0.45240662223666106,-1.9596785047385539,-6.280000001513137,6.28000003414224,0.01557507022805038,0.0876426820958574,489.97389720403766
1755267050.832593,0.7423901085326691,-1.7179530516722599,-6.2800000113463526,0.5026263441785095,0.01221304934453471,0.31022821038486764,483.025824961753
1755267050.8425932,0.43125686997511703,2.0034615121216084,3.5616559073951026,-6.280000035071886,0.008610818009590293,-0.09789805864286544,490.75267483046343
1755267050.8527243,-0.749488658410771,2.320300840742532,6.280000010115296,-4.105693562905799e-11,0.00476549836235883,-0.40693169507557114,478.7971311788609
1755267050.8629687,-0.8077869607220132,-0.9830692640361396,-0.55571755280278,6.280000032529799,0.0006743684833227237,-0.023205314849271463,474.1383778950865
1755267050.872933,0.5461053631174626,-3.078371793771194,-6.280000010211378,6.280000010926457,-0.0036652626675071076,0.600701211966564,481.74701771333804
1755267050.8832004,0.735848347093386,-0.2820423573701034,-2.0625749306661327,-6.280000030500336,-0.008255796573073848,0.11956706644603979,479.10108420261383
1755267050.8931706,-0.42942337271880143,2.170639843904057,6.280000008228911,-6.280000018576963,-0.013099709523252345,-0.41113565967254334,478.1350345036797
1755267050.9032774,-0.9741852960311544,-0.5439841012708784,6.033928180212467,6.280000026101703,-0.018199164876152585,-0.10711140167279551,478.60588732403664
1755267050.9133818,0.01883690103893082,-3.140000000724972,-6.2800000070916715,6.280000028751207,-0.023556305753922535,0.2669208729701449,481.96623792185136
1755267050.9232585,0.8604355095914916,-1.0526233910492577,-6.280000003943885,-6.2800000217891245,-0.029173126082347345,0.05766108289054438,484.2178184373708
1755267050.9331625,0.014140580431407646,2.252017682862278,6.280000005124901,-6.2800000318686635,-0.03505149588528189,-0.26352277123932855,486.262428197197
1755267050.9433515,-0.9912522263181769,0.7021918533154322,6.280000008639121,6.280000014055442,-0.04119315405358959,-0.22218644660619785,477.9970177018965
1755267050.9531972,-0.2625485201706525,-3.1400000000847808,-6.280000002853488,6.280000033543395,-0.047599716927701485,0.2819525275831504,490.77133128214496
1755267050.9633791,0.8495828998150274,-1.3602969715590327,-6.280000011315673,-6.280000005158129,-0.054272672569323,0.23526180793285695,492.138959104533
1755267050.9732773,0.41027850521510156,1.7698271108577706,4.9758746509690335,-6.280000033938478,-0.061213383265165344,-0.09040487109747496,485.25947774537343
1755267050.9835255,-0.8390598103644024,1.9088984628740822,6.280000010344084,0.13903699266882263,-0.06842308826186558,-0.37933997151126453,478.7827879307226
1755267050.9934502,-0.657079799032328,-0.9242876826037935,-2.2428525227397507,6.280000033694101,-0.07589178105299399,-0.10219620881403174,482.85285551776377
1755267051.0037863,0.6776349413356347,-2.2865657376117876,-6.280000010791669,6.280000001879062,-0.08348980119045368,0.4542427742006365,477.2547766849628
1755267051.0137336,0.7449445674344561,0.9548222413609198,-0.07888125524019096,-6.28000003309986,-0.0910323535561619,0.027851641488093215,485.93189729898285
1755267051.0238855,-0.49035402312252596,2.5098812295314294,6.280000008668172,-6.280000015222406,-0.09836155368116506,-0.36634569794067434,473.58627223163984
1755267051.0342116,-0.8881874786152218,-0.20443390521500293,3.4902038616351794,6.2800000285531326,-0.10534464551033873,-0.10309580994710038,477.1878344837816
1755267051.044191,0.20903631702537512,-3.1400000000911796,-6.280000008266929,6.280000026914326,-0.11187141863212746,0.5714446036393774,488.0006587175937
1755267051.0543108,0.8420266066809139,-0.20102828259606625,-6.28000000286959,-6.280000024494573,-0.11785151157950313,0.06669525428754008,481.8675008584155
1755267051.0644276,-0.12384713599308911,3.140000000583101,6.28000000621367,-6.280000030615678,-0.12321246283335507,-0.40188495457298523,484.85345157333614
1755267051.0743797,-0.9599772448865186,0.7207511839317736,6.280000005625248,6.2800000182773825,-0.12789759013733604,-0.12190106616220006,476.97736318827623
1755267051.0844283,-0.13969838501329612,-3.1400000002997137,-6.280000004352766,6.280000032840803,-0.1318642462452717,0.5238658105078171,491.3912171006739
1755267051.0951874,0.8098107653305334,-1.296952348054477,-6.280000010733071,-6.280000010309759,-0.13508220724664355,0.29973934428670235,483.7091104708121
1755267051.1055071,0.23300417264163573,3.0324042890157035,6.280000002204635,-6.280000033786649,-0.13753222896271344,-0.26143199652630783,488.35644638219213
1755267051.115287,-0.9153931044994009,1.8937223635466278,6.28000001044612,0.24505785234627542,-0.1392047461319773,-0.31329160070217466,479.2759541500585
1755267051.1252866,-0.6078650748890695,-2.0398273638969764,-3.6675791383421514,6.280000034425264,-0.14009870667481295,0.23016228263765726,487.14685588821425
1755267051.135611,0.6431910685454353,-2.2562345430913187,-6.280000011169927,0.3018111260621774,-0.14022050611102577,0.45700154470635634,484.16887937502435
1755267051.1452503,0.579474339202831,1.7052732753073299,0.9457537510035592,-6.280000034170634,-0.13958305263507143,-0.13021956626614306,487.5212760435263
1755267051.1554914,-0.7282028900112635,3.1245165548842966,6.2800000092178685,-6.280000009867276,-0.1382049152368769,-0.5475588322457859,473.43393572268656
1755267051.1655307,-0.9682135650051413,-0.3005122076538169,0.7019051979045146,6.280000030883315,-0.1361095153764169,-0.13517602394715073,479.2481583965067
1755267051.1756904,0.28839130331638996,-3.140000000138647,-6.280000008996332,6.280000018674038,-0.1333245733604418,0.5992672393761762,480.22324838902426
1755267051.1857715,0.7550296522707701,0.06751392843232373,-4.945713536547057,-6.280000027458392,-0.1298812336392139,0.047582468970027436,481.2061985735021
1755267051.196145,-0.2734353993613981,3.1400000007499265,6.280000007230431,-6.280000029123727,-0.12581376203886951,-0.41017968778356423,483.9692996904633
1755267051.206181,-1.0508657024808445,0.6806929610375982,6.280000002372937,6.280000020745877,-0.12115890037426302,-0.13150478218398082,477.2497762749693
1755267051.2162657,-0.1671987368685255,-3.140000000399646,-6.280000005373108,6.280000032167756,-0.11595544985692485,0.5076806344813766,491.4703105664332
1755267051.2263658,0.7997640440869924,-1.1715398301696098,-6.280000010532776,-6.280000012507552,-0.11024386449104107,0.23730537448471634,483.50498530412125
1755267051.236653,0.15921141736420968,3.1188097250676874,6.280000002855675,-6.280000033674547,-0.10406587784962618,-0.31982792289189,488.15669881940295
1755267051.2466245,-0.940487619717311,1.7961254197259056,6.280000010420739,2.1022005830570327,-0.09746417484256087,-0.3192543197913277,481.8165717625983
1755267051.2566278,-0.575547852420846,-2.111892461945343,-4.18759166889112,6.280000034469502,-0.09048209848826999,0.20095511179230324,487.8097022697115
1755267051.2666814,0.6880481771551206,-2.2184023286045313,-6.28000001123374,0.45260282474383207,-0.08316337024097065,0.4106872706731857,484.9421615044877
1755267051.277152,0.6276156699966338,1.7024604185234034,1.1279349171104813,-6.280000034412097,-0.07555186074272457,-0.13335331071028717,488.9869490521847
1755267051.2868607,-0.6135988333916693,2.534540935122229,6.280000009263858,-6.280000010612973,-0.06769137532945413,-0.39348533439649364,473.9557541209931
1755267051.2970092,-0.8819312695191505,-0.43904769177388014,0.07756253811713143,6.280000030605368,-0.05962541972565194,-0.13649954419866905,475.01807197628443
1755267051.3069465,0.3876156219210811,-3.1400000000559767,-6.28000000934,6.280000018240887,-0.05139715686672641,0.5698770439377834,483.77220613973066
1755267051.317144,0.813670753018779,0.011000424109084639,-5.227027370959713,-6.280000026811667,-0.04304897549658815,0.037864384031970275,476.826019296595
1755267051.3274097,-0.234767684751996,3.1400000001957724,6.280000007359374,-6.280000027801943,-0.03462273391085802,-0.43096468253524667,479.9765507696243
1755267051.3372757,-0.9858299555816761,0.5690185756134589,6.280000002627511,6.280000021653429,-0.02615922456580999,-0.1272769049989716,481.09991414801846
1755267051.3475697,-0.06502292256372702,-3.140000000417979,-6.28000000544775,6.280000031600547,-0.01769836470787478,0.4720477630869899,487.41972803609934
1755267051.3576198,0.8870511643910975,-0.9849604867863918,-6.2800000089321895,-6.280000014005596,-0.009278957565089563,0.17514927957789084,480.302747437152
1755267051.3674495,0.1445485236307063,3.140000000115388,6.280000003667548,-6.28000003294094,-0.0009386210509547688,-0.3326856096371764,484.4061962325249
1755267051.3777337,-0.91606044647348,1.5946695667195705,6.280000010110957,6.280000006417311,0.007286291551424129,-0.29225369830898795,483.5086630253184
1755267051.387783,-0.4556839158936813,-2.3680621172378817,-6.280000000921535,6.280000034074099,0.015360775051001863,0.17724635391784288,488.3073024936999
1755267051.3980386,0.7419790893904089,-1.7508255350096582,-6.2800000112093475,0.49712860859404895,0.023251230484527596,0.2715376788552615,480.40704175294013
1755267051.407968,0.4444747536596878,2.0338329449270054,3.741506424733098,-6.280000034783512,0.03092553370329343,-0.11757023131121253,488.7355836266673
1755267051.4181833,-0.7525178182081427,2.2134425814329703,6.2800000101226505,0.4938399351989151,0.03835308120576511,-0.39894779910647143,477.9827346485332
1755267051.4289052,-0.7925259946558394,-0.9266920084016906,-0.3811750431038723,6.280000033307239,0.04550487636740924,-0.06924524906656787,480.33927317340596
1755267051.4381697,0.4843783840230036,-2.582014080323417,-6.280000009928161,6.280000013829019,0.05235344642400719,0.41675091056985797,478.61704231907413
1755267051.4484444,0.8101100360701587,0.41835049807871183,-1.8334214316877557,-6.280000030076945,0.05887315341880228,0.06565920749642251,477.25255044695166
1755267051.4581838,-0.33688832784539297,2.2093488158048853,6.28000000818899,-6.280000018756887,0.06503984651958938,-0.28345473502128904,478.13603406730266
1755267051.468431,-0.892954371162706,-0.5163133370742665,5.764988353196206,6.280000026040501,0.07083129571531077,-0.1096994368605824,478.4029655461851
1755267051.4783988,0.12034035875586702,-3.140000000728525,-6.2800000070931326,6.280000028718526,0.07622692466414493,0.2590430518043617,481.85863768355915
1755267051.488455,0.9736223472155291,-1.0271211137499634,-6.2800000039671655,-6.2800000217845735,0.0812079663605152,0.03781756709974754,484.23587408362056
1755267051.4986095,0.13780912602808437,2.240584278592457,6.2800000051043,-6.280000031877645,0.08575746147874508,-0.25823744959489836,486.43377789412904
1755267051.5083766,-0.871757842532393,0.6822337997336627,6.280000008739718,6.280000013884864,0.08986028657238421,-0.2310458160854506,478.2097531926728
1755267051.518647,-0.13412721221570248,-3.140000000069268,-6.280000002732955,6.280000033657942,0.09350316486017962,0.24802801425630794,491.2510572611486
1755267051.5286686,0.9852515658109469,-1.3456262156937013,-6.280000011000949,-6.280000004992809,0.09667468923295353,0.21158713559460807,485.2750858970689
1755267051.5388677,0.5921184334793195,2.3824663829831683,5.560504137875813,-6.280000033967809,0.09936533532271286,-0.09558447811237472,486.1706129648119
1755267051.5491402,-0.6169886765530633,1.8492626662016236,6.280000010379814,0.12477665006555771,0.10156747383827153,-0.32021656086068623,479.19830728239043
1755267051.5591738,-0.3807029912518621,-1.8917758909137814,-2.4902290851258946,6.280000034172247,0.10327538462841941,0.1571340548410058,485.65961382612056
1755267051.5694363,0.8904608489345022,-2.3899663430015083,-6.280000010856506,6.280000001829103,0.10448527468103519,0.4736529205522318,478.71547035810545
1755267051.5792496,0.9320207217384774,0.9357111688403891,0.07309771532131859,-6.280000032706013,0.10519530398020427,0.033707584874169055,479.6469542355185
1755267051.589249,-0.3146044901153927,2.5192615014122,6.280000008821228,-6.280000014528952,0.10540546280960772,-0.36971587195394856,474.7378320319684
1755267051.5992877,-0.6536107384133902,-0.2639162904673472,3.256462766249735,6.280000028894637,0.1051178813651561,-0.10180741872467089,478.7057719810481
1755267051.6093214,0.44640454708797794,-3.1400000001070576,-6.280000008207782,6.28000002573669,0.10433643839889317,0.5499486208746509,481.45723037493275
1755267051.6193569,1.0887125441176684,-0.26671146019722913,-6.280000002419987,-6.280000025030283,0.1030671513410013,0.0929525622052052,482.71708946326544
1755267051.6299155,0.09411459582428874,3.140000000590229,6.2800000063255546,-6.280000030534222,0.10131790120666695,-0.3890967497917093,485.2628390940379
1755267051.6397328,-0.7307303245660044,0.6585683485072984,6.280000005397193,6.280000018525833,0.09909857733491867,-0.11682974989093438,476.9136499048949
1755267051.6497366,0.07933430296866567,-3.140000000310465,-6.280000004443787,6.280000032682537,0.09642104309636412,0.5025982654318155,491.06791306531153
1755267051.6596212,1.0442169523483658,-1.2828924122745744,-6.280000010688292,-6.280000010655151,0.0932991464403834,0.2872937390206163,483.327412490613
1755267051.6699326,0.44514354349113733,3.05416108059051,6.280000002299073,-6.280000033724114,0.0897487227027618,-0.26519151029739624,488.10652802799234
1755267051.6801753,-0.7122872166358232,1.8481602217672475,6.280000010427532,0.4819442911097944,0.08578759895019294,-0.315964477623101,479.3537576425839
1755267051.690086,-0.394346420785201,-2.050258239909601,-3.6766820560949376,6.280000034431218,0.08143559246833296,0.20016873095199256,487.17327176556904
1755267051.7002292,0.8552921054943458,-2.2569949508905816,-6.280000011158348,0.28365110381350345,0.07671452593376493,0.43280236651510995,484.4560870386722
1755267051.7104933,0.8004277133497855,1.6955381718251672,0.8179311113698953,-6.280000034183665,0.07164821715450387,-0.13447973884960088,487.98431227550924
1755267051.7202353,-0.5020448351786251,3.081824140571047,6.28000000913188,-6.280000011263196,0.06626248005013513,-0.5343926316162934,474.47547167406555
1755267051.7304516,-0.765167153753402,-0.3482831837789141,1.2284637788486648,6.280000030509687,0.060585167841197385,-0.13526586593801915,479.69575739162275
1755267051.74028,0.4533294306811517,-3.1400000002074693,-6.2800000088462715,6.280000019436571,0.05464603631980269,0.5562743594683497,481.1578042069044
1755267051.7505302,0.9730950135255395,-0.0388946942810362,-5.469104124121393,-6.2800000268346,0.04847699994397292,0.035265719270425835,481.75085796032545
1755267051.760507,-0.05065895817227256,3.1400000006985493,6.280000007095413,-6.280000029604739,0.04211187450338527,-0.40880106957119255,484.31834779593936
1755267051.7705302,-0.8736678425724493,0.6303280523326351,6.280000003332921,6.280000019962433,0.03558652235339599,-0.1311320091047389,477.14894191471245
1755267051.78085,-0.03815692332225573,-3.1400000003443234,-6.280000005234926,6.280000032274053,0.028938814540351077,0.4632272143633605,491.5158335849551
1755267051.790975,0.9538103983289082,-1.2498854455755168,-6.280000010503731,-6.2800000118736214,0.02220863272892082,0.2217467158144284,483.2780758497342
1755267051.8010828,0.2947630665406235,3.086485304472021,6.280000002855179,-6.280000033757922,0.015437874503833271,-0.31275855657951224,487.99603574677786
1755267051.8114736,-0.8357086725494274,1.7962697181099083,6.280000010404333,1.3576909435728304,0.008670452471854606,-0.3096912874397453,480.81354196948587
1755267051.8213565,-0.5056117339794393,-2.0726613238738674,-4.147860533914022,6.280000034500048,0.0019522910737760912,0.16934962952999472,488.16777792947
1755267051.831262,0.7550256635310829,-2.2939339631694953,-6.280000011207841,0.6857471003070881,-0.004668657364919504,0.3897455652635933,484.92890699149757
1755267051.8413172,0.6932440927877338,1.5843138098534169,0.8282100287567271,-6.280000033945555,-0.011142410545178727,-0.1273659740104776,480.9369475419496
1755267051.8514023,-0.5646246247738986,2.532743735036779,6.280000009268692,-6.280000011206441,-0.017417070665993767,-0.37584895777089494,473.9062111648864
1755267051.8614106,-0.8612237194688572,-0.44645973594791977,0.22541983550541328,6.2800000304438655,-0.023438532527728873,-0.12846027907812063,474.76879423576844
1755267051.871294,0.40346088025789245,-3.1400000000949646,-6.280000009372037,6.280000018696139,-0.02915087915457315,0.5359897987948548,484.059631004524
1755267051.8812842,0.8222900865265268,-0.035584742474558784,-5.013554260122563,-6.280000026727638,-0.034495971908862444,0.03751040514844134,477.2354266130433
1755267051.891618,-0.23277972774096634,3.1400000001825927,6.280000007418734,-6.280000028036131,-0.03941386670624136,-0.4154894389801602,480.056532570012
1755267051.9015577,-1.0255603968722318,0.5065229881114006,6.2800000020793725,6.280000022098516,-0.04384240313944021,-0.118060803972961,472.44235049997843
1755267051.9118207,-0.11686874511909309,-2.6147265363131034,-6.280000006509077,6.280000030436501,-0.04771751147748704,0.30451094356000175,486.06411973080463
1755267051.9221528,0.7854180501630013,-0.6561404731537734,-6.280000005852183,-6.280000018122571,-0.05097307546302954,0.07531776085719771,485.8915124569409
1755267051.93201,-0.04164198953298337,3.140000000213423,6.2800000044752435,-6.280000033185267,-0.05354096072231318,-0.3478020166246626,487.3639168769085
1755267051.9423938,-1.046320224106299,1.2903682416069653,6.280000009238817,6.280000010013432,-0.05535100602144982,-0.2404227501887875,478.69121035152955
1755267051.9522648,-0.5316537102822572,-2.4803908551792055,-6.280000001834326,6.280000034687099,-0.056331034572864036,0.20376145107094723,494.14544572524073
1755267051.9630694,0.6267134993860323,-1.8534223868334923,-6.28000001114717,0.699323791503633,-0.05640684244234517,0.28747966875553527,479.0528898600628
1755267051.972578,0.36661995298243794,2.055102851080804,4.116137836264466,-6.28000003468388,-0.05552647286502177,-0.09791463645171547,488.1694613481482
1755267051.982568,-0.827048280765342,1.7000254725977808,6.2800000101954065,0.6240311674146364,-0.05379449071896725,-0.255011329875151,478.9056179616625
1755267051.9926054,-0.8452073033509824,-1.4972433704214456,-0.712977588257198,6.280000033550529,-0.051365514968411324,-0.041435688133572596,480.49659635045896
1755267052.0028203,0.4056846369312711,-3.1400000006685436,-6.280000010089372,6.280000011967797,-0.04837634579225947,0.3510951926365382,477.3333794317658
1755267052.012886,0.7195141537376981,-0.2282736336553891,-0.5625426205866303,-6.280000031247678,-0.044947379233257756,0.06852651700248609,483.93165140545784
1755267052.0228968,-0.4422318896710219,2.317023412791138,6.280000008351277,-6.280000019231785,-0.04118453015618817,-0.4198131010336328,481.858696852262
1755267052.033285,-0.9861692933274164,-0.3575315576449757,5.610932910156216,6.280000025837701,-0.037180593940356,-0.09466387226534448,473.41656729386943
1755267052.04332,0.03762969071173827,-3.140000000754456,-6.280000007541089,6.280000028830731,-0.03301663044567693,0.30707527124548156,486.1028553878132
1755267052.0532591,0.8856945185503963,-0.4640409107984328,-6.280000003885868,-6.280000021198568,-0.02876318485159146,0.030234195446101467,481.4798368799621
1755267052.0632567,0.03060431780542605,2.3799313404884073,6.280000005243638,-6.2800000320026435,-0.02448138213872264,-0.22288470133209334,485.770063223986
1755267052.073184,-0.9842882936156311,0.8130078280021503,6.28000000835235,6.2800000139173004,-0.020223901427153135,-0.19798057304354647,477.8270939499274
1755267052.083447,-0.23771393114485365,-3.140000000066322,-6.2800000029591665,6.28000003360885,-0.016035875210437367,0.2941873171185396,491.33523787111153
1755267052.093496,0.8844607240550638,-1.3802950013549538,-6.280000011316927,-6.280000004782533,-0.011955679888195014,0.23028007167825965,492.5913277591011
1755267052.1036592,0.4939200276977447,2.2008677641519148,5.304678780374022,-6.280000034234519,-0.008015656296996188,-0.08731886932960409,486.96335229842845
1755267052.113765,-0.7388452106180424,1.9249602426780208,6.280000010152513,0.36631092140203037,-0.004242760391804823,-0.3440055360943428,474.98467110014104
1755267052.1240969,-0.6376820969435893,-0.7847653078904064,-1.5106707717204677,6.280000033704056,-0.0006591131913359222,-0.09497211613889611,478.24550004560365
1755267052.133741,0.6742148465414624,-2.180499322482539,-6.2800000105193305,6.280000003510239,0.00271734718163108,0.39142244962337885,474.8812318658709
1755267052.1439438,0.8290319774155263,1.0270292346580783,0.03987555380523633,-6.2800000325673295,0.005872653626600943,0.034011142075626076,482.4849790721167
1755267052.1538332,-0.42935791460091277,3.112531078867618,6.280000008830383,-6.280000015669589,0.008796108552696968,-0.486958688249459,479.28020812319875
1755267052.164692,-0.7630788509091694,-0.21630056805296416,3.1090840904691266,6.280000028273417,0.011480086032572112,-0.08853218625327441,474.4502984317759
1755267052.1741052,0.37958142142953377,-3.140000000117884,-6.280000008436904,6.280000026270212,0.013919518016940469,0.5926125804235536,485.8107596409542
1755267052.1840794,0.9828049204015894,-0.22547808126311666,-6.2800000025890235,-6.28000002416627,0.01611184117224873,0.04722911266270827,479.04537487574015
1755267052.1944935,0.03305680186176124,3.140000000540333,6.280000006386973,-6.280000030072731,0.018056462425604103,-0.38185862694240114,482.1306879380118
1755267052.2042341,-0.8096873863547597,0.7589808594447304,6.280000006020642,6.280000017853634,0.019754646401463738,-0.11091571988069043,481.7608273070105
1755267052.214295,-0.0123764138461753,-3.1400000002536026,-6.2800000040807475,6.2800000325756855,0.021209253431805353,0.5068729493839573,487.74039116140005
1755267052.2242205,0.983696903025007,-1.358426035212414,-6.280000010929978,-6.280000010033601,0.022424540191551934,0.30329498627530005,488.36655281882094
1755267052.2342243,0.4185429138136967,2.96617156784299,6.776786625877917,-6.280000034242292,0.023405979532360455,-0.20764122012416725,492.04576970736656
1755267052.2445755,-0.7209628660933699,1.814420073101814,6.280000010267528,0.3321721656280614,0.02416009273186437,-0.2908627634452536,475.3365639502453
1755267052.2542844,-0.43923577031908767,-2.006520865821889,-3.5644471988995607,6.280000034968772,0.02469429941040094,0.21750084439289763,491.0421449655061
1755267052.2643135,0.7710723436603132,-2.3700945909013456,-6.2800000109522855,0.38632943396788466,0.02501679762710518,0.4649163670506169,480.8678493545989
1755267052.274462,0.7628902852597976,1.6994909194889254,1.0661501963680533,-6.280000033801372,0.025136427681992313,-0.11845718577619459,484.90059192616366
1755267052.2846549,-0.5027511890965853,3.14000000003175,6.280000009217435,-6.2800000129410165,0.025062567050762985,-0.5199691154715889,478.6469272813578
1755267052.2946947,-0.77072950001743,-0.31709054374176016,1.2263924915466815,6.280000029900243,0.02480507159963974,-0.12200790167704337,476.06391189389103
1755267052.3048012,0.43889413254922693,-3.1400000002184725,-6.280000009057501,6.280000019906556,0.024374050088238786,0.5719968354929232,485.24925705487044
1755267052.315169,0.9647985757356702,-0.24427783788144708,-6.2800000015024615,-6.280000025389569,0.023780068330077064,0.05805770253229475,477.2432225491012
1755267052.3256679,-0.05536407039340502,3.1400000006521855,6.2800000071005755,-6.280000028965006,0.02303368470117273,-0.4052468168422106,480.1074380307085
1755267052.3352714,-0.8897940564745254,0.6935647246419268,6.280000003520762,6.280000020068066,0.022145796712206067,-0.1187637958528053,481.0519141562611
1755267052.3452973,-0.04098173355250001,-3.1400000003193966,-6.280000005101824,6.280000031804491,0.021127279320048542,0.47609648665582893,487.1319225935117
1755267052.355396,0.9660808183824776,-1.1484588934430393,-6.280000009284221,-6.280000013022416,0.019989065939865824,0.20456327547085168,487.289688043135
1755267052.3656547,0.3170964179311705,3.0515258962371825,6.280000002797402,-6.280000034320572,0.018742081179748293,-0.29405462989356324,491.4639640294855
1755267052.375318,-0.7861340397388303,1.7450109597437162,6.28000001021392,6.280000001793934,0.01739719629691272,-0.2864978285663131,483.25481301791433
1755267052.3855019,-0.48672136653879694,-2.1609562118796632,-6.143101264296225,6.280000034150987,0.01596518873460856,0.14004418778911648,487.79523187369267
1755267052.395489,0.7739725497927897,-2.028531884629536,-6.280000011156703,0.7502307491864915,0.014456717503504635,0.35095996318488853,481.02045293728185
1755267052.4053693,0.5647600064248346,1.9104171217822183,2.567112323289113,-6.2800000343382365,0.01288228509753031,-0.11559333666153318,485.99756782827035
1755267052.4154572,-0.7360030119430073,2.511637017104862,6.280000009663045,-6.280000001694289,0.011252204459254567,-0.39508533069208185,467.39873200049385
1755267052.425795,-0.8675083381364029,-0.7236792182062652,-0.2270358876075127,6.280000032466084,0.009576612617619218,-0.07628496386597658,476.9407206044685
1755267052.4357998,0.39024125398267734,-2.5885530816523463,-6.280000010083604,6.280000014834782,0.007865321395565505,0.39916119495777447,481.88627251269014
1755267052.446161,0.7002745091244796,0.30599308421489635,-1.7646920768765395,-6.280000029811479,0.006128064850472903,0.06604233720975601,477.59798202221856
1755267052.4561129,-0.45326931770146583,3.140000000112754,6.280000008207721,-6.280000018690046,0.004374098171308738,-0.49413733114854586,477.84231245286867
1755267052.4662316,-1.0261142090493782,0.13819976248938837,5.6878853641350835,6.280000025674472,0.0026125870351749736,-0.10137819080679283,478.5240841921492
1755267052.476094,0.002970420877347002,-3.140000000612328,-6.280000007102914,6.280000029591044,0.0008522914117785607,0.48574176155166504,485.71108425557406
1755267052.486477,0.8148763541421168,-0.5605434984372673,-6.2800000046389,-6.280000019909451,-0.0008983135147353494,0.06976179124225554,479.93672977885285
1755267052.4966528,0.015306812019643345,2.0768920276322156,6.280000005160726,-6.280000031984674,-0.002631085816224843,-0.11335832734576465,484.37965522662785
1755267052.506776,-0.9694078750848123,0.6844731897560599,6.280000009190136,6.280000012052431,-0.004338202319751461,-0.25219421225412075,484.8547742615669
1755267052.5172184,-0.3651299638761576,-3.0604692360516563,-6.280000002088435,6.280000033745296,-0.006012190393708039,0.1697263266101957,489.79648103592774
1755267052.527566,0.7585067324056444,-2.327156520630167,-6.280000011337757,-6.280000001808657,-0.007645926967296823,0.2700369996080516,491.87040080162984
1755267052.5372913,0.45824047950896524,1.323074976069933,4.049908635756868,-6.280000034787619,-0.00923264657774725,-0.10357212228676504,489.5944815778254
1755267052.5473173,-0.7787704929113854,1.8012200159396663,6.280000010185519,0.4519004328666836,-0.01076595577689865,-0.3956843835565376,477.216966285822
1755267052.557199,-0.746866821004843,-1.5778546853429574,-0.9851107461386004,6.280000033670397,-0.012239805285040067,-0.0643132445893741,479.78941403907373
1755267052.5673108,0.5823905705286027,-2.4981682218147436,-6.280000010341116,6.280000006049572,-0.01364862091428165,0.39285441357870104,477.1248577437192
1755267052.578091,0.8130708402661022,0.5235787524992295,-0.19875517448886393,-6.280000031265018,-0.01498703734751361,0.07715605724221378,478.8711193948292
1755267052.587265,-0.4533159794679532,3.0618222070344308,6.280000008511239,-6.280000017347195,-0.016250289627891545,-0.5428147523770595,478.83230729318126
1755267052.5975735,-0.8529678177000259,-0.16091481673065672,4.317996306717225,6.280000026948247,-0.01743378643139093,-0.09481470705743472,474.52627633713803
1755267052.6075702,0.22901531165385536,-3.1400000000027632,-6.2800000079397265,6.28000002789377,-0.01853354174680799,0.531651999620925,488.52576267479577
1755267052.617735,0.9317366755506195,-0.15547282325218936,-6.280000003061092,-6.280000023403478,-0.019545791771424348,-0.004398498855861022,483.1051727648042
1755267052.628153,0.02726693959959764,3.140000000492518,6.280000005819603,-6.280000031367322,-0.020467278432946934,-0.34905476034729804,485.3173256052418
1755267052.6379173,-0.8872991654332855,0.8291989467849648,6.280000008121547,6.280000014604461,-0.021295116925052593,-0.13123658367945187,478.3394388179122
1755267052.648286,-0.2594343363179282,-2.1142623054905063,-6.280000003014667,6.280000033766115,-0.022026834749263813,0.17467146570852898,491.2637307346323
1755267052.6584687,0.8232404512061969,-1.2934914282466918,-6.2800000110380125,-6.28000000505096,-0.022660364661001964,0.24496494055395296,486.305526495806
1755267052.6682737,0.4401380403921613,2.382967081702252,5.583643182059414,-6.280000034037478,-0.02319405304133859,-0.09854413075103086,486.3927356810228
1755267052.6784456,-0.7600107703446368,1.8617834138172251,6.280000010417449,0.36215408530419113,-0.023626660150603884,-0.285378013545066,480.0930302080967
1755267052.6882224,-0.5589607831978296,-1.8335460779636965,-2.4037253129742315,6.280000034291007,-0.023957361789343143,0.18655771048768138,486.80833144457273
1755267052.6982398,0.6866841973868418,-2.3320067307332435,-6.2800000108521665,6.2800000029527805,-0.024185742977129276,0.42181371951508495,480.14280881722584
1755267052.7083282,0.77566464828135,0.8755212648729781,-0.13882081530401513,-6.280000032642107,-0.024311810968418612,-0.007748541053407398,481.64683368763184
1755267052.7182338,-0.4868102231668672,3.081232490430594,6.280000008903809,-6.280000015050167,-0.02433599840625067,-0.5561013277411067,478.331588608493
1755267052.7281792,-0.8097522054805163,-0.2239246180630402,3.741344447004945,6.280000027740755,-0.024259119914901595,-0.10013997058113724,472.2492927984865
1755267052.7383397,0.3105957892559954,-3.140000000068267,-6.280000008429822,6.280000026050146,-0.02408251719363852,0.5777763244899152,484.45296488278507
1755267052.7485833,0.9220386026930341,-0.22310214386140792,-6.280000002714865,-6.280000024240444,-0.023807800974243953,0.04162638104396024,478.2660697110249
1755267052.7588744,-0.028657457480691872,3.1400000005473103,6.28000000653178,-6.280000029646221,-0.023437110945689454,-0.4154259280841152,480.9607636687018
1755267052.76895,-0.843512184105478,0.7499688448625194,6.280000005280138,6.280000018790682,-0.022972975022542474,-0.12611932344483198,480.4078343907055
1755267052.7792757,-0.036168683937067736,-3.140000000292338,-6.280000004452866,6.28000003234289,-0.022418349237703916,0.5092586688559583,487.7368493049579
1755267052.7891529,0.9428239135362833,-1.2879196496239949,-6.280000010804825,-6.28000001143042,-0.021776614231376,0.27455329561657105,487.40595143074967
1755267052.7995834,0.3499563500039685,3.0004394684633042,6.280000002230477,-6.280000034280434,-0.021051572717396105,-0.2815936782633918,491.27123825801357
1755267052.809571,-0.7917201849440494,1.8501016784420137,6.280000010248619,0.890045979801231,-0.020247454245672425,-0.3228290228776106,475.4840259614681
1755267052.8195379,-0.4964068373067173,-2.051780706790791,-3.953613150777244,6.28000003487697,-0.019368916685172488,0.22181033736384587,490.5573550074735
1755267052.8298535,0.746671426152477,-2.3004070072564353,-6.280000010957556,0.4935935929738058,-0.018421034626631805,0.4398558959132716,479.0460401610826
1755267052.839712,0.6564250179663038,1.7860544210566585,1.6509557820233252,-6.280000033857291,-0.01740931497083764,-0.1429199378291137,483.9710675304562
1755267052.8500535,-0.6284293884226482,3.140000000081977,6.2800000095896795,-6.280000006591551,-0.01633969489047077,-0.559587633133124,477.35815022082767
1755267052.8603518,-0.8371693351240732,-0.30521287521139207,0.321788967203082,6.280000030544599,-0.01521850587240936,-0.1442417858537084,475.2713015415893
1755267052.8701675,0.4289390748393994,-3.1400000000773383,-6.28000000934013,6.280000018451037,-0.014052607356209723,0.6018246543244455,484.01686893727344
1755267052.880337,0.8539768747487231,-0.045024319920470735,-5.526392923083931,-6.280000026592521,-0.012849109563185301,0.04179622669411413,476.7409991081132
1755267052.8904283,-0.1871139934014998,3.140000000772109,6.280000007335432,-6.280000028155943,-0.011615763179785077,-0.4323634514795306,479.25694587242555
1755267052.9001458,-0.9626012474923559,0.6849676209964028,6.280000002394896,6.280000021468368,-0.010360552821581437,-0.13400787017034171,480.38009694342884
1755267052.9103203,-0.05598240243281777,-3.140000000411615,-6.280000005483232,6.280000031378204,-0.009091998188980766,0.509093557714347,486.45377288022365
1755267052.9205298,0.8973491355039659,-0.9705797729508419,-6.2800000086789005,-6.280000014704436,-0.007819024499509553,0.18545228206669445,486.8433497719738
1755267052.9308624,0.21652077922789112,3.140000000005423,6.280000003117437,-6.280000034022812,-0.006550982386629656,-0.32776488490450184,490.8237990907401
1755267052.9409075,-0.8492910505935927,1.6953291073251306,6.280000010165969,6.280000003913998,-0.0052976496705636755,-0.2965449981366476,482.86510720462815
1755267052.9508438,-0.49080580628015935,-2.19295645652546,-6.112365764378287,6.280000035117531,-0.004069139440350145,0.17044498351341592,494.3966590965302
1755267052.9610424,0.7469274141866464,-2.1664106264719134,-6.280000011055909,0.4954267327224233,-0.0028749409748072274,0.4129508441354528,479.9837657464896
1755267052.9711528,0.6331567301766341,1.850757352753853,1.9908710615615903,-6.280000034207852,-0.0017231387359673,-0.1136494020922511,485.87312792244995
1755267052.9813592,-0.6657116076154905,2.480833231292232,6.280000009591015,-6.280000003298911,-0.0006204968562449481,-0.3890871106201674,469.38597104150017
1755267052.9914033,-0.8470669341741981,-0.5616594460895242,0.14882234575525155,6.2800000319631835,0.0004274325100142029,-0.0994285731111956,477.81305000789115
1755267053.0014408,0.4148254806536509,-2.5811912182916825,-6.280000009548326,6.280000015416398,0.0014160671862639695,0.44185033558385406,475.4666677627441
1755267053.0113013,0.7260282788012706,0.4553212641544023,-1.4367178711425683,-6.280000030064052,0.0023419040341989827,0.07637868319307742,480.25410283349703
1755267053.0212314,-0.4536700644625079,3.140000000143324,6.280000008149874,-6.280000019300619,0.0032021775071524594,-0.49080976942867893,479.95696829327017
1755267053.031625,-0.9823563245976439,-0.4974402111025041,5.294258978688666,6.280000025789246,0.003994903719493514,0.047834202421643685,474.67097287741706
