Ath0601/CNC_UR5e/src/trialpkg/graphs/latestrun1/joint_velocities.csv
time,shoulder_pan_joint,elbow_joint,wrist_1_joint,wrist_2_joint,wrist_3_joint,shoulder_lift_joint,end_mill_joint
1755279937.6380558,-1.3528457867839627e-14,-1.000482791231605e-13,5.2368265973656847e-14,-8.841451876184792e-14,1.0432345091959672e-13,5.287437154777308e-14,3.416711358283919e-14
1755279937.6463592,-1.3163780178751527e-11,-5.317084619815837e-11,-3.053184476076165e-10,8.432267106783797e-10,-2.4313783542062595e-08,-1.570406998885332e-12,74.93333429844495
1755279937.656255,-1.5645424842822275e-11,1.7976470312319748e-10,6.799956153713538e-10,2.5938933223557115e-09,-2.152524902765407e-08,3.704851009311838e-11,148.73582372644097
1755279937.6668315,0.0211792287333597,-3.6889846049062425e-06,1.6904403511291966e-06,-6.280000006349104,-1.3818155730760395e-06,1.9991139039374217e-06,218.7047142131587
1755279937.6763198,-0.046574724535965346,-0.15815113969272154,-6.280000002584035,6.2800000076503455,-1.0298308363410058e-05,1.5263417461490458e-05,271.45026227668615
1755279937.6863537,-0.002833200174314293,1.1981855134053139,6.280000003363828,-6.280000002492897,-3.240820429784019e-05,4.870466827295791e-05,311.2772010542821
1755279937.6962442,0.07436861971010317,-1.2807948716862931,-6.280000004206508,6.280000012608854,-7.143330324654862e-05,-0.0022178643047637454,345.23288316015964
1755279937.7065535,0.20227137006489387,1.7919380509931724,6.280000002218397,-6.280000019583806,-0.00012942807171523185,-0.002201370556243386,378.29365010756845
1755279937.716648,-0.6159469060462551,-0.2330185187202808,-1.49293591143095,6.2800000222535175,-0.00020702588679416545,-0.0469471336841703,397.49968926862994
1755279937.7266624,0.8113263675587611,-0.6861054247452716,-6.280000006583566,-6.280000009112144,-0.00030363285371759474,0.02981558575605201,421.3097042456007
1755279937.7372818,-0.09469642598833916,2.3384842814618287,6.280000005968674,-6.2800000220932475,-0.00041763270775585504,-0.0030526357675227864,433.1532727316165
1755279937.7469108,-0.7856026127721586,-0.11848373933369466,0.4673173520522949,6.28000002685355,-0.0005465463256466288,-0.09824214569871204,447.61444107712384
1755279937.7570782,0.6207803269207751,-1.8608684651440568,-6.280000009545654,6.2800000031879275,-0.0006871810705733061,0.37527986460234936,456.1662386471441
1755279937.7671611,0.7519381738311315,1.903119204987139,0.9606032167105465,-6.280000032504141,-0.0008357776194327649,0.04308095266043514,475.64747331499
1755279937.7771966,-0.5658365432615813,3.1400000002160224,6.280000009520684,-6.280000006033686,-0.0009881351000276817,-0.3249486908472571,477.269951441289
1755279937.7874374,-0.7963548995943526,-0.24091631718451945,0.28250824402499597,6.280000030824834,-0.001139682607104564,-0.026458194637053768,475.5452755956688
1755279937.797533,0.5064299295612762,-2.4617174649580296,-6.280000009284457,6.280000017753302,-0.001285716622329236,0.4931537045610806,482.45584571739295
1755279937.807596,0.9373930028960678,0.3225060237211186,-5.313355916945648,-6.280000027034326,-0.001421209729605799,0.11247635868505633,476.15280492185525
1755279937.8177001,-0.1841027997067723,3.1400000008180164,6.280000007383528,-6.280000027344439,-0.0015412851966465357,-0.23613283068579438,478.0788000125843
1755279937.8273947,-0.9733654479536087,0.6051861056048994,6.280000002499571,6.280000022727737,-0.0016408806576209134,-0.04804291818584594,478.8107770085787
1755279937.837424,-0.03279264650323782,-2.416679426809149,-6.28000000595487,6.280000030085951,-0.0017151153918435469,0.30125602426214576,482.6167939276897
1755279937.8477643,0.9162325391158233,-0.4664954398512056,-6.280000006387038,-6.280000018174128,-0.0017592189416708592,0.14437161119814057,483.6480448964171
1755279937.857892,0.03519183941223311,3.140000000282947,6.280000004305174,-6.280000032854517,-0.0017686086412320723,-0.16193807475383287,487.11639567713235
1755279937.8681026,-1.0257469059911226,1.3097173139660732,6.280000009557144,6.280000011118048,-0.0017389320618862447,-0.18721222215637018,485.01364688527747
1755279937.8781126,-0.4629525774572649,-2.1353808781809707,-6.280000001512779,6.28000003407211,-0.001666118253567106,0.09382921451388349,489.6805325195856
1755279937.8883307,0.7595131543845258,-1.6950246003396239,-6.280000010952122,-1.1618813733382094,-0.0015464091001233804,0.3410548794045611,477.3303947426348
1755279937.898268,0.42323654221023865,1.3944588276882373,3.986321759447867,-6.280000034280128,-0.0013763996522495603,5.101479134961284e-13,486.2051606284662
1755279937.9082484,-0.8307959495909161,1.5935985831126473,6.280000010249461,0.03965658274831885,-0.0011530703976024015,-0.33831533469196995,482.2891782550518
1755279937.9183228,-0.7859661182154992,-1.7761715245017922,-0.5411523227541628,6.280000033142187,-0.0008737851978841693,-0.07361260966150962,476.54128780270287
1755279937.928676,0.5780111592668655,-3.1400000002035666,-6.28000001032599,6.280000006383716,-0.0005364427461893584,0.4170011409527693,481.55125097030236
1755279937.9384763,0.7944157960157378,0.06843480258357126,-1.5788942890528754,-6.280000030813305,-0.00013922615036898733,0.07487746759716912,478.5553649778451
1755279937.9487638,-0.46677895272372727,2.3456639485418034,6.280000008216635,-6.280000018048849,0.00031898691729714823,-0.31445622800653367,477.25793687582836
1755279937.958759,-0.9758980505208714,-0.34662610005127337,5.846677991744694,6.28000002650635,0.0008390199747056459,-0.08051373175259431,477.80655072673494
1755279937.9689534,0.10293317120445844,-3.140000000746143,-6.280000007270143,6.2800000282999235,0.001421067129702358,0.32168114515447754,482.5892079819775
1755279937.9790943,0.9512237106539072,-0.5122718453592193,-6.280000003466753,-6.280000022468538,0.002064817015739351,0.02200978273807566,484.37043280576626
1755279937.9890997,0.0647831546282151,2.5300598353676165,6.280000005181654,-6.280000031870706,0.0027694124401276277,-0.17162108284250727,487.424669629227
1755279937.9993918,-0.9672098709330588,0.8233449820299275,6.280000008755225,6.280000014099537,0.003533446073170743,-0.1876149027385861,479.3063554277768
1755279938.009415,-0.22933228890604562,-3.14000000006301,-6.280000002562836,6.280000034069182,0.004354939940957703,0.2589863775676308,493.9401498856532
1755279938.0193477,0.890541341001321,-1.2837086462416787,-6.280000011071213,-6.280000003688496,0.00523134108119816,0.22409707901201265,487.4082847507538
1755279938.0294414,0.5097036976493297,2.4178709072416873,4.730424148793874,-6.280000034390547,0.006159509893010728,-0.06783972551672188,487.7380070737727
1755279938.0393534,-0.7539559545375796,1.880099357100768,6.2800000100850895,-0.00965997342103142,0.007135710831247255,-0.3165562698638949,475.63306763105686
1755279938.049806,-0.6712245597348918,-1.7596837876986524,-1.1743828738926072,6.280000033969927,0.008155634060576511,-0.011500023530968018,480.55436870473847
1755279938.0594897,0.6793911971477221,-2.1832331057918717,-6.280000010355023,6.280000004588077,0.00921426502429945,0.35103997521912433,475.92802711158356
1755279938.0696368,0.8644809085768003,1.0585425968681512,0.2031488592361378,-6.280000032228237,0.010306124198046884,0.06881496423497323,484.5388526708313
1755279938.0795777,-0.4052422070788553,2.4921283645053354,6.2800000083867245,-6.280000016194462,0.01142500712704586,-0.31447182208718594,473.12678794829316
1755279938.0899947,-0.8515935588599948,-0.23898073912132145,4.389629598104213,6.2800000278738,0.012564144439710684,-0.09533113485812489,475.53355720426634
1755279938.0998924,0.34408015146339727,-3.140000000024843,-6.280000007986106,6.280000027157101,0.013716038714773227,0.5089778733945025,487.87679129195635
1755279938.1100335,1.0326806587943234,-0.18333621040823272,-6.280000002648493,-6.2800000241251865,0.01487270816389552,0.06945057335321521,480.8588598760643
1755279938.1200023,0.05238673385644699,3.1400000005590623,6.2800000060494785,-6.280000030443791,0.01602543279072499,-0.30324991257530576,483.9232842003686
1755279938.1302495,-0.8223482168300142,0.7138827209626276,6.280000005575843,6.28000001828239,0.017164887533025808,-0.08910601774105056,475.6452554094229
1755279938.140171,0.04353923733605147,-2.5004286916176177,-6.280000004424652,6.280000032394163,0.018281102653769254,0.3379890173118029,488.304147927405
1755279938.1503584,1.0489046518353076,-1.0444054882717024,-6.2800000105223095,-6.280000011426926,0.019363466321639322,0.2916866785002784,481.3842908610245
1755279938.1603298,0.4056755952890976,3.136832304153126,6.280000002556697,-6.280000033353545,0.0204007196966689,-0.1760589634854664,486.6177965903965
1755279938.1702735,-0.7547864871681488,1.8540694412337406,6.2800000102885285,6.280000002618055,0.021380958006751938,-0.2739353848829779,486.32219650817115
1755279938.1804607,-0.4422978908136893,-1.5342900052321973,-5.637434292337186,6.280000034228088,0.022291624763548623,-0.02806241153080563,487.38664652510204
1755279938.190362,0.8890061533358758,-1.8446890892290935,-6.280000011157094,0.04795993519085773,0.023119517394733613,0.37044404842196943,483.7046040991005
1755279938.2005365,0.73856877503445,2.0189504579985993,1.180968518634508,-6.2800000345437255,0.0238507787147042,-0.11802923995607968,488.7504348178589
1755279938.2104495,-0.5942509742885906,3.097678312327701,6.280000009436577,-6.280000005340035,0.024470891859789012,-0.48182358802939906,475.31749449690994
1755279938.2202365,-0.7800089872716498,-0.4268471479101621,0.19256592061443412,6.28000003106261,0.024964718936860208,-0.11586604243123666,474.3179204529425
1755279938.2307925,0.5140454973285562,-2.3585270848874487,-6.28000000942602,6.2800000163086835,0.02531636277925431,0.3674185733626476,480.5779012830055
1755279938.2403836,0.8732137059937879,0.4648367364943553,-4.305923197942733,-6.280000028158959,0.025509447629547655,0.019942353139549424,475.5586804973437
1755279938.2502913,-0.3052659696004645,3.1400000002367845,6.280000007593458,-6.280000025499664,0.025526724912468546,-0.3725691144614392,476.43812332622485
1755279938.2601414,-1.0105792144444845,0.33408692425503217,6.280000001692735,6.280000024616797,0.02535048282773983,-0.10667008652650696,475.45289116042835
1755279938.2701437,-0.0001945145371732293,-2.6316319276420432,-6.280000006716204,6.2800000286968505,0.02496224034986838,0.319713499637296,480.77302413402583
1755279938.2803357,0.8561876723588837,-0.5851949922097759,-6.280000005973365,-6.280000019627526,0.024342881634395575,0.13430677746728076,482.5514626538462
1755279938.2902334,0.016434318583645968,2.087151412566601,6.280000004450574,-6.280000032613685,0.023472628407084306,-0.10305886623891723,487.92984446398725
1755279938.300531,-0.9789348656726427,0.4709934744637861,6.2800000094719355,6.280000012238341,0.022331045945749917,-0.2525061001219664,479.38247320327963
1755279938.3101327,-0.37510430047070537,-3.1262868138687434,-6.280000001903684,6.28000003416475,0.020897034686369498,0.0740849956928817,492.773137002215
1755279938.3208747,0.7855206440178449,-2.029129779585288,-6.280000011025937,-6.2800000021205085,0.0191488355971412,0.21425034459491143,485.93491130129246
1755279938.3307643,0.46731069290071137,1.5984217373738576,4.18009019043992,-6.280000034070966,0.017064026178915892,-0.10868658592448323,485.1906057429491
1755279938.3409445,-0.8437363143469184,1.7797913961872087,6.280000010228779,-0.12403498027156257,0.014619519266135458,-0.39109922580405926,479.8566951477572
1755279938.3512154,-0.7036368874616568,-1.84437687390398,-1.5045908523775235,6.280000033730673,0.011791565827457606,-0.085639764022032,484.01179025399694
1755279938.3612394,0.674088498995389,-2.5168249141134957,-6.280000010514973,6.2800000042106845,0.008555758901804822,0.3130894956580094,478.46122713204204
1755279938.371627,0.8598136445357012,0.8463038280533428,0.0947734310238536,-6.28000003192664,0.004887047949203804,0.061482873657807316,479.940346584624
1755279938.381497,-0.41343876208494457,2.526949495008485,6.280000008480789,-6.280000016571869,0.0007596113620489398,-0.3376870223010954,476.76236457883715
1755279938.3915462,-0.8820708795924783,-0.24230230616385795,5.1831731547284825,6.280000026771596,-0.003852843658915528,-0.09065955881941118,470.9302496602117
1755279938.4014752,0.3205600661061114,-3.1400000000325368,-6.280000007932157,6.280000026478991,-0.008977490319898696,0.4912477242316313,484.15244034804266
1755279938.4118323,1.009579300250322,-0.22719253974932055,-6.2800000029182,-6.280000024197534,-0.014641980870177651,0.09094146255111175,484.91796729313364
1755279938.421956,0.008061093024549104,3.0643004824815936,6.280000005794616,-6.280000029909548,-0.020874740538383785,-0.3201763071985498,481.2251837428973
1755279938.4326746,-0.8882209607457893,0.7388265567524201,6.280000006809232,6.280000017564618,-0.027704824818269858,-0.12584922016357425,479.5863333068792
1755279938.4422314,-0.06840330917442702,-3.1400000002420736,-6.280000003618383,6.2800000333883546,-0.03516195945629974,0.48098301260074416,492.58802388480115
1755279938.4524672,0.904347852949724,-1.3526106710257224,-6.280000010868523,-6.280000007946211,-0.04327653359940831,0.2958323133730456,484.91735797785367
1755279938.462225,0.36242448436530106,2.97526347909207,6.3314441707430245,-6.280000033997162,-0.05207960170740611,-0.1372757188912801,489.8604397328891
1755279938.4721897,-0.8130034020134099,1.8157335087329172,6.280000010368713,-0.11402244511677084,-0.06160288259513072,-0.27162359829748955,479.08181951867266
1755279938.4826167,-0.5517058996396673,-2.0411783276671245,-2.845730109509731,6.280000034325923,-0.07187876293848461,0.2114879802386624,486.24654955560885
1755279938.4923325,0.7263868415647454,-2.2358489810888935,-6.280000010911525,6.126198314232617,-0.08294028746300075,0.5027018081417474,477.85899900083007
1755279938.5025835,0.6676574858173921,1.6380226640293793,0.10567839663823642,-6.2800000335023825,-0.09482114497468652,-0.041744470807486875,481.2939865957757
1755279938.513155,-0.5751927531654573,2.4286552311661,6.280000008870844,-6.280000013375295,-0.10755579890965122,-0.26823784212207863,474.60410481933314
1755279938.5231197,-0.9340088559916327,-0.41821104035014955,2.025559307276004,6.280000029616275,-0.12117918651995391,-0.05439258238928796,474.33988501802594
1755279938.5333648,0.29181795905703556,-2.6221008655754154,-6.280000008856483,6.280000019259173,-0.13572296683884444,0.506537263702001,484.31981251794735
1755279938.5435069,0.8304776711113698,0.011008626464210636,-6.280000001997015,-6.28000002585026,-0.15097354190189893,0.13185586079413686,478.85710862513696
1755279938.5533516,-0.24550170487993028,3.0653757008998275,6.2800000067211945,-6.280000029106208,-0.16637664580989497,-0.2727617684683658,484.4151558591819
1755279938.5637753,-1.1055659416733863,0.3934609135738595,6.2800000040617565,6.280000020083019,-0.18143327726988845,-0.00493158954309166,477.84727117203823
1755279938.5736277,-0.2608858961389774,-2.542850466853201,-6.280000005045229,6.280000030990191,-0.195726999368375,0.381691867365331,483.04889571006015
1755279938.5838552,0.7712490803287387,-0.8256319770013067,-6.280000009141352,-6.280000014636171,-0.20891486647710877,0.29742087014685353,487.10966404417337
1755279938.593739,0.031165448211191216,3.1400000000207653,6.280000002781323,-6.280000034453067,-0.22071927120425805,-0.14842610565435393,494.53126544719805
1755279938.6040916,-1.0968197682927718,1.380491257087374,6.280000010309351,6.280000002753171,-0.23092059980413282,-0.11319751198744196,487.0117048280559
1755279938.6142786,-0.7540325387568113,-2.2550872253102194,-5.7803526001758945,6.280000034088253,-0.23935062994852396,0.113109079730975,486.25692932376245
1755279938.6243174,0.5808535977844498,-2.5602685082713443,-6.280000011069571,0.09099926655986956,-0.24588657618059395,0.5356984856156943,480.3292993961904
1755279938.6344469,0.31226894984191733,1.3498422663315361,2.3861374753784466,-6.2800000339794835,-0.2504457466038499,0.11388317117657583,483.3960891685257
1755279938.6441808,-1.0453634838808887,2.146580352046147,6.2800000097500615,-6.280000001608973,-0.25298072771459235,-0.20488897772319875,471.8313897230044
1755279938.6542783,-1.1410768564727036,-0.9937041564427422,0.48082099286560753,6.28000003235362,-0.25347501531577177,0.06004140562154421,477.151893097563
1755279938.6645775,0.1755130864719471,-3.140000000372691,-6.280000009814705,6.280000014712986,-0.2519392412365282,0.5946995894667674,481.9210997676205
1755279938.674341,0.4943933131942628,-0.03007028830344427,-2.5964447999869726,-6.280000030103913,-0.24840741682974166,0.21930271968923376,483.0591665505404
1755279938.6843774,-0.6311255639124278,2.5684601372971834,6.2800000078483365,-6.280000025718046,-0.24293402642192619,-0.1831358026922256,480.137086616412
1755279938.6948106,-1.2525362471150285,-0.09625230532598694,6.280000002188227,6.28000002466727,-0.23559104163072658,0.05985372751174931,478.6314542794667
1755279938.7046127,-0.23773906906775977,-3.1400000006658146,-6.2800000066839665,6.28000002909252,-0.22646540040424679,0.46318601466717907,481.05680232060445
1755279938.714954,0.6005049543853319,-1.0453402149898103,-6.280000006234747,-6.2800000194233725,-0.21565670119046532,0.2323545211777597,482.20768523677424
1755279938.7248359,-0.1993265061270726,2.3180897569354992,6.280000004704809,-6.280000031931667,-0.20327512978029771,-0.044745643850665956,483.9906936908784
1755279938.7350547,-1.1871354892750212,0.4511126616740368,6.280000009599009,6.280000012317016,-0.18943958858889248,-0.11070483672503634,484.0047890351147
1755279938.7452264,-0.5467880707151503,-3.124625429953592,-6.2800000019511515,6.280000033510163,-0.17427602260779307,0.21891360486988318,488.36829147255486
1755279938.7554736,0.6426971190251018,-2.1819663806046563,-6.280000011245333,-6.280000002878982,-0.1579159046511971,0.3433553597781157,490.5257531009392
1755279938.7655847,0.322612430629881,1.4373418354962872,4.050827136806386,-6.280000034640736,-0.14049487523938575,0.008390156323513996,489.03312560990565
1755279938.7754188,-0.9634337263199003,1.6061495717835745,6.280000010136066,-0.06802134855015352,-0.12215152336176995,-0.2697394504396561,476.49896218511884
1755279938.7853932,-0.8166722082347213,-1.7516100629852502,-1.068194467799246,6.280000033836409,-0.10302625290610017,-0.01641512702175918,479.775815311692
1755279938.795651,0.5851819907392777,-3.1400000001405006,-6.2800000105166855,6.280000005815144,-0.08326041617396296,0.5421278181902456,483.7140844780731
1755279938.8053958,0.7540407008927512,0.2470062258213206,-0.20431551875636733,-6.280000031475787,-0.06299517584785352,0.12888008350003832,482.25836445719744
1755279938.8160472,-0.5192751445039359,2.5132277511053487,6.280000008416086,-6.280000017671316,-0.042370955352761475,-0.3409349052430259,478.75091083373394
1755279938.82569,-0.9498002112904128,-0.24615963362486498,5.947955619960071,6.280000025793733,-0.02152655172953205,-0.06999693858049935,471.55568639811327
1755279938.836101,0.20262436696336228,-3.140000000808164,-6.280000007645494,6.280000027889397,-0.0005986474130619257,0.3813142916392241,483.97250696907423
1755279938.846218,1.0127919348465217,-0.12161796609382097,-6.280000002990181,-6.280000023229793,0.020279029076325727,0.022054511471902113,485.6584200195204
1755279938.8562922,0.10645809983463939,3.1400000004707853,6.280000005368633,-6.280000031867836,0.04097598138823666,-0.3239353507832875,488.58211300378065
1755279938.866833,-0.8617732855498298,1.1576824247141349,6.280000008526526,6.280000014564369,0.06136554291604124,-0.24103371936068932,480.5058553437486
1755279938.876559,-0.15744526109765858,-2.0965680471354236,-6.280000002519566,6.280000034084281,0.08132527745965867,0.08769184114433926,492.6257786033733
1755279938.886272,0.959348130494251,-1.266114975948485,-6.280000011121006,-6.280000003551751,0.10073736882277506,0.19647736355050915,487.54822061459737
1755279938.8965163,0.6076205649753075,2.408774292983605,4.606770760368331,-6.2800000343159255,0.11948896031362422,-0.16866617854051663,487.1048440315432
1755279938.9063902,-0.6568968542779156,2.3854479541910996,6.280000010343862,-0.06336472669083815,0.13747246802777574,-0.47093368166998234,481.288258495345
1755279938.9165292,-0.5415800234648354,-0.7078855248562955,-1.2747697101702453,6.280000033641947,0.15458586158789114,-0.19729704356598926,484.0939571459053
1755279938.9265237,0.8136257107801373,-2.156174808192639,-6.280000010520533,6.280000005645761,0.17073292182331867,0.2930510016799821,481.16951683659556
1755279938.9368536,1.010450822311773,0.8109137979752075,-1.0933235288727445,-6.280000031221931,0.18582348243512792,-0.04210980810121637,479.12255037070673
1755279938.9471147,-0.25822728343160284,3.1400000003805157,6.2800000083081535,-6.28000001775613,0.19977350533632754,-0.5462769278127472,477.25608211599956
1755279938.9571142,-0.7000080283724912,0.2523152643109826,5.431905536705816,6.280000026874024,0.21250553799933808,-0.23265179592495486,478.09794202439406
1755279938.9671514,0.369823503584491,-2.422510689695825,-6.280000007323489,6.2800000279621315,0.22394860686742013,0.21430891250477835,482.65281198066344
1755279938.9772856,1.1907892417577792,-0.06040784664793186,-6.280000003512048,-6.280000022518241,0.2340384972709173,-0.10034861030624471,484.7771819171268
1755279938.98714,0.3126649040473578,3.1400000004298745,6.280000005183618,-6.280000031856037,0.24271786047707722,-0.43768134636931577,487.48821738661286
1755279938.997404,-0.6828425094118455,1.2838325471392542,6.2800000085764625,6.280000014282788,0.24993634236596635,-0.37870499389550066,479.4129397390622
1755279939.007444,0.010307136829164898,-2.024286571196793,-6.2800000025374025,6.280000033892755,0.2556506823120833,-0.011856152133568859,491.3356917159933
1755279939.0173316,1.1309872077818879,-1.180232777638728,-6.280000011050339,-6.280000004236571,0.2598248185687284,0.0803797359090153,486.3102358018
1755279939.0273316,0.7605800680787428,2.433073925454629,4.956854465333824,-6.280000034124804,0.262429969642028,-0.26815950078419926,486.4206342238374
1755279939.0371673,-0.4976610375745459,2.1947903988947894,6.280000010326923,-0.05915335909601449,0.2634447157414531,-0.5365131684463683,479.6045803332425
1755279939.0474634,-0.35782508542446356,-0.8282465400517643,-1.9627868757807523,6.2800000337304525,0.2628550705977323,-0.27311418058732007,483.24945466517016
1755279939.0571733,1.002056773882939,-2.1330407266954206,-6.280000010688877,6.280000002934534,0.2606545510356937,0.24724472930903238,478.2998905629116
1755279939.067465,1.1013885524103464,0.991773021871569,-0.3121117971537243,-6.280000032163777,0.2568442497165391,-0.1305655653228165,478.2764231930225
1755279939.077733,-0.20894426576526007,3.1178130017724164,6.280000008656201,-6.280000014858841,0.25143275731847087,-0.6537139821424305,475.0134083482658
1755279939.0877836,-0.5251852587457674,-0.08765488212837229,3.3752638831844606,6.2800000287880025,0.2444365109953086,-0.25525915270792204,476.6572990172133
1755279939.0978532,0.6018410746707439,-2.5312784262178036,-6.2800000082150875,6.280000025144499,0.23587943175655957,0.3185088854968459,478.2027441062048
1755279939.1079173,1.2530964020108346,-0.10813270657230262,-6.280000002879154,-6.280000024823693,0.22579335531104272,-0.0017618846716102032,479.3515549380886
1755279939.1185083,0.23156443026774995,3.140000000633161,6.280000006390452,-6.2800000295521805,0.21421777619695836,-0.4540324511917705,481.524014831132
1755279939.1284862,-0.6345812593309168,0.8592109433899316,6.280000006042932,6.280000018680809,0.20120002196283782,-0.2614308847562111,482.86713518673395
1755279939.1386528,0.1294634490862543,-2.427315000544927,-6.280000004019993,6.280000032317972,0.18679524200191744,0.19961089324517609,485.6666432779263
1755279939.148539,1.1600444593856278,-1.0611117993902397,-6.280000010811483,-6.2800000111918575,0.17106643668763466,0.16128675652391355,486.859825017008
1755279939.1587222,0.5477688874097502,3.0307009055836156,6.280000001960008,-6.2800000342384195,0.15408447957511795,-0.2966553649194892,491.67123104797645
1755279939.1686482,-0.6575240447847852,1.7852494433817983,6.280000010225654,1.050719408119603,0.13592813690369693,-0.37851035937906563,476.18627611876144
1755279939.1787934,-0.36808814921120814,-2.1216598309191967,-3.6055626772579163,6.280000035087056,0.11668408395437346,0.14588836745469774,491.5177078423104
1755279939.1889777,0.8668002227929945,-2.126595193007307,-6.28000001093271,0.12302269165334767,0.09644693150217298,0.3481814432127811,480.9571267826201
1755279939.1993785,0.815460378729261,1.8315811960051818,1.0301203630955547,-6.280000033925091,0.07531922574221017,-0.173625387893277,485.35313757491474
1755279939.2093172,-0.5064659220625763,3.0460486394816257,6.280000009201762,-6.280000012655352,0.0534114648552646,-0.5313432203979018,479.2687930106397
1755279939.219242,-0.7994358150218682,-0.34834075379773466,1.6550671311605765,6.280000029948841,0.030842148347035248,-0.1449559075891941,476.71023203517717
1755279939.229894,0.4226677284578169,-3.07977017754298,-6.280000008802667,6.280000018738939,0.007737650032891619,0.5462138529399042,479.42975190972106
1755279939.2394145,0.9208897920471826,0.13415329794720288,-5.360323606417826,-6.280000027190361,-0.015767515074983418,0.034299788318786786,481.61095158696855
1755279939.2498105,-0.10527465022578364,3.1400000000847825,6.280000007067548,-6.280000029262041,-0.03953095260802675,-0.37579937950900183,486.229716521996
1755279939.25986,-1.0012051089108303,0.4949839588189999,6.280000003604876,6.280000020347114,-0.06340221760270892,-0.06974767873906135,478.99339226424814
1755279939.2699015,-0.15754096670497028,-3.1400000002888415,-6.28000000516595,6.280000031319794,-0.0872228632694112,0.5160525656895023,486.159946786699
1755279939.2800984,0.8357232707242421,-0.9103375581935425,-6.280000009183366,-6.280000013872543,-0.11082642549267874,0.24784335461005502,480.14724243065325
1755279939.290159,0.050366774682903015,3.1400000000881976,6.280000003561866,-6.280000033119066,-0.13403841716850562,-0.24000215992806626,485.96659699648006
1755279939.3003097,-1.0681247851890656,1.4157304190233009,6.280000010196655,6.280000005903261,-0.1566763219348123,-0.16010447427336139,486.0170814929546
1755279939.3103511,-0.6998211654116593,-1.82394108710596,-6.280000000337504,6.280000034305594,-0.1785495934416913,0.14080653421321637,489.43767912863996
1755279939.3204577,0.5891330530666207,-1.8936242856710352,-6.280000010986834,0.35550554221118214,-0.19945964371968383,0.47209336644605515,477.17240398292194
1755279939.3306935,0.30562336039277327,1.451139831180813,3.1842788600921574,-6.280000033913673,-0.21919984607593745,0.0632534298546148,482.58236535419024
1755279939.3405488,-1.0366087807041984,1.9283297612029153,6.280000010074065,0.414750484068267,-0.23755553429996837,-0.20529826759403427,478.4624520643003
1755279939.3505971,-1.1423773464074047,-1.167723817574394,-0.13629206917363712,6.280000033052161,-0.2543039655949439,0.09399775893772785,477.9097370270338
1755279939.3607926,0.17603562717149726,-3.140000000321829,-6.280000009921794,6.280000011541514,-0.26921444555341,0.6207975061980364,475.7153181726137
1755279939.370465,0.4196078480723371,-0.3079035016962114,-0.6531114551673071,-6.2800000312380355,-0.28204808036299145,0.27230190472604443,482.8905515190128
1755279939.3805618,-0.7598981731953371,1.9317964509413943,6.280000008343406,-6.280000018725605,-0.29255802694297206,-0.16430613713703446,480.99440608487083
1755279939.390573,-1.2991724772179782,-0.8753881469595216,5.450446291081711,6.280000026132591,-0.3004893274652995,0.14463326492455514,474.3221196223303
1755279939.4009202,-0.30557500313886427,-3.1400000007478885,-6.280000007523341,6.280000028631868,-0.30557907025475917,0.425111100481845,485.7902340010583
1755279939.4110339,0.5494416714097811,-1.4214151429057664,-6.2800000041194455,-6.280000021552844,-0.3075876805523743,0.2952800817273372,481.02215604897543
1755279939.4210339,-0.29276881567355995,1.7747436309310851,6.280000005341626,-6.28000003127665,-0.30663895382583495,0.024258919257105105,483.5796656261306
1755279939.4308667,-1.3130958240203983,0.22478151156227544,6.280000008694362,6.280000014395048,-0.30307741394304866,0.03718079238831523,483.21124321878716
1755279939.4409688,-0.606207335771431,-3.1400000000664154,-6.2800000027713985,6.280000033162622,-0.29722091607893986,0.37857775275794403,487.7586587147579
1755279939.4512095,0.5673664193526884,-2.107877397062247,-6.280000011164093,-6.280000005560376,-0.2893592486918113,0.45456653062909413,489.8741425677319
1755279939.4610813,0.18780404913377505,1.433476681883251,5.163669057594064,-6.280000034426138,-0.27975676299319385,0.15308066337357384,489.1459784820193
1755279939.4716368,-1.0662162485872582,1.3784841233500664,6.280000010146967,0.2064804025848409,-0.2686547443374281,-0.1222805278080404,474.92066743819635
1755279939.4815102,-0.8864579410756833,-1.8796246444942781,-2.2532487791541453,6.2800000342318825,-0.2562735371509327,0.1337027301225573,486.34881806956054
1755279939.4913197,0.4950121110580564,-3.140000000108659,-6.280000010772875,6.280000002781126,-0.2428144553836833,0.6879163354261483,480.4417255809748
1755279939.5014663,0.589203288124877,0.24483459410816322,0.11189815556687083,-6.280000032343686,-0.228461497086891,0.26256863897711463,479.1209319691568
1755279939.5115123,-0.6898518869473437,2.2267375347108924,6.280000008775619,-6.280000014638322,-0.2133830208197487,-0.1653145195599139,474.1016859257593
1755279939.521521,-1.0078010869155996,-0.5168896551998075,3.1884898284371577,6.280000029003737,-0.1977328475630229,0.09022756875143992,475.667333399202
1755279939.5315373,0.19357088081267376,-3.1400000009323,-6.280000008611101,6.280000025873761,-0.18165191556344684,0.601563172982606,483.47585827011676
1755279939.5416787,0.8595551125001732,-0.31083843422388835,-6.280000001992005,-6.280000024903931,-0.16526902518216824,0.2519449833595201,477.40614650203014
1755279939.5519753,-0.13259504219465235,3.108300450365932,6.280000006678044,-6.280000029177582,-0.14870214833828066,-0.24759466614019018,482.3687824886249
1755279939.5618448,-0.9518906565803075,0.6073868254181954,6.2800000051984535,6.280000019067387,-0.13205919269272104,0.027604808565662938,483.44979182178116
1755279939.5719712,-0.11603671288553905,-3.1400000002901467,-6.280000004322437,6.280000032476018,-0.115438876610084,0.599941196434317,488.29055386618745
1755279939.5823312,0.8826434855773805,-1.318275292298463,-6.280000010900711,-6.280000010750584,-0.09893146177671586,0.3858470315679261,488.77377041639073
1755279939.592202,0.3113534162952829,2.944732761665722,6.679923383464513,-6.2800000346883635,-0.08261942061511407,-0.1373285536856225,494.7245364626498
1755279939.6023023,-0.8360044324937741,1.702061095875715,6.280000010295746,0.36325403594752936,-0.06657804117557331,-0.21915626915646727,476.52558041609194
1755279939.6125495,-0.5114201438681072,-2.0285140755801763,-3.5596470093970747,6.280000034274856,-0.05087597018950374,0.2345113502665384,486.1752799943398
1755279939.6222496,0.7436539607761421,-2.2997164484993697,-6.280000011124587,0.3579092797610075,-0.035575688131354255,0.47770827380082953,484.1255576938911
1755279939.6326416,0.7257870335787939,1.6621645335627613,0.8356299273393273,-6.280000034159414,-0.020733962595701705,-0.09026015451227695,488.00552885118094
1755279939.6424615,-0.5177536045046852,2.554063016636094,6.280000009162636,-6.280000011708465,-0.006402242387038154,-0.35379078483544063,473.60091352411644
1755279939.6523674,-0.8062648473554895,-0.3750486623833119,0.40174182534248387,6.280000030272436,0.007373023517443622,-0.12078379311041185,473.73641396703624
1755279939.6621788,0.4738654367153615,-3.1400000000070536,-6.280000009297355,6.2800000180982956,0.02054994348144268,0.5802953245488419,482.9788159636415
1755279939.672478,0.8862324846234476,0.08289109754713064,-5.0561694896280525,-6.2800000269071035,0.033091153107872806,0.027416039433500045,475.7587908269105
1755279939.6825862,-0.187126994033596,3.1400000007850446,6.280000007479992,-6.280000027396806,0.044963181595167656,-0.4301894618765882,477.2579173071062
1755279939.6929238,-0.9041132519797478,0.6571301564394707,6.280000002188561,6.280000022710148,0.05613662085121973,-0.15803189478671664,477.6615358017141
1755279939.7029452,0.026791954041442412,-2.5416135425197215,-6.280000006210932,6.280000029906905,0.06658561541866148,0.2889328011078505,481.6058836810364
1755279939.7132812,0.9096814271666548,-0.417383029140184,-6.280000005203773,-6.280000019097521,0.07628780416892944,0.006415186611786708,481.2838050703061
1755279939.7234166,0.050543005708736655,3.140000000347535,6.280000004945428,-6.280000031932019,0.08522412623430031,-0.3408460536181142,482.53387554016075
1755279939.7334769,-0.9308304575246981,0.6965377205821053,6.280000009020254,6.280000012187827,0.09337867362618746,-0.17167514583405025,484.0783870574485
1755279939.7431986,-0.302148627946612,-3.0835617957159056,-6.2800000021471964,6.280000033698492,0.10073854543349248,0.1980643375039345,489.6367534721216
1755279939.7534,0.8449750931263899,-2.13773360949182,-6.280000011310669,-6.280000002228128,0.1072937296193599,0.15608040759198674,491.64420567037
1755279939.7639217,0.5488593293626804,1.4839803421235414,4.087870166137982,-6.280000034781892,0.11303699114695265,-0.20666450566337824,489.588356769201
1755279939.7737792,-0.7020616591811275,1.9018553156646925,6.280000010168456,0.3807866542682836,0.11796376458314939,-0.49337080919474574,477.0216451586483
1755279939.78421,-0.627571768653542,-1.629506808559849,-0.9966879953534296,6.280000033752678,0.12207209785697665,-0.13541181166482688,480.0799865552701
1755279939.794175,0.7056882588821602,-2.4045278310800002,-6.280000010324413,6.2800000057695815,0.12536244551492448,0.2843640318488354,476.5266422577044
1755279939.8044438,0.936863325282171,0.6525719265024494,-0.06624710847509696,-6.280000031294733,0.12783786675249065,-0.027035003124833187,478.01202582866483
1755279939.8145435,-0.34686189205368634,3.1400000002273547,6.280000008515656,-6.280000016470803,0.12950357353028596,-0.5731758868489256,475.22984403013936
1755279939.8242402,-0.741527738241403,0.17056509201358605,4.324581891637073,6.280000027628692,0.1303673011900146,-0.20933217725191808,476.7408986241808
1755279939.8345072,0.32025977042865517,-2.477636118791457,-6.280000007935571,6.280000028181696,0.13043882644324878,0.26573801519378343,488.3462967875158
1755279939.8442533,1.0486225403199576,-0.19189924181376783,-6.280000003441627,-6.2800000222009835,0.12973031024894865,-0.060057182511535356,482.2159533888419
1755279939.854647,0.1711395197972113,3.140000000429528,6.28000000547113,-6.2800000315005775,0.12825596707968945,-0.4076063801768922,484.67218080423135
1755279939.86463,-0.8256441144627124,1.4123214039501513,6.2800000086728165,6.28000001389224,0.1260321669171378,-0.32585115484310856,483.86582752195295
1755279939.874618,-0.20168454490520887,-2.0057363177194114,-6.280000002502925,6.280000033562509,0.12307736150899473,0.06265766484783003,488.4129376148572
1755279939.8847592,0.9513731867438651,-1.3039788744060754,-6.280000011295101,-6.280000003575787,0.11941206163783402,0.16561747650392378,491.57464790686265
1755279939.8950672,0.6001004574477817,2.2867998344034874,4.5478911633661045,-6.2800000348022635,0.11505880451345307,-0.18640543881364252,489.9295631625433
1755279939.905033,-0.6830669346950378,2.439543796749495,6.280000010209134,0.3012660658604611,0.11004212566330185,-0.46423404818165004,477.2786312138408
1755279939.9153156,-0.6118682562223019,-0.5663246404833485,-1.1228902555738682,6.280000033653884,0.1043885671253653,-0.18047206280242722,479.17772966366005
1755279939.9252717,0.6997440387440763,-2.2084621006183713,-6.280000010377243,6.280000005314872,0.0981265323484215,0.3430027079359238,476.46714198695616
1755279939.9353025,0.9152926318995425,0.8858154555032247,-0.3074718233240971,-6.280000031963791,0.09128651261218357,-0.020444666575564763,483.2609414938917
1755279939.9452958,-0.28651105073779826,2.442987842474263,6.280000008600306,-6.280000017891066,0.0839008146271476,-0.37837140013930787,481.2598912419321
1755279939.9553146,-0.8472702430758423,-0.26753657091850314,4.817818983777324,6.280000026846082,0.07600368667175639,-0.16536108431971344,475.068664835332
1755279939.965587,0.2196031976895092,-3.1400000007793314,-6.280000007756968,6.2800000284443875,0.06763127206060737,0.33883032458144574,486.69972870230725
1755279939.975294,0.9977429800537483,-0.32863713546718104,-6.2800000035694765,-6.280000022018914,0.058821592325708494,-0.05303986502959135,481.44372220547655
1755279939.9853232,0.10790506675982756,3.1400000004316455,6.280000005476353,-6.280000031434437,0.04961453628743584,-0.42551623153280455,484.3571160230324
1755279939.995355,-0.8745751994949078,1.2849135549597959,6.280000008421046,6.280000014320624,0.04005186204789413,-0.2557288896625679,483.13980015664026
1755279940.0052779,-0.2511352847394352,-2.034779970622356,-6.2800000026899205,6.280000033358135,0.030177174823379005,0.15869623429722096,487.61122173837526
1755279940.0152826,0.8946386855972401,-1.3769758142999002,-6.280000011212868,-6.280000004857271,0.020035927257777253,0.2754828870153293,490.27210302559416
1755279940.0254135,0.5052087990705962,2.3018552349099406,5.136331082767127,-6.28000003462077,0.009675408319580914,-0.10307280231460553,489.61726471100167
1755279940.0357244,-0.7215602796703444,1.6781328216042302,6.280000010257277,0.2706121939782782,-0.0008552626614223846,-0.2641917276897714,477.16010965489534
1755279940.0459042,-0.6405550869728358,-1.7619050763373827,-1.6194152126821288,6.280000034174648,-0.01150512331423234,0.06560861397352513,480.5674423443965
1755279940.056008,0.680277871705456,-3.113593350698533,-6.280000010543308,6.280000002969974,-0.02222147877979852,0.537794313318625,475.4439250898409
1755279940.0661135,0.7800800709277247,0.4437198005218913,-0.43073802982316156,-6.280000032512383,-0.03294967533163806,0.009848951225979863,480.85361921605187
1755279940.0763407,-0.48373432639225117,2.43616187988472,6.280000008872945,-6.280000014648751,-0.04363335471198582,-0.38004094311004466,475.6924998468519
1755279940.0863438,-0.818655150019488,-0.3053280412301078,3.4037659592055864,6.280000028891809,-0.05421429280484552,-0.06693586683868549,478.90405213221305
1755279940.096266,0.2736423239334733,-3.140000000038432,-6.280000008271727,6.280000025917886,-0.0646325643801875,0.5817092012785382,482.13059844936646
1755279940.1062617,0.9194906093704194,-0.33464125976251513,-6.280000002685079,-6.2800000251073875,-0.07482629541703645,0.08637778601689333,483.5024753575825
1755279940.1164584,-0.07590417205027572,3.0471249685166666,6.2800000063049595,-6.28000003073635,-0.0847319185042108,-0.38310241111268495,486.96824971976235
1755279940.1263423,-0.9264769527582031,0.5921125290985202,6.280000005886023,6.280000018010545,-0.09428403766721172,-0.06238012281610137,478.025299722189
1755279940.1369395,-0.12009288934745108,-3.1400000002820976,-6.2800000042464,6.280000032862468,-0.10341547052864786,0.5321252143858344,490.4520944816319
1755279940.147021,0.842431323017517,-1.4086224353395354,-6.2800000107121985,-6.280000010075503,-0.11205724157246433,0.3883043139925888,483.4817115207882
1755279940.1571693,0.2579447653867374,2.9631187274950967,6.28000000221007,-6.280000033946102,-0.12013858714941783,-0.1982712390399617,489.2936790069564
1755279940.1672177,-0.8775881269843149,1.7388849733382263,6.280000010475343,0.302923501917975,-0.12758695622784844,-0.20480082361195817,480.52240282553237
1755279940.1773882,-0.6013963124249387,-2.019363370568276,-3.3816572948923653,6.280000034409085,-0.1343280156475396,0.32712131915176906,486.9958936723727
1755279940.1874418,0.609726841573598,-2.336040953875027,-6.280000010882418,0.30150187393382755,-0.14028563949444184,0.5769886214134181,478.6907923821654
1755279940.1975167,0.5620170330799621,1.6978767576659757,1.520703155254558,-6.280000033870763,-0.14538192439170938,-0.006479402510315424,484.43540441194784
1755279940.207407,-0.7089952496606317,2.4759629612110543,6.280000009395875,-6.280000010428765,-0.14953718910415087,-0.2928407051258086,476.9674199097501
1755279940.2175598,-0.9608099228267792,-0.5608423997354578,0.8191527037880708,6.280000030498854,-0.15266993883524116,0.05934948526625505,476.9069324701385
1755279940.2274735,0.2905490723898124,-3.1400000001078796,-6.280000009032922,6.280000018329851,-0.15469700011938992,0.7229611897450103,479.17995938372786
1755279940.237457,0.7261869999863735,0.010612730134681114,-4.740725768246575,-6.280000027760817,-0.15553326938991852,0.17458242487518025,482.4116431161299
1755279940.2476888,-0.30072931742855114,3.1400000000746378,6.280000007235438,-6.280000029262823,-0.1550919733190772,-0.3535713218021096,486.95596356069547
1755279940.2578232,-1.0656622697675577,0.46266447405891475,6.280000003258065,6.280000020491691,-0.15328452283570415,-0.002038890317340579,479.6758920944068
1755279940.2680845,-0.2069881629180142,-3.140000000352152,-6.280000005100781,6.280000031668209,-0.1500205572358091,0.612256111185422,486.90941509994536
1755279940.2782035,0.77487568847727,-1.1481859334048286,-6.280000009672198,-6.2800000131265605,-0.14520793957190836,0.33383713431791817,481.25967988930665
1755279940.2883985,0.05558796198943139,3.1400000000262454,6.2800000032356245,-6.280000033477975,-0.13880001571683342,-0.2848177554007788,487.5008323997232
1755279940.2984662,-0.9926867267913881,1.5534087199277387,6.280000010391673,6.280000003421633,-0.13093681470551988,-0.2051285035757372,488.1280990872346
1755279940.3083003,-0.6195206126622015,-2.178749631758686,-5.795963898502451,6.28000003483475,-0.12179174201754539,0.26360659527328106,491.88214509631985
1755279940.3183787,0.6290364138653197,-2.2231491930479783,-6.280000011033438,0.41021703970548273,-0.1115219735536539,0.5004498465268991,480.1179816550558
1755279940.3287416,0.5515307378408627,1.7663840221175202,1.763361221515339,-6.280000034373103,-0.10027005718622206,-0.04562057284809071,487.5780723016569
1755279940.3382475,-0.7089691785148234,2.367291641376866,6.280000009568063,-6.280000004958797,-0.08816535289682503,-0.3340547314252224,472.8414808283609
1755279940.3483465,-0.9056562720762809,-0.6939748157296936,0.05283165120241273,6.280000031205823,-0.07532528645315445,-0.02527163589234388,474.42824066053856
1755279940.3584986,0.37357158835194404,-3.112463339548062,-6.280000009620402,6.280000016413439,-0.06185664107049993,0.6217208735100884,482.6364145968775
1755279940.368752,0.7261984793516774,0.1791005694155795,-3.756700160127566,-6.280000028346379,-0.04785633364211073,0.08632489577851188,476.52160794165275
1755279940.3786085,-0.385599401743105,3.1400000001234463,6.28000000775044,-6.280000025770246,-0.03341273963618141,-0.45849051940581664,476.83522091780776
1755279940.3886883,-1.0322038477961186,0.26132435974177337,6.280000001566826,6.2800000243843535,-0.01860613538615119,-0.09817228548703354,476.83917088546934
1755279940.399443,-0.020403300202715857,-3.1400000000001667,-6.280000006857926,6.280000028885777,-0.003509764443013319,0.5059982911066132,482.6883058923802
1755279940.4092598,0.8390147398575596,-0.6628707660918236,-6.2800000044927575,-6.280000020446362,0.011809606102592518,0.1099904086541676,484.9774543969264
1755279940.419341,0.03043191387562208,2.128965834884529,6.280000004761287,-6.280000032850971,0.027291056539258562,-0.1416832185805156,488.53851402334504
1755279940.429416,-0.9119733016852744,0.5721581153615619,6.2800000090531665,6.280000012089614,0.042878943995730334,-0.253647192143065,480.22486705184275
1755279940.4392855,-0.31635084896565124,-3.095438494381538,-6.280000002082021,6.280000034180638,0.05852240632006478,0.13625325698501534,492.99281062576813
1755279940.4494042,0.8447723638226959,-2.3803980278770482,-6.280000011109639,-1.933931998667945,0.07417491537351228,0.24151330114178282,480.35885753972815
1755279940.4594085,0.5402160647034722,1.4080593400643595,4.43805900800736,-6.28000003399638,0.0897938692188327,-0.1633212136169033,484.7714188221217
1755279940.4694982,-0.723586826558441,1.8071888553655155,6.280000010301965,0.17546495586390032,0.10534022331910184,-0.47588258267226213,479.71383606662437
1755279940.4798083,-0.6195913123901513,-1.5818063972626453,-0.6921454699583727,6.2800000339267825,0.12077819315605423,-0.11026062784695745,481.9717375763615
1755279940.489861,0.7473664849043441,-2.3758942102574343,-6.280000010469806,6.280000005929169,0.13607483442782575,0.2981561526650612,479.78338901749544
1755279940.5000434,0.9781126029289917,0.4890532170276126,-0.9912517881642084,-6.280000031198227,0.15120004930336473,-0.013220769999281082,480.6406087888286
1755279940.5100555,-0.2700701063175086,3.069053995184863,6.280000008309251,-6.280000018873441,0.16612595954835252,-0.6427581989453155,481.85841799794736
1755279940.5202293,-0.7254574032652891,-0.09100281835549923,5.460101014265858,6.280000026007105,0.18082709613065667,-0.18839668669902532,475.83990586505
1755279940.5303845,0.35300877421722227,-3.140000000009481,-6.280000007299821,6.280000027981412,0.19527990626620162,0.44389301389843394,483.32218751852315
1755279940.5407376,1.154022286863784,-0.3039150590488424,-6.280000003710189,-6.280000022210704,0.20946270712926207,-0.03825725246084043,485.92737911535687
1755279940.5504746,0.2848283167105451,3.140000000373079,6.280000005124245,-6.280000031425512,0.22335550804413806,-0.5227408785223159,483.62927473995376
1755279940.5604672,-0.6841734669818254,1.0320742935554634,6.280000009081821,6.280000013130529,0.23693987182432757,-0.3419055215474956,476.8516761356521
1755279940.5706997,-0.015288798270843007,-2.075320003834885,-6.280000002527757,6.2800000336916,0.2501987804916488,0.05223469209262199,489.58818004109196
1755279940.5808973,1.131693414340047,-1.3431495806661464,-6.280000011363642,-6.280000003949105,0.26311652827597376,0.1697904977001109,492.46976239196687
1755279940.5909884,0.7731630750261262,2.247750635757815,4.423207435512318,-6.280000034870106,0.2756786120147634,-0.22251381169412082,490.48498044027076
1755279940.6012154,-0.5044548754307095,2.466498228426527,6.280000010227042,0.11634548972251668,0.2878716389037258,-0.5353378091763206,477.61997165163973
1755279940.6112423,-0.41756414790868757,-0.4820423698002505,-0.8426355329748989,6.280000033562011,0.29968327267527695,-0.22722206346761245,479.2003502605834
1755279940.6220193,0.9059605236757347,-2.247454091411594,-6.280000010289182,6.280000005722381,0.31110203395076486,0.34102138439438046,475.776174568961
1755279940.6313214,1.1496861347037615,0.8456840836048093,-0.4793797738441155,-6.28000003168993,0.3221174779480527,-0.05960311098777607,482.19225451678994
1755279940.641385,-0.10622516035351229,3.1400000004322073,6.280000008535089,-6.2800000174983595,0.33271987839440276,-0.5834543853583984,478.8336204531422
1755279940.651421,-0.5444276013935913,0.3985401767044371,5.325989673475072,6.280000027023501,0.3429003137435699,-0.2245971536191082,479.1004321835435
1755279940.661567,0.480853877526756,-2.4739937268780654,-6.28000000736677,6.2800000281119,0.3526505829908928,0.3129133753750197,482.78151016584366
1755279940.671627,1.3001245694026953,-0.15951763511651884,-6.2800000039372925,-6.280000022394866,0.3619631596262032,-0.05615901357903601,484.430957077199
1755279940.681527,0.44214800390778075,3.1400000004036834,6.280000005255156,-6.280000031782944,0.3708311521342047,-0.4558180271614859,486.5406359860133
1755279940.691917,-0.5471944634032664,1.353001131477984,6.280000008207238,6.280000014445733,0.37924827538534783,-0.3432360723923484,478.3127663359062
1755279940.7014213,0.1686315649090656,-1.9824962986220824,-6.280000002836715,6.280000033545939,0.38720880971643545,0.10283610454023764,489.64768751157675
1755279940.7115932,1.2834285040924385,-1.223266470640028,-6.280000011324487,-6.280000004805917,0.3947075788896943,0.16414561379393228,492.1142841879211
1755279940.7217655,0.9089320213094269,2.2792480248068907,4.681503249018697,-6.280000034816169,0.4017399179124981,-0.21970358408661775,490.47740379764645
1755279940.73206,-0.3658260771307585,2.403431990816558,6.280000010230628,0.10337333849533437,0.408301649609411,-0.5218514200752351,477.10599926180817
1755279940.742193,-0.2602374436533031,-0.5719039901013128,-1.1259484896647503,6.280000033683038,0.4143890933974735,-0.1720629444359662,478.69272012177527
1755279940.7522542,1.056205655610946,-2.127973352611116,-6.280000010406422,6.280000004568327,0.41999892130429206,0.34091985311907946,475.29058872022506
1755279940.762175,1.2581931667782364,0.9269054096743911,-0.7588489847026159,-6.2800000320685925,0.4251283862241402,-0.08578980531027292,481.58192987716404
1755279940.7722833,0.04447237349679942,2.4573751852471486,6.280000008661321,-6.280000016838596,0.4297750507678648,-0.44710779407770296,479.1198401389959
1755279940.782756,-0.4237749009861964,-0.196628184219527,4.224793709437962,6.280000027455021,0.4339369408253474,-0.22154990786947742,473.012271767353
1755279940.7923455,0.7172003256084658,-2.4960856143289094,-6.2800000081225775,6.2800000267655705,0.43761237024204735,0.2775699287792617,483.9308517374124
1755279940.8022516,1.416920413715362,-0.12836383874554835,-6.280000003494565,-6.280000023782225,0.44080018267094756,-0.08783192659879228,477.7059705378087
1755279940.812215,0.49010812067757975,3.140000000565892,6.280000006138835,-6.280000031159052,0.4434994851756888,-0.521982286684109,488.27324381216556
1755279940.8224447,-0.3881694013061152,0.855325292036314,6.280000006441777,6.280000017403854,0.44570977751662233,-0.25815303949398977,479.2969268221621
1755279940.8323483,0.3515350346067323,-2.31519835143098,-6.280000003637578,6.280000033273595,0.4474309078342369,0.23620485053358914,490.5454280531267
1755279940.8424425,1.3661071201181547,-1.217331435744051,-6.280000010898714,-6.280000007807708,0.4486630710545887,0.1845722688726852,484.93601750142005
1755279940.8525088,0.8724428635399077,2.960754188058208,6.440901332952678,-6.280000033850648,0.4494067974625222,-0.33957025672322066,488.64023610670455
1755279940.8627403,-0.2763560166676995,1.8249760545361386,6.2800000103735005,0.09164156140207558,0.4496629504175431,-0.37782001978658786,478.10368562179195
1755279940.873235,0.007101975160456908,-2.0332694239310736,-3.034500034741021,6.280000034215938,0.4494327172132281,0.21119315782824855,485.25015190173275
1755279940.8831365,1.2335739863469635,-2.170893866763236,-6.2800000110679886,0.027925146379501165,0.4487176144760383,0.4180489114529862,483.91147455897897
1755279940.8934605,1.2130692063349262,1.611165060577919,0.48310794107364163,-6.280000033604082,0.4475194962255036,-0.19575039266062721,479.63670091005747
1755279940.9032915,-0.05222397309132501,3.029227474492932,6.280000009087854,-6.280000012372957,0.44584041988032463,-0.5964142375202317,474.67855117101135
1755279940.9136076,-0.3481085772050631,-0.21882672651660073,2.223361215234556,6.280000030040579,0.4436829463773494,-0.13651953061028033,479.25127249602707
1755279940.9235334,0.8248521033402377,-3.124099745621348,-6.28000000871972,6.2800000197764945,0.4410497338681765,0.5733727119858321,482.3569505209982
1755279940.9337683,1.4064034825370313,-0.1611546183341498,-6.280000001711163,-6.280000026062488,0.4379439202679838,-0.00739206843516263,482.30237829947566
1755279940.943811,0.393274095841727,3.1400000005711375,6.280000006611139,-6.28000003051929,0.43436883811369154,-0.4918931405613716,486.1551524629499
1755279940.9540672,-0.4437306202012413,0.7480289442376917,6.280000005100125,6.280000018706339,0.4303281545815245,-0.18884123078255835,477.97586132979484
1755279940.9640608,0.38007112615933203,-3.140000000278455,-6.2800000044697395,6.280000033144994,0.4258258292965993,0.49275545596793746,492.8337919162399
1755279940.9745023,1.3019616395460678,-1.2898593705247974,-6.280000010797048,-6.280000009392645,0.42086611640523763,0.20125474810245625,485.4995472879953
1755279940.984389,0.7609576556014438,2.9819331301081315,6.280000002036832,-6.280000034018165,0.41545356320207527,-0.3574416794932015,489.10102479442673
1755279940.9943283,-0.3827560921316736,1.7730814859852497,6.280000010148193,0.9337626462335331,0.4095930083286319,-0.3584008274653492,473.7779125731239
1755279941.0046394,-0.09661678513450969,-2.121073034413726,-4.001460670811637,6.280000034787236,0.40328957895432316,0.23491222199628053,489.80563835592596
1755279941.0146272,1.1528120464403802,-2.1314411424831397,-6.280000010917725,0.47614906111117294,0.3965486996423486,0.3894244159135331,477.9835540483835
1755279941.0244558,1.0442522476673453,1.8227063883246197,1.899978139150939,-6.280000033865321,0.3893760753141944,-0.16463349520183762,483.5571696027098
1755279941.034571,-0.2697223144331552,3.1235483422235806,6.280000009679856,-6.280000006210415,0.38177769412813956,-0.5878484188226383,477.72925558591714
1755279941.0450368,-0.48131059172585433,-0.3834931087681148,-0.7369908555977687,6.2800000310099335,0.37375986511013104,-0.15622407849558717,478.18989879825386
1755279941.0548954,0.8031165849540254,-3.039858673835234,-6.28000000913143,6.280000017891776,0.3653290798029363,0.5778514612089213,478.33818627835683
1755279941.0649557,1.2224286122635373,0.1400897227078427,-4.27236255913733,-6.28000002802526,0.3564922634489709,0.022459058225167694,480.86899327659205
1755279941.0751595,0.1542036125968173,3.1400000006544397,6.2800000073820765,-6.2800000285765485,0.34725651799767854,-0.4598365279063701,483.1854053346681
1755279941.085176,-0.6283760332027545,0.5943505903085868,6.280000001543044,6.2800000214553755,0.3376292636482634,-0.12699544891024453,476.7211483877683
1755279941.0954132,0.27396619570752706,-2.481288074315697,-6.280000005795498,6.280000030360842,0.3276182033314532,0.3534674981438485,481.5720481569481
1755279941.1054406,1.23590087458127,-0.6659768462480637,-6.280000006660016,-6.280000017364831,0.3172313175212027,0.12175071967679185,483.35675488087867
1755279941.11531,0.3799919726645833,3.1400000002150894,6.280000004302534,-6.280000032832881,0.3064768675201648,-0.36230802535613954,485.5773813133893
1755279941.1255686,-0.6916061392169892,1.4772576797564396,6.280000009355211,6.2800000107167255,0.29536339992764893,-0.2465247161738659,483.95742757782665
1755279941.1355119,-0.1912621053832452,-1.9395187673869443,-6.280000001623635,6.28000003390229,0.2838997399387515,0.16219422110638626,488.63969276469385
1755279941.1453567,1.002336125077865,-1.6713801854058996,-6.280000010974597,-1.2676997890504103,0.2720949976080336,0.3560219648400138,477.23847710656685
1755279941.1553895,0.677312857346818,2.1896808678715773,4.354798104354229,-6.280000034997144,0.25995856044151133,-0.07062361566846864,490.76342425734236
1755279941.1654985,-0.575225067060006,1.5103706752780268,6.28000001022056,0.3492299624520516,0.24750009303282627,-0.218533909048893,479.1172986136442
1755279941.1756272,-0.5626815652683297,-1.7917279345720263,-1.557629755376729,6.280000033566822,0.23472954326532325,0.0513934161469328,482.84178682635206
1755279941.1856673,0.781218021658054,-3.140000000440003,-6.280000010564079,6.280000004709111,0.22165714578426599,0.42281108305821347,478.7865533023877
1755279941.1957862,0.9785585003170503,-0.19413817372576558,-0.5393827975554599,-6.280000031492047,0.20829343114749266,0.07900752588670687,477.1792516105
1755279941.2057073,-0.3055047105490175,2.069586864373046,6.280000008579542,-6.280000015588881,0.1946491027803492,-0.35651217483141806,473.2476179026042
1755279941.215889,-0.6924571179610342,-0.5097332128886325,3.7565924104151147,6.280000028304297,0.18073533508778233,-0.05004279735147111,474.2359743544855
1755279941.2261543,0.45060781722736565,-3.1400000007866944,-6.280000008392409,6.280000026369606,0.1665633733743137,0.46010990221778797,483.523509899573
1755279941.2361398,1.115107622965554,-0.4363354123750384,-6.280000002827377,-6.280000025263913,0.15214491950819387,0.0210091987720558,484.10773637074146
1755279941.2461607,0.15644330592831204,2.4393357342709816,6.280000006194406,-6.280000030766626,0.13749184569203238,-0.23905300515228606,485.20573676296493
1755279941.256297,-0.7506462818071856,0.5328809768842288,6.280000005938253,6.280000018095773,0.12261633774261066,-0.0620001888172417,476.9063288424854
1755279941.2662635,0.06409457532115997,-3.1400000002892616,-6.280000004400117,6.280000032860414,0.10753085789229866,0.4376221158068507,490.8359076111031
1755279941.276637,1.0748669758172507,-1.3657803685184615,-6.280000010693913,-6.280000010257647,0.09224814702915296,0.36480322817811595,484.12784680446214
1755279941.2864256,0.4779185382093032,2.945173744227945,6.280000002215626,-6.2800000340669655,0.07678122301379542,-0.1971230659822712,489.9194659647804
1755279941.2967064,-0.697807327562657,1.6556410895879876,6.280000010164386,1.6019238174693182,0.06114338260023333,-0.20151892395738932,475.31681534805995
1755279941.3068082,-0.42121718082642795,-2.124165472073954,-4.062148636694726,6.280000034953204,0.0453481998828118,0.3405460381712923,491.17281628967453
1755279941.3169162,0.8286780188793536,-2.2161873913744388,-6.280000010970932,0.43321569758731693,0.029409535139182985,0.5300831459334219,479.87281530858905
1755279941.3271482,0.7329156189466647,1.7393146443278789,1.5480004010134234,-6.280000034123034,0.013341519166874871,-0.026102460639540775,486.2017646812587
1755279941.3371964,-0.5987059179571734,2.4516802059556535,6.280000009508015,-6.280000005062736,-0.0028414394060143344,-0.3076257663737128,471.7148451858985
1755279941.347242,-0.859577975794998,-0.5782884240984638,-0.4242674108475468,6.280000031198377,-0.01912462866839182,-0.005230694102485112,473.6842682143203
1755279941.3572392,0.4110881238713226,-2.5040506653176196,-6.280000009686573,6.280000015921237,-0.0354931492356072,0.5296093784835746,479.9032579385663
1755279941.3676107,0.741867926876732,0.29494576207268186,-2.9032222364460574,-6.280000028932953,-0.0519316534251959,0.14442154471860638,475.4082434685669
1755279941.3774436,-0.4297265960245858,3.140000000257099,6.280000008098233,-6.280000021299205,-0.06842472856924772,-0.3896527023667417,483.71023764306483
1755279941.3875508,-1.1089730641811808,0.24729386884639432,6.280000001053544,6.280000024463462,-0.08495648793145053,-0.009165561242406528,475.74873139331646
1755279941.3976493,-0.12256170632416913,-2.621705018936139,-6.28000000680564,6.280000029132157,-0.10151087506614687,0.4851297970807339,482.00521504317686
1755279941.4074962,0.7271224413437689,-0.7200227786881008,-6.280000006227224,-6.280000019065117,-0.11807153175228136,0.25193950550936084,484.2427384744713
1755279941.4177792,-0.1435146483633431,3.140000000287464,6.280000004501854,-6.280000032874447,-0.13462182376809295,-0.3205045063462257,488.1367943671806
1755279941.4277842,-1.139954145558625,1.0855274343136254,6.2800000094432065,6.280000011389889,-0.1511448341057925,-0.15051931799393545,486.00278524020524
1755279941.438442,-0.5917540145000583,-2.5368142075625224,-6.280000001385418,6.28000003432836,-0.16762337015907014,0.3728324813283892,491.15236878645317
1755279941.4483423,0.568119568231847,-1.869518063824957,-6.2800000110871395,-0.3023887165427235,-0.18403995772484505,0.4757692873990792,477.7222827453142
1755279941.4582908,0.22574346901496528,1.2494365329144437,3.782344368406835,-6.280000034217885,-0.20037684780820042,0.03897573193869854,485.610570057655
1755279941.4683335,-0.9987867750276498,1.5515870128950073,6.280000010282889,0.0655010535703826,-0.21661601554830345,-0.33747634966312323,481.3417085607309
1755279941.4784358,-0.9849989914655095,-1.7479665801862672,-1.1508920683613493,6.280000033496826,-0.2327391546672266,0.012769059075065148,483.19109610917775
1755279941.4883208,0.3267446225054296,-3.1400000006166193,-6.28000001048277,6.280000005656907,-0.24872767575750698,0.48464185950811217,479.55351475637815
1755279941.4985242,0.532676662088353,-0.29384327385480813,-0.6920589378603601,-6.280000031236035,-0.26456269334528004,0.16630554631183142,477.85876099075585
1755279941.5083725,-0.7361977225963328,2.038137620495217,6.280000008442196,-6.280000016460667,-0.28022515059785985,-0.3310490924132721,474.58828232480107
1755279941.5185997,-1.1405272422373434,-0.5645547781675692,4.552148090513965,6.280000027812186,-0.29569552153053824,-0.003727267642549231,475.2486394218746
1755279941.5287158,-0.04771568146049682,-3.140000000871055,-6.2800000080486384,6.280000027255724,-0.3109542110732284,0.495744389878145,484.91610726939695
1755279941.5388033,0.6211735248693466,-0.6208661902530797,-6.280000003116806,-6.280000023687148,-0.32598116747467154,0.10875081990833013,478.55512010994994
1755279941.548888,-0.3019201505946679,2.343301135453033,6.280000006089065,-6.280000029582286,-0.3407561694999969,-0.18778873033865937,479.63153105644005
1755279941.5592122,-1.1698557530051086,0.49888559654004305,6.2800000059523455,6.2800000189095915,-0.3552586837654988,-0.03710923774966895,478.01105633661393
1755279941.5695019,-0.3402939476957625,-3.140000000307376,-6.280000004358531,6.280000032818542,-0.369467901140514,0.6120032603523257,492.02632435099355
1755279941.5791745,0.6113592857042214,-1.3482922316543027,-6.280000010793724,-6.280000010333438,-0.383362734966858,0.4175157805084274,484.92081585260894
1755279941.58927,0.008089542310198039,2.982430538145737,6.28000000199391,-6.280000034139853,-0.39692182163185996,-0.1848234469319078,491.02773921195353
1755279941.5994174,-1.1606494764577444,1.6460628572248117,6.280000010247038,1.2911678837086482,-0.41012351885509374,-0.20688345528336788,476.12673639893615
1755279941.60931,-0.879715118247376,-2.0938420505694553,-3.7581453727359233,6.280000034981292,-0.4229459081309368,0.3407186209367825,491.08541837208844
1755279941.619452,0.3702293366195546,-2.239583479131919,-6.280000010994399,0.1544052225402721,-0.4353667853969223,0.5528154257384348,480.56047054932105
1755279941.6292615,0.25242826008337127,1.75824479665498,1.333717240987299,-6.280000034111353,-0.4473636761135271,-0.03855730301469687,486.39754355378557
1755279941.639337,-1.066116733361781,2.458426150010238,6.280000009510424,-6.280000004873857,-0.45891383047166073,-0.33049648962077427,471.8650835309204
1755279941.6493556,-1.3072725193416872,-0.5161276803217438,-0.23324739631938396,6.280000031699824,-0.46999418779816804,-0.04082045558781566,481.07212781869157
1755279941.6595335,-0.03526771175966481,-3.1400000000506516,-6.28000000914893,6.2800000176869055,-0.4805815094816772,0.7031663924480593,480.62418282445304
1755279941.669396,0.36053617217424394,0.07614205304487764,-5.034742238082596,-6.280000027125556,-0.4906521064328171,0.12482410699753238,474.9514480867957
1755279941.6796582,-0.7807812713356094,3.140000000120528,6.280000007469498,-6.2800000265156015,-0.500182221891128,-0.40823478781143824,477.5649924871182
1755279941.689707,-1.5066473912386502,0.3938122724913028,6.2800000018487445,6.28000002350916,-0.5091476272106675,-0.05559176419664459,478.16585552269294
1755279941.6998408,-0.5459674844773872,-2.62189341046426,-6.280000006353126,6.280000029645951,-0.5175239250729575,0.4451721580168657,482.0473374714511
1755279941.7103026,0.31832762087238226,-0.6606670057256301,-6.280000006715542,-6.280000018275148,-0.5252864158741182,0.19460261324986242,481.4715529963151
1755279941.7202184,-0.5524962232982534,3.140000000304881,6.280000004531654,-6.2800000324336835,-0.5324101226837485,-0.3500332189634072,485.8008981832778
1755279941.7303488,-1.5363768242721638,1.2290517828830567,6.280000009983908,6.280000010900349,-0.5388697875533985,-0.23222939611774346,483.37993343677556
1755279941.7405171,-0.9347782329288674,-3.0611510928347485,-6.280000001680581,6.280000033943843,-0.5446398767654641,0.46589910358986986,490.67627877521716
1755279941.750545,0.19815309316042942,-2.4225100087043607,-6.280000011407253,-1.2442162461811037,-0.5496945763622585,0.45018277575668314,485.5373872762857
1755279941.7606122,-0.11738167505052988,1.216630402829614,3.5544520114096754,-6.280000034807948,-0.5540077941852042,-0.07527673467602976,489.74241475811317
1755279941.770639,-1.3284972743910624,1.4694867702575163,6.280000010158995,0.010611637035790267,-0.5575531655611382,-0.39423429967572904,477.69621859752885
1755279941.7809646,-1.325044357726534,-1.6390104189752477,-0.6048800755670842,6.280000033568321,-0.5603040175766091,-0.0790983036321786,479.3079524961385
1755279941.7909706,0.00782357111774884,-3.140000000482937,-6.280000010261126,6.280000005617323,-0.5622334977530654,0.4869794955701101,475.442794256641
1755279941.801186,0.23186804722363666,0.047427523189414234,-0.11343932334771778,-6.280000031687223,-0.5633143280819368,0.10306706721299412,481.9847160975219
1755279941.8111534,-1.0177079492915149,2.3542384100195988,6.280000008540322,-6.2800000169324655,-0.5635190580236887,-0.41162283871410627,477.7314964302618
1755279941.8212848,-1.41593196519386,-0.3409754136568125,4.986886634553126,6.280000027592013,-0.5628199264679752,-0.07143610675455417,477.9882226572584
1755279941.8312013,-0.3341859689400205,-3.140000000842581,-6.280000007754128,6.280000027187157,-0.5611888935693976,0.4699910667025774,481.0089712476528
1755279941.8412752,0.42265630586675584,-0.25190211076610725,-6.280000003134144,-6.28000002422511,-0.558597645411782,0.06230146964945214,482.7924845738771
1755279941.851401,-0.5157902876207276,3.1400000004911948,6.2800000059214005,-6.280000030970172,-0.5550175932744905,-0.4274037390893723,486.4199612858008
1755279941.861291,-1.3678665521607758,0.7084663291183207,6.280000006553856,6.280000017541568,-0.5504198635247597,-0.13223760349002608,478.06168323806065
1755279941.871629,-0.5229884799123318,-3.1400000002821518,-6.280000003940277,6.280000032950127,-0.5447753077241118,0.5488640824627146,490.5619914694887
1755279941.8814967,0.4330047912355591,-1.3034685014876812,-6.280000010761492,-6.280000009890971,-0.5380544984935054,0.34017238748002565,483.0892969431445
1755279941.8917089,-0.15052490126081458,3.0823009691135215,6.280000002233025,-6.280000033378926,-0.5302277315388131,-0.25212049702944467,486.4904076935946
1755279941.9015667,-1.3127318546817048,1.8170777034659311,6.280000010368701,2.177170004489237,-0.5212650237402923,-0.2904204936049857,479.84250232214123
1755279941.911828,-0.9499465803308235,-2.176063345598517,-4.208890488724725,6.280000034127916,-0.511136116856293,0.29389299849246925,485.31469326993295
1755279941.9220645,0.2935712739718621,-1.9658221988643896,-6.2800000111997,0.0025767281465383096,-0.499810468137857,0.4482336626766775,481.9148069870945
1755279941.9323287,0.09455453448395829,1.9387919281444765,1.9105529958902179,-6.280000034340581,-0.4872572609911776,-0.11346076517430008,486.5305701610721
1755279941.9423482,-1.1812747191710942,2.4831924852837286,6.280000009671147,-6.280000002089688,-0.47344540483847836,-0.4210450345514485,469.5822209901892
1755279941.952678,-1.2729977746299095,-0.3235150380757207,-0.15531475207682988,6.280000032289038,-0.45834350046658134,-0.12248818047827548,477.1396244045196
1755279941.962381,0.003159714605783237,-2.4280518021805553,-6.280000009866173,6.280000014433984,-0.4419199692335489,0.48891674795555634,480.80211095454774
1755279941.9726844,0.3222960835202964,0.5231793714192257,-2.3826387674333427,-6.280000030245088,-0.42414293751936905,0.07133033726404148,482.72583171957666
1755279941.982402,-0.7712627544754709,3.140000000963295,6.28000000796196,-6.280000020884625,-0.40505382374580434,-0.4530239463579612,481.7439524007212
1755279941.9929993,-1.342354517018478,0.4990279330240179,6.5172299718387965,6.2800000243924465,-0.38488237696600414,-0.10729733912705336,472.61880785047066
1755279942.0027854,-0.28897249359416194,-3.139528108809848,-6.280000007069841,6.280000028622947,-0.3638649004653982,0.5988770136723502,485.8300989365704
1755279942.0130582,0.4985313723693359,-1.1692725102459587,-6.280000005587773,-6.280000020674713,-0.34221118117674365,0.1955173131101577,480.5032357633431
1755279942.023057,-0.2823390351523661,2.0608421188826367,6.280000004992184,-6.280000031184578,-0.3201074047015844,-0.2424685594644598,482.94703949358626
1755279942.0330768,-1.2836094452878464,0.6117019305875999,6.280000009211053,6.280000014144266,-0.29771841980663627,-0.2826062962168894,482.4467928712695
1755279942.0432632,-0.5726044409636084,-3.14000000002258,-6.280000002189919,6.2800000342903175,-0.27518992532951636,0.24845402160266664,494.48310978036864
1755279942.0533888,0.5914059595946166,-1.9804493864041381,-6.280000011165267,-6.280000004576385,-0.2526504072410938,0.2682012279330499,487.7814743254911
1755279942.0634246,0.2481905893045891,1.6695199121507769,4.861846371443222,-6.280000034046964,-0.23021288610128154,-0.11374257372061933,486.2417865764586
1755279942.0733051,-0.9928231071375089,1.8504697195122874,6.280000010371051,-0.13897795097831112,-0.2079764914165985,-0.4277437983225477,479.3066741698979
1755279942.0835173,-0.7549176116771137,-1.8238977964557284,-1.8886041755146663,6.280000034122594,-0.18602787425303782,0.12711710864705866,485.68088156232676
1755279942.0934417,0.5816388196828475,-2.2834928909781933,-6.280000010762752,6.280000003117654,-0.16444247466182205,0.4492747020352636,479.22865699751463
1755279942.103441,0.6970973974075283,0.7625845578959578,-0.24988040763883274,-6.28000003223319,-0.14328565185425468,0.05110689110993462,480.1925924593303
1755279942.1134102,-0.5621654845045087,3.0332369865707225,6.280000008626155,-6.280000016285724,-0.12261384619944227,-0.5681784903239994,478.49022955054005
1755279942.1233885,-0.8858218994185106,-0.2289608354019888,4.883819231416092,6.28000002697927,-0.10247520616419586,-0.06688946323071226,472.32401275956994
1755279942.1338856,0.23573704426726122,-3.140000000020235,-6.28000000799433,6.280000026674628,-0.08291082620626922,0.6015908602920313,484.7908538929255
1755279942.1436152,0.9037071619412665,-0.2339176578640743,-6.280000003533269,-6.280000024132637,-0.06395510941975946,0.06522527227926303,486.3749255941636
1755279942.153811,-0.02347280664115503,2.459799669189525,6.280000005586378,-6.280000030560284,-0.04563672690352316,-0.2583915554738955,481.4216836797119
1755279942.1639302,-0.9450571100695687,0.7550776139111223,6.2800000077801,6.280000016523539,-0.027979092413079887,-0.21185418648772192,480.7674385703217
1755279942.1741316,-0.13910095458364233,-3.1400000001652106,-6.2800000031398175,6.280000033856112,-0.011000943147319364,0.47611185863252853,494.11976557112655
1755279942.1843474,0.9195939082969268,-1.309742009853998,-6.280000011057028,-6.280000007870269,0.005283167010860623,0.26709471981330757,487.0966566151947
1755279942.194233,0.4397591202809178,2.9020564162027114,5.989921717500815,-6.28000003430418,0.020862435489276354,-0.28726618033884543,490.9635544680393
1755279942.2044299,-0.7054829526159969,1.747823093458542,6.280000010245555,-0.127536600686196,0.03572939260946051,-0.3024530796417028,473.4835761614707
1755279942.2144206,-0.377676083615875,-1.9886739051067628,-3.0281176074852914,6.280000034848129,0.04987955129017746,0.28384323602173994,489.7314951620581
1755279942.2244632,0.8296636728478023,-2.315122874784817,-6.280000010928669,-0.12311462236435045,0.06331109200910934,0.5488198859180065,481.27489834510294
1755279942.2344587,0.8346709884515572,1.6759197621705577,0.571242385081641,-6.280000033675712,0.07602455655954587,-0.09482746781356385,484.7389686633732
1755279942.2445347,-0.40466399317790847,3.1239360835754875,6.2800000091267005,-6.280000013771522,0.08802258943022656,-0.5272522541637366,479.62809521482285
1755279942.2546992,-0.6553936589243685,-0.3338106274561826,2.3804444568813854,6.280000029479641,0.099309738291875,-0.03438980791853408,476.3723343881646
1755279942.2648861,0.49571400194975385,-3.140000000290567,-6.280000008740713,6.2800000205470425,0.10989210345209255,0.6711756933872439,486.80212388531095
1755279942.2749946,1.0482853837817698,-0.37303851662496873,-6.280000002902215,-6.280000024643872,0.11977740516172197,0.13060559859366144,480.10864628659505
1755279942.2850745,0.08400051299674527,3.0896570409156494,6.280000006476263,-6.280000029719268,0.12897454826434696,-0.4138470958346726,483.277799400876
1755279942.2951143,-0.7152707537612757,0.6130604289135101,6.280000004925181,6.280000018895468,0.13749361535516014,-0.09544193388779323,477.1127410769931
1755279942.3055632,0.09892605973622626,-3.140000000307527,-6.2800000046210265,6.280000032629289,0.14534568122025648,0.5744565504229023,491.2911242309303
1755279942.3152065,1.070637671513665,-1.4081996280295979,-6.2800000106905784,-6.280000010844301,0.15254269772350781,0.34328565422519963,483.58955510258494
1755279942.325612,0.4846206531425753,3.0467522489213548,6.280000002423636,-6.280000033870444,0.1590973786878611,-0.3130864136976437,488.91058998947824
1755279942.3358402,-0.6309087747337132,1.7713281055903596,6.280000010481141,0.3539555702736292,0.165023098662606,-0.29297105985355,479.9605395044096
1755279942.3454723,-0.31861478929770465,-2.01289082357808,-3.6499913783161926,6.280000034476203,0.17033379730905454,0.27101883788056375,487.5136436962124
1755279942.3556888,0.9133525659112989,-2.4490433061256915,-6.280000011214735,0.40746369267202276,0.17504390973316974,0.5323329870630843,485.47589380803424
1755279942.3657804,0.8823884181043533,1.4165410034295878,0.269372751618302,-6.2800000337226365,0.17916830512198567,-0.08540669495171242,481.0227587339238
1755279942.3757567,-0.31053428432715235,2.4197782394264284,6.2800000091431105,-6.280000012925706,0.1827220875500979,-0.35592045991815663,474.79915190620784
1755279942.3858252,-0.6030429016195762,-0.5395506563528214,1.1228423857093501,6.280000029767912,0.1857208400271984,-0.019063351314522636,474.031710107345
1755279942.396013,0.6024689157807253,-3.140000000285709,-6.2800000091806405,6.280000019427991,0.18818016896190848,0.6381431879885853,484.027746969235
1755279942.405904,1.0762831474129126,-0.3202209607930836,-6.280000000990739,-6.2800000258902315,0.19011606957165927,0.10454447388506871,476.5242140006397
1755279942.416328,0.04907138762667218,3.1400000000265007,6.280000007214704,-6.280000028490647,0.19154446006699888,-0.4450330575792959,480.94934414873705
1755279942.4264262,-0.7457244752795048,0.490908632997014,6.280000001950266,6.280000021210682,0.19248155748053097,-0.06771729932338617,474.12869203869184
1755279942.4364119,0.11865399050017844,-3.1400000004500592,-6.280000005938914,6.280000031338897,0.19294353213771354,0.5789845711279289,488.8032409395102
1755279942.4462817,1.0317119343054375,-1.1053597954241563,-6.28000000835857,-6.280000014889131,0.19294661294306437,0.26471560713223563,481.4867034473944
1755279942.457115,0.2893838236088635,3.1400000001215145,6.280000003879644,-6.280000033015256,0.19250703334394004,-0.356598904734328,484.98693642042224
1755279942.4666831,-0.7334749710036647,1.5273068673752388,6.280000010159965,6.280000006603525,0.19164100817432395,-0.23863011695812475,484.1927760484797
1755279942.476803,-0.28876365571261264,-2.332251848331601,-6.280000000899975,6.280000034030898,0.19036470354988333,0.29379176445975036,488.0527938767779
1755279942.4870572,0.897938640943241,-1.9038164413077288,-6.280000011235662,0.6161719164300914,0.18869422570987737,0.40761189361513694,480.1926116695922
1755279942.4969132,0.5885511167064919,1.9358030521556184,3.8854428181595972,-6.280000034604562,0.18664559559369076,-0.041200428486262264,487.4756325625049
1755279942.5069137,-0.6078761043339509,2.3357694053052995,6.280000010391287,0.5027421668579208,0.1842347264793478,-0.3614985327843754,483.5748378189807
1755279942.5171375,-0.6409491869838628,-0.8036293719025643,-0.33536586375588007,6.280000032683638,0.18147744630204105,0.04201647659816876,476.5453877310752
1755279942.5273848,0.6444198547831035,-3.140000000029549,-6.280000009933731,6.280000012074407,0.17838935528333222,0.7069675066019738,475.850534507521
1755279942.5372672,0.8850759661930265,-0.25208058624300156,-0.873289761671507,-6.280000031034174,0.17498605733049777,0.2150804598328398,482.4942637253758
1755279942.5473635,-0.2529681248730494,2.2918886770029046,6.280000008369496,-6.280000019055269,0.17128289872605496,-0.3691324729088954,480.9613042015092
1755279942.5575383,-0.7702166785838385,-0.5792955809627974,5.2560608294414815,6.280000025782947,0.16729511980873685,-0.03972959271041251,472.85618685689036
1755279942.5671458,0.2220968792953944,-3.140000000770669,-6.28000000759537,6.2800000284437765,0.16303768481248504,0.35507885845391046,484.3924148743319
1755279942.5775282,1.0276947835257353,-1.4214989175824628,-6.280000003585684,-6.280000021778232,0.15852553103173683,0.144562468726714,479.5623342340505
1755279942.5874405,0.1926003227872653,1.928299417333072,6.280000005646099,-6.280000030546116,0.15377329907608406,-0.20601082970059734,480.3385392229386
1755279942.597268,-0.7503112491745092,0.3939895485989081,6.280000007598634,6.280000015924749,0.1487954686787728,-0.11681575774532615,479.845098232173
1755279942.6074147,-0.025337343056002493,-3.1400000001338557,-6.28000000337307,6.280000033452225,0.14360631557844483,0.34818104442294007,491.41937620322904
1755279942.617287,1.019490160885825,-2.0032212870529538,-6.280000011330106,-6.280000006139493,0.13821991055209626,0.35121830833638334,492.75583913680566
1755279942.6274076,0.5815985721642793,1.4410361014047852,5.516912900306513,-6.28000003366148,0.13265011473286847,-0.0076953912625780385,484.31996575848
1755279942.6375394,-0.6301413963056711,1.6045073117899293,6.280000010351214,0.33397053564361046,0.12691057093597896,-0.27935584533603053,477.26984319817944
1755279942.6475492,-0.4296119598226461,-1.7982828452040969,-2.510859893461286,6.2800000345309215,0.12101470487581417,0.09533678462895628,488.2836937612566
1755279942.6576667,0.8424038430165756,-2.465447258048063,-6.280000010683198,6.280000001855788,0.11497572595006567,0.501772544004469,474.05289166246047
1755279942.6678457,0.8966812043339791,0.39458285957531714,0.1120278654132143,-6.280000032904731,0.10880661199653563,0.12419754076763573,482.5456983245421
1755279942.6783187,-0.33453875485117396,2.3976048807804045,6.280000009013878,-6.280000014516029,0.10252010869794503,-0.3244353937633887,476.9009485118437
1755279942.6882672,-0.6560996894167976,-0.41911599589854365,3.08994251260575,6.280000028996916,0.09612873933656785,-0.005689190887760626,479.7273138974488
1755279942.6982532,0.39893276004576866,-3.1400000002642594,-6.280000008287122,6.280000026182346,0.08964479456214924,0.6309182224371094,482.53085425815067
1755279942.7087026,1.025777855453534,-0.42257789405305923,-6.280000002708103,-6.2800000249265295,0.08308032490269568,0.136110428748424,484.9949485193116
1755279942.7186048,0.06219918913801015,2.472030241448217,6.280000006171428,-6.2800000311746444,0.0764471423627271,-0.2009694939112313,486.2911163724193
1755279942.7286825,-0.8115925901204941,0.5512689556489405,6.2800000064130215,6.2800000173136645,0.06975682704212072,-0.06728486187982277,478.3625150089465
1755279942.7390132,-0.03741747709804771,-3.1400000002509127,-6.280000004050704,6.2800000328389345,0.06302071518846897,0.4538085567031907,489.47401326171206
1755279942.74894,0.9654312050694877,-1.4455994154799243,-6.280000010766891,-6.280000009524031,0.05624990278553543,0.3776896548249278,483.0502298305082
1755279942.7591245,0.41270846205596473,3.0240047682149718,6.280000002330932,-6.280000033581743,0.049455242681921696,-0.24633933773052316,487.02327602197295
1755279942.7691007,-0.7335503007954823,1.7678466413348257,6.280000010406063,1.223896061305907,0.04264734407687998,-0.22680561819496603,478.4259646861537
1755279942.7792695,-0.42424376993962654,-2.0434640884357775,-4.167541871850479,6.280000034034181,0.03583656855136086,0.3219609323007827,484.80682252158397
1755279942.7891884,0.8188957749115455,-2.2807431553601316,-6.2800000112295695,0.3505973838891241,0.029033039745637534,0.5728566988080448,482.4017749503624
1755279942.7992203,0.6463521326505812,1.748082220657719,1.6377533834201576,-6.280000034311051,0.02224663011531236,-0.04264351456957474,487.15574004309485
1755279942.80944,-0.6546587026713109,3.1221629907432287,6.280000009568768,-6.280000004423029,0.015486959422821278,-0.5220118263697093,472.45808830244334
1755279942.8195121,-0.8139664624478847,-0.4867517850219196,0.2614793083090525,6.280000031602452,0.008763433699547657,-0.016551804847513646,478.80574564184934
1755279942.8296657,0.43224553393348086,-3.140000000225276,-6.280000009326747,6.280000016730785,0.0020851097567118337,0.7122644004281701,477.8174046731495
1755279942.8396547,0.7607312692397519,0.16735120705139406,-3.0324512213412684,-6.280000028928761,-0.004539054018942945,0.1606079885616381,479.4240236485428
1755279942.849705,-0.3743782047065992,3.140000000902263,6.280000007868475,-6.280000026153811,-0.01110046290883182,-0.43050219094638076,477.2574444498835
1755279942.8598638,-1.0096085708609714,0.43625797711092773,6.280000001762909,6.280000024276916,-0.017590729087423873,-0.05828136632152184,476.436420200607
1755279942.8699884,-0.039208680580702815,-3.1400000006693025,-6.280000006825383,6.280000030170733,-0.024001718691982976,0.6154054026365112,487.6801283500037
1755279942.88028,0.7401715535517135,-0.7635892504463194,-6.280000006092397,-6.280000018789263,-0.030325551757637292,0.21139538374845426,480.0392251061273
1755279942.8903236,-0.0349812084586274,3.1400000002994095,6.280000004621715,-6.280000033124331,-0.0365546007864308,-0.3659290381930075,490.75658621283577
1755279942.9002478,-0.9953138146956539,1.380573333885613,6.280000009918975,6.280000010943085,-0.042681483827967104,-0.25502589069749027,480.5046678198284
1755279942.910276,-0.45022724034733436,-2.4619326528088026,-6.2800000015942885,6.280000034478526,-0.048699076065118696,0.3220922598354033,492.5566668575966
1755279942.9202852,0.6940085957941519,-1.859031571444604,-6.280000011196954,-0.37782052644847663,-0.05460049772016218,0.42660044288376997,478.6059644962476
1755279942.930227,0.36860660819626107,1.356367486288527,3.7500863291815665,-6.280000034207603,-0.060379124563255004,-0.021478649523238035,485.58407489547807
1755279942.940642,-0.8374177244722592,1.8099412638811838,6.280000010356169,0.0731567183512265,-0.06602858637971,-0.4193960215315008,481.3346999367681
1755279942.9504566,-0.7882452800865442,-1.6008160242308949,-1.1475593092676886,6.28000003338596,-0.07154276312775376,-0.039366391869356754,482.7298251216147
1755279942.9604502,0.5154592092504593,-3.1400000007217663,-6.280000010541816,6.280000005651661,-0.07691578150637701,0.4561531572556544,479.0212853333163
1755279942.9704144,0.7158794294182393,-0.18737656146472936,-0.233743446076202,-6.280000031822379,-0.08214202670728454,0.1197670292710083,485.2698286224932
1755279942.9807343,-0.4898158958361599,2.3576051801290285,6.280000008452523,-6.280000018747888,-0.08721613997308175,-0.4962974429446438,482.0016297275926
1755279942.991151,-0.9672188290319722,-0.36413626180888764,5.734686821975027,6.280000026053479,-0.09213298189285452,-0.10294381982405013,474.2061603386193
1755279943.001234,0.05114803940938467,-3.1400000008278512,-6.280000007519109,6.280000028466343,-0.09688776950713329,0.3929374235847667,485.2240611430472
1755279943.0113382,0.8187067385619156,-0.49515180814511883,-6.280000003873381,-6.280000021846686,-0.10147581949220674,0.04778724703593171,480.25763185485664
1755279943.021212,-0.05148715337425397,3.140000000394675,6.280000005382496,-6.2800000312817055,-0.10589280915009214,-0.5223016553482472,484.88864376041556
1755279943.031431,-0.9533249698418638,0.8716995588009624,6.2800000089696155,6.280000014230124,-0.11013463536402529,-0.2552682001869063,485.16525370467343
1755279943.0413208,-0.3262672427769314,-3.1400000000027384,-6.280000002249446,6.280000033788923,-0.11419745262834846,0.45319322126304223,491.3451485984067
1755279943.0512717,0.7041462039707512,-1.673153047480834,-6.280000011149578,-6.280000003445677,-0.11807766673968523,0.33264928756822815,485.9120364836169
1755279943.0612504,0.34814227817608545,2.1176203182291617,5.006189907375465,-6.280000034173391,-0.1217719354320459,-0.1391621892273267,486.63394576995057
1755279943.0714605,-0.8452243975268708,2.038986098018034,6.280000010480007,-0.01673262635750783,-0.1252771736961622,-0.43619448106752334,481.5292268978478
1755279943.0812125,-0.7292091836127597,-1.5511779787453213,-1.016533703025675,6.280000033504919,-0.12859052213086036,0.13320474469743765,477.72774007774564
1755279943.0915577,0.5338183375715079,-3.0898160746887884,-6.280000010647139,6.280000005404776,-0.13170947216210793,0.6643356723559246,482.92183457636355
1755279943.10169,0.6497620315764164,0.5819066338363726,0.016763477579583463,-6.280000031683549,-0.13463162001015716,0.07028752685930476,482.22867027894534
1755279943.1119282,-0.5734353908142915,3.1400000001608315,6.280000008587493,-6.280000017547593,-0.13735492152353268,-0.629860508139787,480.6540579768332
1755279943.1220205,-0.9582287004014394,-0.012789045228821405,4.74821838312887,6.280000026959311,-0.1398775259658412,-0.14666880799063778,475.15652299703333
1755279943.1321137,0.09428852975519342,-3.140000000141674,-6.28000000780625,6.2800000278596215,-0.14219794075003067,0.5693457872994965,487.78853717371777
1755279943.1422284,0.76311547246077,-0.18744016263555485,-6.280000003197858,-6.280000023575578,-0.144314775239053,-0.014818895919542857,481.7669324152809
1755279943.1524408,-0.12656222339372175,3.1400000005423228,6.280000005765101,-6.280000031003265,-0.14622699642079295,-0.5221716580975779,485.01165873927783
1755279943.162416,-0.9914698757038237,1.0300083517519085,6.280000008151956,6.280000015610261,-0.14793379366764725,-0.29102886539887796,477.34919816444346
1755279943.172684,-0.23790669213176033,-3.140000000184652,-6.280000003380085,6.2800000332618495,-0.14943461381230905,0.4811552562949142,490.69862108845575
1755279943.1827083,0.7288606088585348,-1.2429807526686822,-6.280000011295449,-6.280000007392569,-0.1507291545140137,0.2030744970289225,490.96966146913616
1755279943.192777,0.24043225047881162,2.8755459142541153,6.047925815436403,-6.280000033592884,-0.15181736802825263,-0.36522745969175585,485.96884694090375
1755279943.2028246,-0.8945970735310187,2.1844397972688148,6.280000010430134,-0.016980119842806563,-0.15269946087709338,-0.48727701844748256,476.978166027351
1755279943.2130241,-0.6391105944986677,-0.8861447176326176,-2.755921754059614,6.280000034530943,-0.15337589436259336,-0.08270261830276143,488.08848314945567
1755279943.223218,0.5777433785363244,-1.9921235321039257,-6.280000010842155,6.280000000251806,-0.1538473764880579,0.3996899047505859,473.9569879257428
1755279943.2332036,0.5788287060291876,1.6402398689488633,0.3564779664281008,-6.280000033427029,-0.15411487425291437,-0.19343071074455415,483.4267829689034
1755279943.2432847,-0.6345633890549365,3.1400000003031647,6.280000009142264,-6.280000013763958,-0.15417961209396353,-0.6005942578068205,478.44495392829486
1755279943.2533255,-0.9142644492991819,0.044975050798031546,2.2947782219583583,6.280000029538542,-0.1540430346529566,-0.17921277158724486,476.11353774676587
1755279943.263249,0.25692156560225476,-3.132273876700658,-6.280000008868685,6.280000020018942,-0.1537069428158384,0.6431005251375141,486.88632317166775
1755279943.2734065,0.7471726946842809,0.05393090718515814,-6.280000002238124,-6.280000025355861,-0.1531732407448687,-0.046012309834466955,479.12365038973087
1755279943.2832787,-0.19465608663017292,3.1400000006744455,6.280000006621445,-6.280000029733582,-0.1524441919967161,-0.49689129273906407,482.3455094874359
1755279943.2933414,-1.0017978859076377,1.073214527265228,6.2800000057174445,6.280000018874523,-0.15152227992049472,-0.2612117090606031,482.4725232063282
1755279943.3034258,-0.23648959394278013,-2.1569642239494664,-6.280000004311266,6.280000032487727,-0.1504102455624694,0.24051678712090954,487.2259341458171
1755279943.3132513,0.7382766288898728,-1.0277980608467865,-6.280000011002125,-6.280000010932087,-0.14911108323218958,0.14717394950272472,489.312032212217
1755279943.3235145,0.1968497375073205,2.922053976476811,6.64861406364555,-6.280000034529785,-0.1476280400065315,-0.3529952153769355,493.6907021535744
1755279943.3334804,-0.9332808732340796,2.1545444461576415,6.28000001037684,0.34360505195624835,-0.14596461730755939,-0.4894551921437942,476.3566511524123
1755279943.3431845,-0.6270336779337584,-1.8832870259595142,-3.2147736652435253,6.2800000351641785,-0.14412457347549024,0.1702161945349705,492.24703556914227
1755279943.3534405,0.5322240819660768,-1.9852208335072525,-6.280000010904658,6.28000000004569,-0.14211191087670016,0.3095328607167801,474.9212710151454
1755279943.3632193,0.5456581282704671,1.6124582838829529,0.5677970548103439,-6.280000033589793,-0.13993089189698793,-0.2693124446723827,484.27919915083635
1755279943.3735192,-0.6373159213244586,3.1400000003352595,6.28000000923123,-6.2800000139205014,-0.13758603742162595,-0.6553103713437312,479.0881552942201
1755279943.3834827,-0.921179859015437,0.05727187910864065,1.8485346307274777,6.2800000295621,-0.1350820870489482,-0.260851772987822,475.60209838456205
1755279943.393819,0.2328099347174672,-3.082602382297666,-6.280000008997818,6.280000020148243,-0.13242413913547058,0.5239023002467667,486.28587061438367
1755279943.4039745,0.7412596497199374,0.046866515534753656,-6.280000002349073,-6.280000025177454,-0.1296173653735968,-0.15226419356496074,478.58499103495717
1755279943.4139566,-0.19262074695976095,3.140000000669267,6.280000006868438,-6.280000029469765,-0.12666740471188187,-0.5558729149277085,481.15008360846593
1755279943.4243076,-1.0006341304415487,1.0521752621239493,6.280000004962575,6.280000019227693,-0.12357995787559761,-0.2826133669697636,482.61796584724067
1755279943.434315,-0.22781792318651453,-2.1830715963505853,-6.2800000046323055,6.2800000324534295,-0.12036108740596863,0.17993794822448692,487.5108850015166
1755279943.4444635,0.7543850624226653,-1.0451343882553643,-6.280000010907841,-6.280000011183503,-0.1170170841654965,0.06981838162689105,489.52182023239413
1755279943.4544528,0.2189225677385918,2.9227708264206247,6.94512438539126,-6.280000034563201,-0.11355449080395585,-0.3843969612436078,494.02526784751774
1755279943.464515,-0.914296987848584,2.112398832233772,6.280000010351738,0.7026784683504386,-0.10998010460221608,-0.48296571317126735,476.94399686715576
1755279943.4748342,-0.6098959735691051,-1.8188998665093612,-2.983278897510621,6.280000035002516,-0.10630095460638073,0.13993043334818578,484.7995069653616
1755279943.4848938,0.5719126504287368,-2.029039306084497,-6.280000011152676,0.6907155760382047,-0.10252441638870646,0.2657685013531043,482.98163895475255
1755279943.4951837,0.5931310063684212,1.6016215797780058,1.0720552958575933,-6.280000034014172,-0.09865797032018708,-0.2716115046922243,486.40122275806885
1755279943.505254,-0.6690285283350621,3.1400000002394504,6.280000009321659,-6.280000009968669,-0.09470945989602866,-0.6540460952102619,472.1767098476715
1755279943.5152097,-0.929525274845787,-0.10753596298165624,-0.6294465262520377,6.280000031239876,-0.09068692179760374,-0.26671661188255136,480.74194210221947
1755279943.525214,0.26550930124097616,-2.5134637154940274,-6.280000009169394,6.280000019092107,-0.08659874711632964,0.340654036004317,479.5662087677234
1755279943.5354211,0.8336918184216995,0.008567681698415375,-4.766615368133548,-6.280000027571987,-0.08245343152904105,-0.05883350448956827,481.82951865626376
1755279943.5454547,-0.21568636551075399,3.1400000007203928,6.2800000073664055,-6.280000029174776,-0.0782598328579478,-0.5249101846966571,483.19210377739836
1755279943.5558324,-1.003891488367521,0.9208459588940215,6.280000001836094,6.280000020678756,-0.07402702605004197,-0.24859784585040712,477.0267590926406
1755279943.5656333,-0.13454484757633559,-3.140000000372582,-6.280000005578567,6.280000032201251,-0.06976434129345765,0.4653044044780412,491.6467664179008
1755279943.5760994,0.8147202744439777,-1.0608536325438944,-6.280000010537465,-6.280000012288429,-0.06548136747109723,0.0898560656837611,484.2975772777676
1755279943.5859978,0.22363000640770236,3.0678018878778714,6.280000002965226,-6.28000003373451,-0.06118794322611931,-0.41344099221445996,487.6240028861234
1755279943.596161,-0.8911434447572397,2.1119845098345484,6.280000010409344,1.60142329326003,-0.05689416158794369,-0.4339973110081198,480.3210754938688
1755279943.6062946,-0.5439994953400122,-2.053132139543254,-4.3566307398290345,6.280000034444946,-0.052610373039972735,0.17473311115375534,487.98031394888017
1755279943.6164684,0.7043273092265744,-2.170736153888063,-6.28000001126075,0.8127253965134367,-0.0483471729829823,0.33265212571757274,484.0795674291911
1755279943.6264746,0.6295571039050556,1.694662998730597,1.4755821442879336,-6.2800000342911915,-0.0441154145537892,-0.2169825027277828,487.4221856930251
1755279943.636279,-0.6526723180696048,3.140000000193306,6.280000009537346,-6.280000005740209,-0.03992621136623966,-0.6044574152673289,472.41143020211484
1755279943.6462116,-0.8842493816338503,-0.20693176496558796,-0.42238562771914245,6.280000031372403,-0.035790897118441745,-0.20565770429976749,480.09096688906095
1755279943.6567998,0.3706052520277442,-3.1400000000847865,-6.28000000925964,6.280000018455279,-0.03172115759679439,0.556741120766504,480.0377898842375
1755279943.6664429,0.8264431639409858,0.02143748367806142,-4.058433045156151,-6.280000027997406,-0.027728771592243184,0.011154320548253757,481.41083728069094
1755279943.6766584,-0.21075472403219353,3.1400000007692315,6.280000007553975,-6.280000028513271,-0.023824312714321394,-0.4672167799103949,481.64318075711185
1755279943.6867306,-0.9730207388606398,0.7182046642852613,6.280000001651734,6.2800000218218095,-0.02001502936356503,-0.16131511387513772,474.21759053326275
1755279943.69708,-0.06838496996201282,-3.1400000004842528,-6.280000006295975,6.280000030959943,-0.016306879630136217,0.5138167530134465,487.91158855757396
1755279943.7072306,0.8280380918579392,-0.9405147218208566,-6.280000006980249,-6.280000016797565,-0.012704907001801935,0.14249839125492006,487.1042352446494
1755279943.7172587,0.11060816670989149,3.140000000104088,6.280000003969731,-6.280000033487461,-0.009213331451349394,-0.3805712912858672,487.9395057191783
1755279943.727352,-0.9229862858376233,1.5993121144693736,6.280000009860492,6.280000007832018,-0.005835629537644493,-0.2876923589915878,478.50885083827785
1755279943.7374768,-0.46170794580653274,-2.4245481128665927,-6.280000001659162,6.28000003411244,-0.002574620734827282,0.2845908346836787,489.8063928490471
1755279943.7474813,0.6972585380213585,-1.881650480011583,-6.280000011363189,0.24560002268662107,0.0005674733389433584,0.35328713382463545,483.4623564886981
1755279943.7582026,0.4243879901859655,1.9320104561744662,3.9612605364035187,-6.280000034900077,0.0035889698803726056,-0.07617681433607315,489.5751033301991
1755279943.767553,-0.7554963940826726,2.3107824688599594,6.280000010176888,0.7075366157768705,0.006488647399322756,-0.3787706066619615,477.92546721190917
1755279943.7776268,-0.8050350712182432,-0.838318144920592,-0.4836438949706432,6.280000033193922,0.009265744135826703,0.040703989741697866,479.21200502537505
1755279943.7876675,0.49299399914829767,-3.1257226516743755,-6.280000010030703,6.280000012830078,0.01191978303305774,0.6950682417888567,478.5889707770083
1755279943.7976751,0.7810824593964817,0.4446260545670643,-0.5958671923552171,-6.280000031188354,0.014450772445112836,0.1528266639637595,484.26435854272563
1755279943.8080359,-0.35775643796437073,2.349457316776518,6.280000008324072,-6.280000019650647,0.016858921534122606,-0.25707405096351366,482.66556721753085
1755279943.8182495,-0.9016812830447715,-0.39252451511460335,5.526727225551049,6.280000025553086,0.019144741774044016,-0.013813310493303206,474.0592321552316
1755279943.828157,0.06846014195203776,-3.1400000007226043,-6.280000007313716,6.280000029164327,0.021308986592278867,0.4215055270971749,485.4344908597692
1755279943.838486,0.8813042758902873,-1.5357635973374169,-6.280000004663034,-6.280000020654306,0.023352621661349993,0.2152328478579611,480.1693395190609
1755279943.8482535,0.07780802071059317,1.8740613376881563,6.2800000052522655,-6.280000031293795,0.025276800345595207,-0.18275138515616127,481.71791420759456
1755279943.8587654,-0.921162393901603,0.4631019306381924,6.280000008434627,6.280000014301912,0.027082851455253798,-0.113155979303149,480.36475513134627
1755279943.8684776,-0.22872426162325218,-3.1400000000336847,-6.28000000280699,6.280000033826987,0.028772249884738033,0.37275689617036367,492.4005730879568
1755279943.8786573,0.8647695534760814,-2.310025936396217,-6.28000001109252,-6.280000004128418,0.03034660449586113,0.4484427138689654,486.3411281689346
1755279943.888529,0.5076159533328937,1.3417518715337688,5.229000541355867,-6.280000033895313,0.03180764174625761,0.04914591573711055,485.2745546895085
1755279943.8986561,-0.719153658595743,1.6079849989858757,6.280000010391095,0.36491977932147013,0.03315718760048092,-0.2481618307322,479.02224578732006
1755279943.9088588,-0.578619064681724,-1.633145491600831,-1.504624173452465,6.28000003412145,0.034397183410344645,0.13431296608791576,480.85825679381
1755279943.9189606,0.6920687447652136,-3.1400000004662765,-6.280000010564317,6.280000004135549,0.035529552577372225,0.6687101376383776,476.32313297753996
1755279943.9289703,0.8451041258132456,-0.028780260671448454,-0.028675331736825127,-6.280000032242768,0.03655643596784497,0.24313465295283077,482.85244311206355
1755279943.9390452,-0.3844296747874837,2.290991908561466,6.280000008790507,-6.280000016466072,0.037479924821823385,-0.28068608831523967,478.3869077973715
1755279943.9492025,-0.7989214406048945,-0.46741770627325274,4.538565214263528,6.280000027824638,0.0383021946683042,0.08407796310975263,479.2296884262147
1755279943.9595313,0.2135230828287723,-3.140000000823193,-6.280000007829574,6.280000027599204,0.039025463938553884,0.5874133728359873,481.9664761108079
1755279943.969344,0.960776434696665,-0.9801673674529936,-6.280000003103272,-6.280000023540019,0.03965198393089864,0.24044074392297435,484.21391253214153
1755279943.979189,0.08179974840752835,2.2464094464547735,6.280000005797561,-6.280000031285731,0.040184032892710775,-0.13196530753022678,485.20740909296285
1755279943.989214,-0.8446207787260526,0.5466123911302309,6.280000008220208,6.280000014828515,0.04062391988900538,-0.031627528304199515,477.0590315287673
1755279943.9993005,-0.13459945454747765,-3.1400000001309496,-6.280000003372987,6.2800000330337795,0.04097396938334441,0.49749949770954793,488.554241678575
1755279944.0096376,0.929598225820152,-1.91143045062744,-6.2800000111870435,-6.280000007195098,0.04123652344895046,0.464943192716219,489.73546196472563
1755279944.019543,0.49784044346568224,1.5854944638536606,5.651780877716268,-6.280000034262024,0.041413935060654605,0.1002680660496325,488.7774833971212
1755279944.029948,-0.699050333257735,1.7111371687252261,6.280000010544713,0.32817946994479286,0.04150856178319662,-0.21243501829354788,481.6727909912233
1755279944.0397973,-0.544765892677769,-1.7177034441590853,-2.2810888235208977,6.280000033978759,0.041522765540851575,0.2078994367355509,484.76811550318575
1755279944.0498724,0.7480577001986403,-3.1400000003119137,-6.280000010852699,6.280000002434736,0.04145891677823954,0.7396539583955009,478.7413400881977
1755279944.0600893,0.829475286511242,0.12963749987745665,0.13046896675288433,-6.280000032812481,0.041319378563543285,0.26991464481992494,484.9801652151537
1755279944.0703843,-0.39107023438344224,2.388753624369457,6.2800000089294565,-6.280000016284799,0.041106505979982666,-0.27652844144934857,480.003395396159
1755279944.0801573,-0.7692424376180701,-0.429085064486135,3.7393457682952866,6.280000027975152,0.04082268201270678,0.09105648424090418,473.9947942245136
1755279944.09043,0.3194666648666812,-3.140000000956109,-6.280000008428421,6.280000026532829,0.04047017819766907,0.6441059148173336,482.9679560595438
1755279944.100286,0.9859006599034332,-0.39991279311340855,-6.280000002397299,-6.280000024254274,0.04005141071860585,0.2422126271352169,477.96765852804947
1755279944.1106734,0.04470239183392394,2.42021592001055,6.28000000655226,-6.280000029337039,0.03956867358085514,-0.09530632260192982,478.99469209812736
