Ath0601/CNC_UR5e/src/trialpkg/graphs/pidgraphs/run i0.01 d0.1/joint_velocities.csv
time,shoulder_pan_joint,elbow_joint,wrist_1_joint,wrist_2_joint,wrist_3_joint,shoulder_lift_joint,end_mill_joint
1754940434.902055,-1.2212236430442225e-14,-1.0428436543127861e-13,4.9663832074609005e-14,-1.0857547499965037e-13,9.769355463484786e-14,5.2541304640385533e-14,7.352278508232502e-14
1754940434.911597,4.336808689942018e-19,3.6097869214168216e-11,-7.516016498412825e-11,-1.1710406949694274e-11,-7.806255641895632e-18,3.153847322190373e-11,7.353492814665685e-14
1754940434.9216638,-0.00013550317483013077,2.4825850131262065e-05,-9.755628131112408e-06,-1.0531351832265834e-11,-0.00013550317482956958,-1.5070228777860212e-05,7.34794169954256e-14
1754940434.9316654,-0.0009624700863313329,0.00017680453692911317,-6.952228542513213e-05,8.877881763069695e-10,-0.0009624957385711563,-0.00010728263470227012,74.9642438150306
1754940434.9419088,-0.0028467563726208775,0.0005243912606408552,-0.00020633450173790369,2.675750954139744e-09,-0.002846779048399972,-0.00031805583788555546,148.8027798755195
1754940434.9521213,0.01584286886433643,0.0010857436958055747,-0.0004275028409623238,-6.280000006607677,-0.005877642635759628,-0.0006582402741593281,218.75546483603077
1754940434.9620543,-0.058490959059655276,-0.16414431841095928,-6.280000002642659,6.280000008159147,-0.009955415638879694,-0.001117525520251867,271.37944472518956
1754940434.9721844,-0.01948236297070076,1.222407076326864,6.280000003421126,-6.280000002742909,-0.014870391566053631,-0.0016729066271296382,311.225408396824
1754940434.9824615,0.06393188449271911,-1.2940353297774285,-6.280000004273045,6.28000001303864,-0.020373839066090582,-0.00468292263912513,345.24817904497104
1754940434.9923253,0.17571068474745938,1.8019955619463057,6.280000002268961,-6.280000020082628,-0.026241902915276505,-0.005446348306967958,378.462739672387
1754940435.0025835,-0.642831876705721,-0.24403805972743886,-1.5191285088850628,6.280000022816637,-0.0323331285578381,-0.053041187754418184,397.8921799650133
1754940435.0124123,0.7867571289783475,-0.6882388725299841,-6.280000006789066,-6.280000009240878,-0.03864021062002099,0.02985490051137506,421.8476107511122
1754940435.0224068,-0.13002615228718734,2.3776474302092243,6.280000005992914,-6.280000022915889,-0.04527610141696137,-0.008936491975124597,433.8157306909044
1754940435.0323732,-0.8375507353996647,-0.10702226923090002,0.7496850830333048,6.2800000273424565,-0.052248436443277056,-0.09188830715403316,448.15049700394917
1754940435.0423646,0.5592448781442739,-1.8491544382813605,-6.2800000095800925,6.280000004493813,-0.05952357680062459,0.36240967253977463,457.6671038124736
1754940435.0525672,0.6696969354997898,1.8431817151705236,0.6354967326098095,-6.2800000331426915,-0.06707125297047245,0.03175394729977908,476.81639082706556
1754940435.0623376,-0.6519888873573495,3.14000000006379,6.280000009054641,-6.280000010530982,-0.07486422164144813,-0.3503452707563943,471.1800223284426
1754940435.0724125,-0.8814997401183884,-0.2188689090803862,0.25341311130910427,6.280000031804743,0.18249950571281637,-0.03927255775972455,477.6456885804475
1754940435.082678,0.4290065312063697,-2.431043030576701,-6.280000009272689,6.280000017081228,0.41465489588596327,0.48170811797771695,475.3513728729538
1754940435.0925832,0.7799401609416117,0.6841629341050942,-2.8336843375271723,-6.28000002977074,-19.961952353740898,0.08075340958884519,498.3270023908602
1754940435.1027915,-0.5010361338612725,3.1400000005079614,6.2800000081290435,-6.280000019785753,0.7320388013551546,-0.2793480691675608,477.34242928119056
1754940435.1130426,-1.1787584262274615,0.1245719356062242,5.026405339897392,6.280000027188677,0.7094549665463781,-0.06120088388617262,477.377483734942
1754940435.1229665,-0.1185769941706068,-2.664916581120397,-6.280000007337863,6.2800000291585185,0.8658786647161949,0.356764432724953,482.93409163483744
1754940435.1331646,0.743444910547397,-0.4187203638239036,-6.280000003896513,-6.280000021082344,-6.280000004289038,0.11401005862520484,483.3546207059878
1754940435.1431568,-0.14165095336631506,2.296132990053699,6.280000005520081,-6.280000031730751,1.0594516357508135,-0.10534280247321016,481.1156718215764
1754940435.1532476,-1.1643353866709163,0.6033476936550299,6.280000006962962,6.28000001692533,0.9308104391739261,-0.14082717624456936,480.53757101832105
1754940435.1632931,-0.31530384572847703,-3.140000000205329,-6.28000000362448,6.2800000333629455,1.068585962257046,0.24441330643798492,485.39238154627714
1754940435.1734653,0.8095662335425421,-1.4055617186794858,-6.280000010589333,-6.280000009656546,1.1686552996959017,0.23691035710664315,477.5344759529994
1754940435.1835907,0.25040283695249793,3.076546724616736,6.280000002327042,-6.280000034876785,1.2896136714391035,-0.19354302391577222,489.87193319600095
1754940435.19358,-0.9293796311315529,1.7677665894297465,6.280000010154252,6.280000002636646,1.4457643319690494,-0.23821993700904054,479.7418791988923
1754940435.2037067,-0.6247712904054528,-1.5514485791507595,-6.2800000002913965,6.280000034068337,1.8142939354988066,-0.06720126609773852,480.6375028035082
1754940435.2138202,0.6852326298500326,-1.5198569314228425,-6.280000010961407,0.20207010888126797,-6.280000036920113,0.2779651580879752,480.01912168900344
1754940435.2239149,0.34144692934222903,2.315667161927257,3.446268955897732,-6.28000003497791,-6.280000031665697,-0.0949380603757422,490.74882489201235
1754940435.2338865,-1.0018307570378626,2.263159715546525,6.28000001029169,0.2621382268666341,2.480653464514498,-0.3238186674294977,477.74096840604443
1754940435.2441585,-0.9977273177431718,-1.8177793902118222,-1.502748097107745,6.280000034520604,2.5083368298963413,0.09594622264751534,482.3041698167143
1754940435.2542863,0.3304920211562097,-3.140000000010064,-6.280000010275593,6.280000004516077,2.786443285183498,0.4306941932155389,470.5297881828476
1754940435.2645223,0.5258935765065562,0.4408253944832924,0.18536313585027164,-6.280000032616108,3.0775126486663575,0.039827597422369895,475.8129683572965
1754940435.2744274,-0.7689112138643346,2.388739713185892,6.280000008662846,-6.280000016510721,3.0153624336417106,-0.32651754587126813,472.4746598188781
1754940435.2848837,-1.1632018791013816,-0.3876066633593359,4.272279459687644,6.280000028808086,2.9964459373587755,-0.11920571280462423,473.9691449399784
1754940435.2946079,0.049673250741050945,-3.1400000001400183,-6.280000008071923,6.280000026845073,3.2740249527054237,0.4220555528177362,477.3719512010764
1754940435.3047342,0.7607347804599995,-0.15436492991126116,-6.280000002014411,-6.280000024688476,-17.133598134543533,0.08060941817854306,491.8449101023207
1754940435.3148837,-0.2282330260934381,3.140000000131022,6.280000006654724,-6.280000030622915,-15.46746664608153,-0.29429339723631504,499.9999999705498
1754940435.3248656,-1.0901318933719097,0.6503864972836182,6.280000004647764,6.2800000198626265,3.5652921358747216,-0.1026328854068231,474.66951782926105
1754940435.3350189,-0.23158331642828175,-2.4943405453201866,-6.280000004827686,6.280000032204626,3.5930901600988316,0.2616223461184185,479.6237064917
1754940435.345199,0.8049813541645404,-0.9333541336680529,-6.280000010605081,-6.280000012795444,-6.280000033026337,0.20537274229426017,489.26423611038115
1754940435.3552551,0.1396162421908821,3.140000000002549,6.280000002794072,-6.280000034549886,-6.280000035171342,-0.1901685413061623,495.13701836630565
1754940435.3655035,-1.020220847893622,1.695786615497444,6.280000010133115,6.280000004097753,3.95264234871608,-0.25123576311216306,477.51161232395674
1754940435.375342,-0.6839693834548463,-1.6434808220695905,-6.28000000029424,6.28000003451946,3.850599315157184,-0.071080315390777,481.4657525030793
1754940435.3855116,0.6143504795336222,-1.764366859517968,-6.280000011090587,0.27814826194145414,4.094807784803172,0.2980678825056263,474.099357633803
1754940435.3953152,0.3799468209008062,2.1678129754869375,2.7738617296941652,-6.280000035050925,4.298894401264949,-0.10036568912772473,480.3199291037396
1754940435.4054544,-0.9791552830916703,2.5681746155399225,6.280000009971285,-6.280000000589875,4.198089130982546,-0.3588071151701394,468.5026564809015
1754940435.4154687,-1.0340842854210064,-0.748246091116672,-0.6197048073864009,6.280000033590561,4.079634847638306,-0.0950670094895345,477.06740923788857
1754940435.4254143,0.25926576718884164,-2.4816108156912455,-6.280000009872639,6.280000014580981,-6.280000037442617,0.37182936041797054,484.1379249457953
1754940435.4356496,0.5642627277703289,0.9384664069397869,-0.6041457073908032,-6.280000031218879,-16.585087911878936,0.03697236030090888,494.2866081084513
1754940435.445789,-0.7098393595993366,2.0213963379214936,6.280000008436109,-6.280000015493831,-17.225674290790327,-0.22081136609518032,485.1335723332427
1754940435.4559307,-1.039937571406715,-0.7172692175977956,1.6150354181951618,6.280000029530399,-5.845847219613245,-0.16701942849593276,470.44302750791195
1754940435.4661243,0.3080103289647224,-3.140000000553635,-6.280000009255295,6.280000016345294,-6.28000003668174,0.3503089573685022,478.97611647696834
1754940435.4762802,0.7419286426161453,-0.08506323174902142,-1.968441150303449,-6.280000030172854,-15.241988681267104,0.08413140272493763,491.0587627928103
1754940435.4864504,-0.5639912698643992,2.0543241311863394,6.280000008011025,-6.280000017417656,-6.280000032061194,-0.30273580339701284,473.3135622651811
1754940435.4964852,-1.0716770340101984,-0.4701264416203108,3.7252102437154764,6.280000028304627,-6.280000024445469,-0.17948626135871854,475.2203689106435
1754940435.5065033,0.22885888257176557,-3.140000000233981,-6.280000008454842,6.2800000190627046,-6.2800000375232905,0.3209601381241849,479.4333590207845
1754940435.5165308,0.8723632755761396,-0.381228568951386,-4.820874825065454,-6.280000027208569,-6.280000005286206,0.06050504815034995,473.34143609733957
1754940435.5264978,-0.3725230759116061,2.3094579155839554,6.2800000076398135,-6.280000019401211,-6.280000031267061,-0.26513060231799157,475.2566598641791
1754940435.5367575,-1.0781721491187324,-0.33418446534575247,5.25301907947723,6.280000026685563,-6.280000023630274,-0.10128274701072593,476.3620078596754
1754940435.546638,0.10721566599013516,-3.1400000002192887,-6.280000007741664,6.280000026856108,6.279999975288968,0.31977808507183,469.7267075704384
1754940435.556965,0.910617465025704,-0.2568591790514741,-6.280000002224469,-6.280000024426737,-16.1941918156121,0.048413493452914985,492.816043108074
1754940435.5670419,-0.03167845407909181,3.140000000022847,6.280000006326825,-6.2800000315372095,6.27999996487806,-0.2524544586582186,482.0242045183092
1754940435.5769455,-0.9082427873433084,0.718021107803076,6.280000005723499,6.280000018695581,6.279999975997324,-0.05731852964698548,471.1137162688735
1754940435.5871284,-0.025737696709269453,-2.482755701923995,-6.280000004621552,6.280000032277783,6.279999975291004,0.31641635737776663,475.61205372025114
1754940435.597478,1.01130761460176,-0.9004901945537094,-6.280000010506111,-6.2800000129650915,-6.280000032887801,0.2823945860204321,487.10270096304885
1754940435.6072183,0.3404774776007722,3.127384283423907,6.280000002594582,-6.280000035048431,-9.778448228040123,-0.09860693616898196,499.99999997415347
1754940435.6175156,-0.8432465631936779,1.746858364086316,6.28000001016721,6.280000004360881,-17.23574648656774,-0.20968757715550962,499.3848146983241
1754940435.6274111,-0.4878725853283184,-1.619546154550632,-6.280000000297973,6.280000034469197,6.279999975192027,-0.031727245196992826,478.133406933834
1754940435.6373487,0.8097651849494264,-1.6663798889886634,-6.280000011011158,0.16909917515663409,6.279999962497538,0.3366534821368361,470.1108936064816
1754940435.647502,0.552134947418746,2.191624832414664,2.62801769771644,-6.280000035620333,6.279999959757427,-0.0479250172356104,481.1455291755437
1754940435.6573217,-0.7865952445170327,2.443750401582146,6.280000009756687,-6.280000000685362,-6.280000031786548,-0.2861734416006426,474.59628721039047
1754940435.6675458,-0.8854648997398826,-1.045548509305199,-0.27943935039278145,6.280000033674071,-5.037517188945602,-0.021474499609471898,482.5677328936187
1754940435.6774344,0.4558200596232763,-2.565428600995561,-6.280000009995964,6.280000005444102,-6.280000037659068,0.34677104728115327,474.76586633206557
1754940435.6874404,0.7236762736167501,0.3410783482733767,0.5786058836343645,-6.28000003265754,-16.25729139893367,0.10670320445664064,495.2651196021626
1754940435.6977186,-0.6265321262008424,2.2217422811529923,6.280000008965038,-6.280000013321612,-6.28000003115721,-0.25533928746942625,478.7931666746861
1754940435.707926,-0.8172144331352271,-0.9118221426701997,0.5242210206590179,6.280000031710522,6.279999975524238,-0.055748714515850895,470.81933234455187
1754940435.7179127,0.4883378791394177,-3.1400000011068157,-6.280000009231146,6.280000017652451,6.279999974072029,0.44225247792184563,467.50025022878714
1754940435.728123,0.9687029657767987,-0.321379607690063,-4.046508955979283,-6.280000029373934,-16.343867356714878,0.17105591073267085,498.0386832151253
1754940435.7383928,-0.23673548664630273,2.5296901261776643,6.280000007725375,-6.280000027498744,6.2799999648947145,-0.20306199377013828,474.388199925483
1754940435.7483613,-0.9675162821358624,-0.20877507035237441,6.280000001640054,6.28000002537005,6.279999976030729,0.00040528131427452,472.15498521212237
1754940435.758403,0.02716661811023141,-3.140000000649679,-6.280000006728596,6.280000029855373,6.279999975005896,0.3528216760113565,474.1611293404126
1754940435.7687147,0.8803135787853358,-1.0540716862108845,-6.280000006285794,-6.280000019073981,-6.28000000577397,0.17346935435535712,486.6394404463662
1754940435.7784386,0.057464370562221506,2.1482908491500776,6.280000004464468,-6.280000034149317,-10.601679104284802,-0.048019453625948866,499.9999999728544
1754940435.788368,-0.9591078683499762,0.7494628603768156,6.280000010172463,6.28000001136412,-14.173017468836605,-0.13734967424113487,499.99999996755696
1754940435.7985547,-0.3917376340663738,-2.5536934005546157,-6.280000001460991,6.2800000346117955,6.279999975250754,0.06921303856055633,480.75437953855703
1754940435.8085217,0.8351706446279407,-2.3176006281725785,-6.280000011162436,-0.03667316954839306,6.279999962403255,0.42272431204091265,471.8549760676687
1754940435.8185563,0.5229142968871168,1.5045077415339372,3.059170918988584,-6.280000035813522,6.279999960390514,0.059833792488418386,483.0099876834536
1754940435.8288398,-0.7320509119412196,1.9330282796272902,6.280000010292737,-0.1640514649773639,-6.280000029277796,-0.23579860389831872,490.0049384618638
1754940435.8386526,-0.7531595895125,-1.3079779008150463,-0.12008562937319267,6.280000033774293,6.279999975712475,0.05010542460940236,475.60772122848607
1754940435.8489094,0.5713226212266986,-3.1400000003808497,-6.280000009740846,6.280000013510218,6.279999974222918,0.5690565319260686,469.3901950117352
1754940435.8589413,0.8351621249616719,-0.045431379278023765,-2.708115643447223,-6.280000031352504,-14.781748346288364,0.21340639799311162,499.99999996784743
1754940435.8693726,-0.35703801305627286,2.338119334605002,6.280000007952276,-6.2800000201330235,6.279999966056945,-0.1859222664707398,471.61006264630146
1754940435.879402,-0.9486828624732679,-0.3890962166384782,5.6417578525934475,6.280000027268379,6.279999976280858,0.01541278814141938,471.59245190339783
1754940435.8894246,0.1851771419214036,-3.1400000007863964,-6.280000007206212,6.2800000289409645,6.279999974945807,0.4447402010827788,474.80950735228527
1754940435.8993902,1.0047274873146097,-0.33598234738178645,-6.280000005156529,-6.280000020939696,-6.280000004107613,0.2136828126327842,487.25363777791927
1754940435.909342,0.09515842227757418,2.425542960016429,6.28000000479343,-6.280000032840384,-13.923702163777538,-0.015151876742474202,499.99999996826733
1754940435.919457,-0.9503258552936126,0.763106268718895,6.280000009390717,6.280000014143653,-14.701617204761614,-0.10597010139919431,499.99999996681976
1754940435.9295354,-0.23831432426736537,-3.140000000016136,-6.2800000019682924,6.280000034434856,6.279999975293706,0.3321808718155205,482.86882725260364
1754940435.939434,0.9010859699324666,-1.7133157837229578,-6.280000011339164,-6.280000003433423,-6.280000033208747,0.3645395597179553,496.57483896107556
1754940435.949539,0.501384629063465,1.844430139406486,4.373471834420069,-6.280000034363702,-16.458557040873657,0.03824996496192391,498.75857452902
1754940435.9595864,-0.8052830295885076,1.722394382226879,6.280000010046349,-0.3021026154114268,-15.492425980601812,-0.23366135983908426,484.64609272333695
1754940435.969598,-0.3695246787401758,-2.1778219138803503,-3.83222499558067,6.280000034320054,-6.280000024282298,0.2223611746549219,486.6529691169164
1754940435.9797394,0.9328072776064854,-1.8311209600011649,-6.280000011110921,-0.29420677737390855,-6.280000036383992,0.49203770067054686,486.52171993171964
1754940435.989815,0.6954324379547128,2.1714472029310117,1.9075288432554103,-6.280000034998089,6.27999995645923,0.07709124284940198,477.7049377545735
1754940435.9999905,-0.6816103753627949,2.6047486907940933,6.280000009659105,-6.280000000814551,-6.280000030823782,-0.23121124470915538,472.68481284846916
1754940436.010162,-0.7553074803197157,-0.6637616641084803,-0.15413958425147944,6.280000033191158,-3.3907212290943223,0.010942176398690495,477.1319987569797
1754940436.0200949,0.615101501378734,-2.4927584403744127,-6.280000010043613,6.280000006115878,-6.280000026665695,0.5547668768599359,478.16296737623884
1754940436.0304098,0.8357491414452629,0.36328277614627913,0.05414448407265837,-6.2800000325827625,6.27999996353791,0.2360813675917645,475.9673015826575
1754940436.0403614,-0.49768879577550706,2.3023501089591782,6.280000008540543,-6.2800000153219475,6.279999965916462,-0.2208084297489077,463.98532382920865
1754940436.050349,-0.7504992739052846,-0.6618129203016042,1.9763232299474103,6.280000029629239,-2.688398455611381,-0.06708778544893804,468.76645730947394
1754940436.0606165,0.5770966826598981,-3.1400000005714075,-6.280000009115374,6.280000016435007,-6.280000025740479,0.5091280139761208,480.49311777638945
1754940436.0705402,0.8978927753665921,-0.049808993353816944,-3.043475448080947,-6.280000029835442,6.279999962698649,0.19092719111025694,470.25028000010246
1754940436.0805042,-0.37928536807967944,2.5197951904406506,6.280000007867629,-6.280000020053276,6.27999996582552,-0.2797450775959849,470.08321046264723
1754940436.0903807,-0.9491703524471653,-0.3867860574604751,5.346949012168839,6.280000026579803,6.279999969284068,-0.04711353505980341,462.49645207711063
1754940436.1003642,0.27723280771333775,-3.1400000001972854,-6.280000007626712,6.2800000259994775,-6.280000025148577,0.42524180148684754,480.05534374528384
1754940436.110863,0.9683208975652215,0.09942712237840112,-6.2800000013592525,-6.280000026090658,-19.44597947046164,0.09824064923839851,495.53796142504814
1754940436.1205397,-0.0714594778424586,3.1400000008237567,6.280000006966911,-6.280000028729624,-16.42982304631354,-0.22002070841491156,496.4930738149844
1754940436.1307366,-0.8709245857052522,0.577660067296828,6.280000002974964,6.280000022691517,-15.478392116962736,-0.04316479183305612,488.38325731245095
1754940436.1408863,0.0783916266545594,-2.4052453072610644,-6.280000006056529,6.28000002928426,-6.280000024745754,0.3772144528889083,482.1328526427724
1754940436.1511457,0.9290469546018048,-0.4172741667828874,-6.280000006572015,-6.28000001880601,-6.280000011060244,0.24171461385491275,483.13853451774173
1754940436.1612358,0.027140694065176607,3.140000000443197,6.280000004865981,-6.2800000316455,6.279999964584434,-0.17444644331963258,474.1462631795277
1754940436.1713748,-0.9084604121481153,0.4535912179809724,6.280000007005731,6.2800000165331795,6.279999965353666,-0.08587273373039997,466.728750974839
1754940436.1814458,0.0236516119874724,-3.1400000003775785,-6.2800000041749415,6.280000031772534,6.279999975586482,0.3233657719337519,472.52116874835195
1754940436.1915548,1.0498495135462742,-1.3199941663879347,-6.280000008808633,-6.2800000152053315,6.279999975405301,0.26891492574467624,465.12754421545196
1754940436.2018049,0.12974101585429496,2.2498982953015343,6.280000004141784,-6.280000031574659,-16.9288875523491,-0.06446746307128992,492.2137953213782
1754940436.2116385,-0.9232380900842836,0.6239793249749679,6.280000008672773,6.280000014569007,-16.138162400403516,-0.16835138144122264,491.0515730585454
1754940436.2216668,-0.12107562946425429,-3.1400000002445165,-6.280000003310684,6.280000032500354,6.279999963157962,0.26356796972591573,474.5081061346857
1754940436.232133,0.9510269782875442,-0.9507372619839655,-6.280000010355925,-6.280000012221835,6.2799999755730065,0.2431621468382012,468.27738902252423
1754940436.2420628,0.2757069411381512,3.140000000111218,6.280000002847645,-6.280000033914185,-6.280000033476831,-0.08884322194493827,493.4883024533524
1754940436.2519748,-0.8955712166619926,1.5389877407858013,6.280000009510413,6.280000009938148,-16.32444260828691,-0.18401244859789728,486.0140908878572
1754940436.2620583,-0.2508758884680441,-3.1400000000636186,-6.280000002190446,6.2800000335604835,-6.280000036492133,0.4641220773213866,491.2563819021823
1754940436.2723157,0.8425727651905235,-1.5696608864242296,-6.280000011220347,-6.280000003701788,6.279999975391918,0.3550441850677707,481.8839353040488
1754940436.2824736,0.42466427400704565,1.8986727748457985,4.205717879377455,-6.280000035235531,6.279999963362861,-0.06419262324069343,482.2799681642359
1754940436.2923887,-0.8361662798648137,1.8886625457695985,6.280000010357789,-0.3575073012755068,6.279999964938523,-0.3632093812824774,475.25394635885425
1754940436.3022726,-0.7356637884088633,-1.7066159900523434,-0.7575139871537497,6.280000033979775,6.279999992009449,-0.06063703604959525,470.74795228315014
1754940436.3123543,0.6286161804883452,-2.4692175967037113,-6.280000010448898,6.28000000658417,6.279999975763214,0.42342164709806396,475.59205125375513
1754940436.322643,0.776049675705057,0.301492259540722,-1.8544016055514916,-6.280000031604455,6.28000000029674,0.11004678822482905,472.6955586763934
1754940436.3326745,-0.48831680628530205,2.529664676671639,6.280000008133514,-6.280000019127112,-16.708459019283367,-0.32921475928966665,494.8806893839443
1754940436.3424625,-0.948820868370424,-0.2834772766180479,6.148019033177816,6.280000026857177,-14.58952679294586,-0.06300072181738318,492.2176086561567
1754940436.3526742,0.1551273475581456,-3.1400000000411077,-6.280000006977468,6.280000029031765,-6.280000036169106,0.47698122102060975,491.2927517613153
1754940436.3625762,0.9070605768797705,-0.25427016172480554,-6.28000000501292,-6.280000021414306,-6.280000025130503,0.10140953081782747,484.7180914792663
1754940436.3727782,0.037232367031139524,3.140000000449449,6.2800000049846325,-6.280000033111918,-6.280000033038085,-0.2338725067608513,496.89490620973277
1754940436.382837,-0.9210027862842096,0.7374208935609738,6.280000008385748,6.280000014633602,6.279999965107726,-0.14543384048898528,470.45615593160727
1754940436.393047,-0.1578476005236659,-3.1400000001446435,-6.280000002756449,6.280000034233552,6.2799999635037205,0.3141949852196667,484.47455052167976
1754940436.4031963,0.9215532591059997,-1.3536961755698314,-6.280000010588948,-6.280000006737518,-6.280000023301961,0.3149709803295063,481.6263429570997
1754940436.4133606,0.42854899739428254,3.021888834126191,6.470046160933067,-6.280000034521059,-6.280000023384428,-0.07221320739021958,495.4532584677872
1754940436.4234247,-0.764979532417075,1.6006271108664034,6.280000010203217,6.28000000366849,6.279999964822507,-0.21425805175140128,475.7014742751802
1754940436.4334123,-0.37538011871028515,-1.6962078883558247,-6.280000000453628,6.280000033259952,6.27999996412611,-0.0011079119294278295,470.3860460060008
1754940436.4433854,0.8545106878093183,-1.458603694228368,-6.280000010759707,-1.304022430934693,-6.280000023633019,0.3699313331910302,477.2638089782529
1754940436.4538543,0.4377694140073174,2.4827084466434313,4.477598982274575,-6.280000035013948,-6.280000024199003,-0.053774117231553314,492.55812437365194
1754940436.4639106,-0.8009570923485527,1.505070800248482,6.2800000098357085,-0.3026217507872411,-17.548799941097734,-0.18584107653380413,482.88653491220447
1754940436.4740877,-0.3920660277067409,-2.2899789130135932,-6.012245928542277,6.280000033458343,6.2799999642864375,0.025250252665716233,469.83578267927
1754940436.48411,0.8833807896777078,-2.2866228276473906,-6.280000010714149,-0.2947155869947444,6.279999964273003,0.4199060336795345,463.7146848827202
1754940436.4943185,0.4237707646255391,1.7023222071906026,4.134766313856102,-6.2800000338299995,-6.280000024232999,-0.036139389729879574,483.8051283411122
1754940436.504667,-0.8678167149335059,1.678804879351232,6.280000010172529,-0.2907347385985344,6.279999963280582,-0.30865738140956356,466.72464032204397
1754940436.514409,-0.44293221244860803,-2.169037588836969,-3.848105178774264,6.280000033670731,-16.55785873189552,0.1318825956581806,493.2714294342458
1754940436.5243127,0.8351760011659698,-1.692472670400751,-6.280000010613634,-0.28306512313483045,6.279999964607763,0.394141322099404,462.7293694232215
1754940436.534438,0.4937971944791968,2.344968818117013,3.11764607456349,-6.2800000349734475,-6.280000024251552,-0.0240778713564643,490.18126401632503
1754940436.5443883,-0.7665970149764245,1.5883282146951476,6.280000009975318,-0.27704456142243483,-18.27448688930588,-0.16157223018926356,492.42545802805813
1754940436.5545025,-0.6441461851994715,-1.8992640014298727,-2.042711823027895,6.280000033927209,-16.392397750468582,0.019886217425916453,495.7137115825013
1754940436.5643294,0.7633209156515646,-2.589747459044781,-6.280000010366367,5.4602903397126425,-15.146934202894856,0.45180473884247563,480.639498273149
1754940436.5745027,0.7180998865518923,1.2591053524855633,1.5241613024281488,-6.280000033642686,-6.280000024193313,0.0555668595720393,482.4689683787251
1754940436.584551,-0.6975704444738446,1.9638583244790846,6.280000009666857,-6.025870166632176,-6.280000036813261,-0.2783685671473581,472.8133129100461
1754940436.5944417,-0.6674903109356219,-1.811526918441523,-1.5110045475857148,6.280000033503846,-6.280000033803925,0.025740924317891656,482.6364082615573
1754940436.6044915,0.656760287866863,-2.598024448989235,-6.2800000102705305,6.280000003789662,-6.280000031806985,0.4373356535918782,477.819270471181
1754940436.614504,0.8021397831820581,0.7476104286840789,1.0353879954012224,-6.280000033122718,6.279999976128213,0.1628952699284218,475.26473122149844
1754940436.624787,-0.46932623181016697,2.4706798210926735,6.280000008665787,-6.280000014886188,6.279999974898595,-0.25697810016836586,466.71922293189095
1754940436.634763,-0.7155710417292621,-0.5180142925081508,1.9498185437362734,6.280000030943846,6.279999964331834,0.014677082822504711,472.5020444685059
1754940436.6450806,0.5610672922075948,-3.1400000001438535,-6.2800000083927925,6.280000018303451,-6.280000031679383,0.7279550766509835,480.76830049779613
1754940436.6551104,0.9315489055347393,0.4081860725802944,-4.873098913007669,-6.280000027616762,-6.280000021035441,0.1793325576644739,475.9219798758946
1754940436.665251,-0.31572796780915496,3.140000000229009,6.280000007425425,-6.280000025010498,-6.2800000241426375,-0.2656370728427816,478.09283270920616
1754940436.6754355,-0.8851055542102655,-0.7028941388299961,4.353157046777806,6.280000027630837,6.279999963826506,0.10423190448987284,468.4487618380689
1754940436.6854393,0.2029839364966698,-3.1400000009055287,-6.280000007663887,6.280000027610214,6.279999964033018,0.48613934345463067,471.52824784403265
1754940436.6955345,0.9481306220704472,-0.6979091617126146,-6.280000001177746,-6.28000002465561,6.27999996750845,0.20577651338355032,465.5458767345426
1754940436.7054942,-0.039327058008893634,2.5179097599101445,6.280000006603242,-6.280000029419494,-6.280000024041103,-0.10550182527918413,487.1952584633371
1754940436.7155306,-0.8641620270106251,0.09354280358976558,6.2800000038329795,6.28000002242004,-17.743784617833498,0.044075221935837634,496.90546224891824
1754940436.7258718,0.05524452926055656,-3.1400000000443664,-6.280000005413621,6.280000029862904,-16.95984347601371,0.5661593232739323,494.6962503595517
1754940436.736096,0.9240883516504237,-0.7276110890695369,-6.280000007295838,-6.280000018250497,-16.432364641568938,0.3461434794531989,495.18745981279244
1754940436.7463863,0.011991984496835195,3.1400000003477353,6.280000004136955,-6.280000033017345,-6.280000023805669,-0.13728770119819378,490.6083015714369
1754940436.7562873,-0.9655124888967849,0.3510372037109774,6.280000008721782,6.280000013355055,-17.875872549160476,0.04549467631100139,493.84275262501376
1754940436.7662227,-0.17787831194960677,-3.1400000001762987,-6.280000002872844,6.280000032655295,-17.212682316264093,0.35416692820066553,497.72119868264485
1754940436.776391,0.9499258701162788,-1.9772405178094705,-6.280000010838025,-6.280000008577286,-16.507522676062667,0.46137444176773224,498.98141243294566
1754940436.7863543,0.4089120834254255,1.991524543950182,6.28000000129532,-6.280000033785754,-6.280000023502781,0.08487599251274505,490.4303522560394
1754940436.7966368,-0.7596021137949025,1.216864596340575,6.280000010231529,6.2800000046099465,-6.28000003627348,-0.0799478740225754,489.38847697271024
1754940436.8065727,-0.368104290427101,-2.332192775377543,-6.280000000282912,6.280000034287482,-6.2800000349622955,0.1319673144892955,489.5311222374544
1754940436.816512,0.8572452987286997,-2.172421610367663,-6.280000010786477,-0.3599694579957178,-6.280000031927014,0.5526955484110118,475.2211076370474
1754940436.8264844,0.4117147631377635,1.4428032833170787,4.343160491603568,-6.280000033782599,-6.280000022868031,0.13084279106484087,485.0429425918833
1754940436.836884,-0.818574937967557,1.3957473209577893,6.280000010206404,-0.3546900583051588,-6.280000024814867,-0.1433587055688448,480.008241137607
1754940436.8467412,-0.512055805878527,-2.0465958253075156,-2.7918320968062287,6.2800000339642565,-18.656357304520192,0.0848157114158623,497.5382180551217
1754940436.8567715,0.8434337519098158,-3.1400000003073165,-6.280000010619318,-0.4139431578458095,-6.280000032079668,0.7020624103312986,478.2068368499553
1754940436.8669772,0.6183413934525707,1.3318063067311945,2.1345413601902585,-6.280000034415515,-15.774962199383793,0.17164051602790367,497.79773334429404
1754940436.8771722,-0.7209871864555057,1.9860090709098455,6.280000009835012,-0.2837723224870379,-6.280000036275336,-0.17414231115752643,477.1646872215802
1754940436.8873227,-0.6609845317919755,-1.76747441289089,-1.5757470437488128,6.2800000328903565,-6.280000010665237,0.12990192780122467,473.86051220699727
1754940436.8973904,0.7470117139743154,-3.140000000417463,-6.280000010662155,6.280000000184004,6.279999964995727,0.6650295925749558,464.66810498939066
1754940436.9072948,0.722103644374421,0.9410770017169215,1.6417206732211307,-6.28000003367741,6.279999965890935,0.19832115118249258,474.59405016679773
1754940436.9173694,-0.5067791707370788,2.2761223519890654,6.280000009394373,-6.28000000635064,6.27999996348617,-0.15944838724325214,466.7518150793047
1754940436.9277143,-0.7279837135026763,-0.7563239351336328,1.6190092951586759,6.280000031995105,-16.937003112855564,0.042176704994112565,499.99999996878336
1754940436.9376214,0.5339627988089657,-3.1400000001852106,-6.280000008883393,6.28000001765038,-17.012789912447595,0.7231125350024278,496.170978279536
1754940436.947501,0.9234234393962233,0.05630255523871097,-5.826212053000946,-6.280000027178804,6.279999991199981,0.25256440331345376,473.62604540586113
1754940436.9575853,-0.12451304473643454,2.510297579691442,6.280000006916373,-6.280000027777991,-17.290366639707848,-0.06730680233438796,492.3393493495006
1754940436.9677413,-0.9035319068189938,0.03892873621660381,6.280000003415649,6.280000023774516,6.279999974753137,0.05923838591287904,474.45511457466324
1754940436.9777708,0.012032522762188469,-3.1400000005763653,-6.280000005676659,6.280000031216513,-16.02103891444404,0.5698289469539435,499.9999999681213
1754940436.9876642,0.8501011407396903,-0.8317416663447967,-6.280000005651606,-6.280000019432578,-6.280000029993324,0.3898852560984447,484.13244362170195
1754940436.9977589,0.016641363363337658,2.2615947683937794,6.280000004542051,-6.280000033453689,6.279999964479546,0.0513846716773152,483.76251987053433
1754940437.0081542,-0.9642323668918111,0.4580238042577654,6.280000009407992,6.280000012932433,6.279999963909123,-0.09231008486176814,466.13473294522674
1754940437.018151,-0.15514208300532073,-3.1400000002312702,-6.280000003184057,6.280000032018599,6.279999975795713,0.2952005832717764,470.37946923226053
1754940437.028185,0.9217116404560445,-1.88991074128306,-6.2800000096115305,-6.280000010904104,-16.29245308377942,0.43253879129694833,494.729792002115
1754940437.0383024,0.36102593655350634,2.207929765635082,6.2800000018188245,-6.280000034517833,6.279999964669812,0.0242061154174655,483.2593883409438
1754940437.048408,-0.7427290624626127,1.2842332622420447,6.280000010176545,6.280000004479865,-6.280000024141191,-0.13366107352785275,485.84705321396063
1754940437.058727,-0.39713740256276747,-2.1879416542294265,-6.181820840310341,6.280000035459032,-6.280000024799468,0.15506595234657417,497.4787778931955
1754940437.0684814,0.8024727120546434,-1.880026479016255,-6.2800000108724525,-0.30296453795027944,-17.410218067398525,0.5008586139190501,488.57111607094816
1754940437.0783417,0.4261257123376444,2.303426509828853,4.007402044347174,-6.280000034264731,6.279999965359815,0.009490064277239307,474.0067395669647
1754940437.088348,-0.7788463953169725,1.352142291046599,6.280000010054275,-0.29881953817326334,6.27999996440928,-0.1288350982515269,462.41856177970016
1754940437.0985324,-0.44225971365907724,-2.0385499121434605,-3.5979169807766156,6.2800000335062265,-6.280000025214932,0.011007823319961751,481.20442143722283
1754940437.1084821,0.8473223787679621,-2.667099942109308,-6.28000001062825,-0.3551647965502507,-17.879547854799622,0.54013981506772,484.3287090080488
1754940437.1183755,0.47746608238668553,1.5811291056843444,3.453957366918482,-6.280000034322477,6.279999965304453,0.06200306942776351,473.96063923267775
1754940437.1286244,-0.7754611226580582,1.3947761814125013,6.280000010063819,-0.34998101420006367,6.279999964828303,-0.22805361047312422,463.08685203113237
1754940437.1385837,-0.4625884744890315,-2.017496024649924,-3.187193437496982,6.28000003364231,-6.280000025082986,-0.031211879598780135,481.7575135773397
1754940437.1490707,0.8575231228227553,-3.1400000001419213,-6.280000010465429,-0.44892815229419325,-18.05703781142232,0.6604292024195529,485.62227062174543
1754940437.1589463,0.48246625322204684,1.5394931909017582,3.3143951557316447,-6.280000033968534,-16.00699945513872,0.0601820275689613,494.5187620409997
1754940437.1690595,-0.7784796046858555,1.5103618522584794,6.28000001000772,-0.33877025493015933,-16.0421724560474,-0.2442649523732541,483.51110920093157
1754940437.179235,-0.48224493251063183,-1.927403080421059,-3.0179409310047585,6.280000034402171,-6.280000024897105,-0.04571904263644089,487.04950461100117
1754940437.189306,0.7981911330436108,-2.2740802736910295,-6.280000010858686,-0.4413239194033709,6.279999962542965,0.4811828178861051,468.7596483652815
1754940437.1996143,0.6177472936949153,2.0141592809281743,1.857740091730947,-6.280000035056972,6.279999959899717,-0.004484274734175453,479.87062542107674
1754940437.2094345,-0.6581597157151375,2.5781473612977206,6.28000000963422,-6.280000003966332,-6.280000031753905,-0.31746547424995875,476.93002236766733
1754940437.2192936,-0.7749649736966797,-0.7167153514841133,0.115025471736792,6.280000032604306,6.27999997515179,-0.06899865114456663,471.811178038234
1754940437.229674,0.4592798780508188,-2.62868376953828,-6.280000009582578,6.280000014464294,6.279999974407718,0.4971844708960199,468.19121559233446
1754940437.239663,0.7244193953448099,0.525857327722391,-2.9479933909700757,-6.28000003084982,-15.995956982792652,0.12744663794041444,499.9656792669916
1754940437.24957,-0.43048921713558996,3.140000000438124,6.280000007895295,-6.280000026272731,6.2799999646963975,-0.3994008063472531,475.95309283136436
1754940437.2595198,-0.9175860099224327,-0.39251319016715935,6.280687812250036,6.280000025669825,6.279999975737525,-0.03736786254501129,468.381937424334
1754940437.2700198,0.09980121927974789,-3.1400000008348443,-6.2800000069854205,6.280000028815547,6.279999975056382,0.3609109068173668,471.61148685422046
1754940437.2800152,0.8846418303322217,-0.9562503212108067,-6.280000005545853,-6.28000002090652,-6.280000005489224,0.14746671328245387,485.839539244632
1754940437.2900546,0.04271898701172361,2.3665394291342348,6.280000004799812,-6.280000033270213,-11.281566111511241,-0.1898875226051418,499.99999997162246
1754940437.3001595,-0.9113071115304848,0.6637525236552276,6.280000009833948,6.280000013736702,-17.402808167541412,-0.2790589632146008,497.47167741886955
1754940437.3103073,-0.22253400709573093,-3.1400000000230035,-6.280000001960875,6.28000003481948,-6.2800000246076975,0.16907203002806923,498.3695748925511
1754940437.3204978,0.8790631131164449,-1.5341162771745753,-6.280000010922329,-6.280000005620348,-17.324567498054787,0.24527260836728865,496.62883637938273
1754940437.3304143,0.3839640420616594,2.9656910823573326,6.221463927874649,-6.280000034156814,6.2799999649010285,-0.1770641546035771,478.6232093084586
1754940437.3406193,-0.7381829002425373,1.8407166127173076,6.2800000105167335,1.922790104706897,-16.19275403864399,-0.3193920963171065,495.9626361878972
1754940437.3503127,-0.3900911071346985,-2.067600746805498,-4.095465839662465,6.280000034891529,6.279999975266426,0.1485864338954444,478.20112071565677
1754940437.360447,0.8192683035090648,-2.3355768178562193,-6.280000011096536,-0.36728157206628476,-6.280000035936968,0.5364296662277578,486.12328366039117
1754940437.3708644,0.6056695962872752,2.0240674273994648,1.9117420592168908,-6.280000034744418,-2.264388143657925e-08,-0.08800234531435581,484.3742547208112
1754940437.3803835,-0.6455480156088477,3.1400000002294086,6.280000009593994,-6.280000005751144,-2.0469649975041193e-08,-0.5656673244830037,477.5389021617317
1754940437.3905432,-0.7483103904551125,-0.42475092369274514,1.8858569746178768,6.2800000309676705,3.3129809262717873,-0.18381790646418708,471.2168460622774
1754940437.4004796,0.4748166887259574,-3.14000000043375,-6.28000000905466,6.280000019121047,-2.587171454848658e-08,0.5683266173209586,484.8160887647029
1754940437.410757,0.9006766767164144,-0.08595688079059949,-5.6232245203643725,-6.280000026875502,3.0321137873468924,0.14299451292721105,475.53023231571166
1754940437.420704,-0.11650948651425053,3.1400000008572926,6.280000006941186,-6.280000029709363,-2.2419452960775743e-08,-0.3929755091190391,482.2416976968911
1754940437.430925,-0.8418199528560619,0.4797796963589944,6.28000000485045,6.280000020580552,6.279999973361823,-0.18345636738968657,470.31559724988784
1754940437.4411168,-0.0020242855276053073,-3.140000000438587,-6.28000000482314,6.280000033068369,-2.491352990574569e-08,0.39836485586664316,490.82021435719287
1754940437.4511733,0.9295172598031711,-0.9905141853065083,-6.280000009274957,-6.280000014473504,-2.342663396603939e-08,0.21524860765515763,484.8898581556165
